; generated by SuperSlicer 2.4 on 2024-04-02 at 22:44:32 UTC


;
;

;
;
; TODO: check the size of the extruder and the y-bar clearance. Optimize & test supports.

; external perimeters extrusion width = 0.40mm
; perimeters extrusion width = 0.40mm
; infill extrusion width = 0.40mm
; solid infill extrusion width = 0.40mm
; top infill extrusion width = 0.40mm
; first layer extrusion width = 0.56mm

; object:{"name":"Galvo_Mount","id":"Galvo_Mount.STL id:0 copy 0","object_center":[60.000000,60.000000,0.000000],"boundingbox_center":[60.000000,60.000000,0.775000],"boundingbox_size":[35.000000,40.000000,1.550000]}
; plater:{"center":[60.000000,60.000000,0.000000],"boundingbox_center":[60.000000,60.000000,0.775000],"boundingbox_size":[35.000000,40.000000,1.550000]}

;TYPE:Custom
; M190 S0
;M109 S0 ; uncomment to remove set&wait temp gcode added automatically after this start gcode
print_start EXTRUDER=245 BED=90 CHAMBER=50

;G92 E0
;G1 E10 F1500 ; prime the nozzle
M107
G21 ; set units to millimeters
G90 ; use absolute coordinates
M83 ; use relative distances for extrusion
SET_PRESSURE_ADVANCE ADVANCE=0.04
;_TOOLCHANGE 0
M104 S245 ; set temperature
M109 S245 ; set temperature and wait for it to be reached
M190 S90 ; set bed temperature and wait for it to be reached
M107
;LAYER_CHANGE
;Z:0.25
;HEIGHT:0.25
;BEFORE_LAYER_CHANGE
;0.25


G1 Z0.25 F18000
;AFTER_LAYER_CHANGE
;0.25
TIMELAPSE_TAKE_FRAME
G92 E0
G1 E-2 F3000
G1 Z0.65 F18000
M204 S1000
G1 X39.727 Y37.899
G1 Z0.25
G1 E2 F1800
;TYPE:Skirt
;WIDTH:0.52
G1 X39.055 Y38.965 E0.06111
G1 X38.652 Y40.205 E0.06318
G1 X38.556 Y41.14 E0.04556
G1 X38.556 Y78.864 E1.82852
G1 X38.712 Y80.101 E0.06046
G1 X39.066 Y81.075 E0.05023
G1 X39.518 Y81.831 E0.04272
G1 X39.985 Y82.387 E0.0352
G1 X40.651 Y82.964 E0.04271
G1 X41.408 Y83.417 E0.04272
G1 X42.231 Y83.731 E0.04272
G1 X43.619 Y83.927 E0.06794
G1 X54.996 Y83.901 E0.55144
G1 X55.816 Y83.759 E0.04036
G1 X56.587 Y83.49 E0.03959
G1 X57.477 Y82.981 E0.04969
G1 X58.452 Y82.073 E0.06456
G1 X80.299 Y55.261 E1.67643
G1 X81 Y54.121 E0.06485
G1 X81.288 Y53.289 E0.04271
G1 X81.428 Y52.414 E0.04294
G1 X81.444 Y41.136 E0.54665
G1 X81.288 Y39.899 E0.06047
G1 X81 Y39.066 E0.04271
G1 X80.571 Y38.296 E0.04272
G1 X80.015 Y37.613 E0.04272
G1 X79.349 Y37.036 E0.04271
G1 X78.592 Y36.583 E0.04272
G1 X77.769 Y36.269 E0.04272
G1 X76.744 Y36.089 E0.05044
G1 X43.623 Y36.073 E1.60544
G1 X42.683 Y36.17 E0.04576
G1 X41.619 Y36.486 E0.05384
G1 X40.532 Y37.134 E0.0613
G1 X39.771 Y37.858 E0.05093
G1 X40.091 Y38.193 F18000
G1 F1800
G1 X39.47 Y39.177 E0.05638
G1 X39.113 Y40.278 E0.05611
G1 X39.022 Y41.14 E0.04202
G1 X39.022 Y78.864 E1.82852
G1 X39.162 Y79.98 E0.05456
G1 X39.489 Y80.878 E0.04629
G1 X39.9 Y81.564 E0.03878
G1 X40.315 Y82.058 E0.03126
G1 X40.919 Y82.582 E0.03877
G1 X41.605 Y82.994 E0.03878
G1 X42.352 Y83.28 E0.03878
G1 X43.619 Y83.46 E0.06204
G1 X54.944 Y83.438 E0.54893
G1 X55.694 Y83.309 E0.03687
G1 X56.392 Y83.067 E0.03583
G1 X57.212 Y82.597 E0.04581
G1 X58.09 Y81.779 E0.05818
G1 X79.937 Y54.966 E1.67643
G1 X80.577 Y53.924 E0.05927
G1 X80.838 Y53.168 E0.03877
G1 X80.964 Y52.374 E0.039
G1 X80.95 Y40.655 E0.56803
G1 X80.798 Y39.869 E0.03879
G1 X80.511 Y39.122 E0.03877
G1 X80.1 Y38.436 E0.03878
G1 X79.575 Y37.832 E0.03878
G1 X78.954 Y37.329 E0.03877
G1 X78.254 Y36.94 E0.03878
G1 X77.498 Y36.679 E0.03878
G1 X76.703 Y36.554 E0.03899
G1 X43.623 Y36.54 E1.60347
G1 X42.756 Y36.631 E0.04221
G1 X41.797 Y36.917 E0.04852
G1 X40.806 Y37.511 E0.05599
G1 X40.134 Y38.152 E0.04502
G1 X40.455 Y38.487 F18000
G1 F1800
G1 X40.436 Y38.505 E0.00124
G1 X39.886 Y39.389 E0.05049
G1 X39.573 Y40.351 E0.04903
G1 X39.488 Y41.14 E0.03847
G1 X39.488 Y78.864 E1.82852
G1 X39.613 Y79.86 E0.04866
G1 X39.911 Y80.681 E0.04235
G1 X40.282 Y81.296 E0.03484
G1 X41.186 Y82.2 E0.06197
G1 X41.802 Y82.571 E0.03484
G1 X42.473 Y82.83 E0.03484
G1 X43.619 Y82.994 E0.05614
G1 X54.892 Y82.974 E0.54642
G1 X55.571 Y82.859 E0.03339
G1 X56.197 Y82.643 E0.03208
G1 X56.948 Y82.213 E0.04193
G1 X57.729 Y81.484 E0.05179
G1 X79.576 Y54.672 E1.67643
G1 X80.154 Y53.727 E0.05369
G1 X80.387 Y53.048 E0.03483
G1 X80.499 Y52.333 E0.03506
G1 X80.485 Y40.695 E0.56409
G1 X80.347 Y39.99 E0.03484
G1 X80.089 Y39.319 E0.03483
G1 X79.718 Y38.704 E0.03484
G1 X79.245 Y38.162 E0.03484
G1 X78.686 Y37.711 E0.03483
G1 X78.057 Y37.363 E0.03484
G1 X77.377 Y37.13 E0.03484
G1 X76.663 Y37.018 E0.03505
G1 X43.623 Y37.006 E1.6015
G1 X42.829 Y37.091 E0.03867
G1 X41.976 Y37.348 E0.04321
G1 X41.08 Y37.888 E0.05068
G1 X40.498 Y38.445 E0.03906
G1 E-2 F3000
M204 S1500
G1 Z0.65 F18000
; printing object Galvo_Mount.STL id:0 copy 0
; acceleration to travel
G1 X44.484 Y54.175
; decel to extrusion
M204 S1000
G1 X47.14 Y64.661
; end travel
G1 Z0.25
G1 E2 F1800
;TYPE:Internal perimeter
;WIDTH:0.56
G1 X47.096 Y64.665 E0.00256
G1 X46.62 Y64.793 E0.02851
G1 X46.174 Y65.001 E0.02851
G1 X45.771 Y65.283 E0.02851
G1 X45.422 Y65.632 E0.02851
G1 X45.14 Y66.035 E0.02852
G1 X44.932 Y66.481 E0.02851
G1 X44.804 Y66.957 E0.02851
G1 X44.761 Y67.448 E0.02851
G1 X44.804 Y67.939 E0.02851
G1 X44.932 Y68.414 E0.02851
G1 X45.14 Y68.861 E0.02851
G1 X45.422 Y69.264 E0.02851
G1 X45.771 Y69.612 E0.02851
G1 X46.174 Y69.895 E0.02851
G1 X46.62 Y70.103 E0.02851
G1 X47.096 Y70.231 E0.02851
G1 X47.587 Y70.274 E0.02851
G1 X48.078 Y70.231 E0.02851
G1 X48.553 Y70.103 E0.02851
G1 X49 Y69.895 E0.02851
G1 X49.403 Y69.612 E0.02852
G1 X49.751 Y69.264 E0.02851
G1 X50.034 Y68.861 E0.02851
G1 X50.242 Y68.414 E0.02851
G1 X50.37 Y67.939 E0.02851
G1 X50.413 Y67.448 E0.02851
G1 X50.37 Y66.957 E0.02851
G1 X50.242 Y66.481 E0.02851
G1 X50.034 Y66.035 E0.02851
G1 X49.751 Y65.632 E0.02851
G1 X49.403 Y65.283 E0.02851
G1 X49 Y65.001 E0.02852
G1 X48.553 Y64.793 E0.02851
G1 X48.078 Y64.665 E0.02851
G1 X47.587 Y64.622 E0.02851
G1 X47.2 Y64.656 E0.02248
G1 X47.184 Y65.166 F18000
;TYPE:External perimeter
G1 F1800
G1 X46.794 Y65.27 E0.02338
G1 X46.428 Y65.441 E0.02338
G1 X46.097 Y65.673 E0.02339
G1 X45.812 Y65.958 E0.02338
G1 X45.58 Y66.289 E0.02339
G1 X45.409 Y66.655 E0.02338
G1 X45.305 Y67.045 E0.02338
G1 X45.27 Y67.448 E0.02339
G1 X45.305 Y67.85 E0.02339
G1 X45.409 Y68.24 E0.02338
G1 X45.58 Y68.607 E0.02338
G1 X45.812 Y68.937 E0.02339
G1 X46.097 Y69.223 E0.02338
G1 X46.428 Y69.455 E0.02339
G1 X46.794 Y69.625 E0.02338
G1 X47.184 Y69.73 E0.02338
G1 X47.587 Y69.765 E0.02339
G1 X47.989 Y69.73 E0.02339
G1 X48.379 Y69.625 E0.02338
G1 X48.746 Y69.455 E0.02339
G1 X49.076 Y69.223 E0.02339
G1 X49.362 Y68.937 E0.02338
G1 X49.594 Y68.607 E0.02339
G1 X49.764 Y68.24 E0.02338
G1 X49.869 Y67.85 E0.02338
G1 X49.904 Y67.448 E0.02339
G1 X49.869 Y67.045 E0.02339
G1 X49.764 Y66.655 E0.02338
G1 X49.594 Y66.289 E0.02338
G1 X49.362 Y65.958 E0.02339
G1 X49.076 Y65.673 E0.02338
G1 X48.746 Y65.441 E0.02339
G1 X48.379 Y65.27 E0.02338
G1 X47.989 Y65.166 E0.02338
G1 X47.587 Y65.131 E0.02339
G1 X47.244 Y65.16 E0.01991
;WIPE_START
M204 S1500
G1 X46.919 Y64.867 F18000
;WIPE_END
G1 E-2 F3000
G1 Z0.65 F18000
; acceleration to travel
G1 X47.293 Y60.661
; decel to extrusion
M204 S1000
G1 X47.543 Y57.857
; end travel
G1 Z0.25
G1 E2 F1800
;TYPE:Internal perimeter
G1 X47.587 Y57.86 E0.00256
G1 X48.078 Y57.817 E0.02851
G1 X48.553 Y57.69 E0.02851
G1 X49 Y57.482 E0.02851
G1 X49.403 Y57.199 E0.02851
G1 X49.751 Y56.851 E0.02851
G1 X50.034 Y56.448 E0.02851
G1 X50.242 Y56.001 E0.02851
G1 X50.37 Y55.525 E0.02851
G1 X50.413 Y55.035 E0.02851
G1 X50.37 Y54.544 E0.02851
G1 X50.242 Y54.068 E0.02851
G1 X50.034 Y53.622 E0.02851
G1 X49.751 Y53.218 E0.02851
G1 X49.403 Y52.87 E0.02851
G1 X49 Y52.588 E0.02851
G1 X48.553 Y52.38 E0.02851
G1 X48.078 Y52.252 E0.02851
G1 X47.587 Y52.209 E0.02851
G1 X47.096 Y52.252 E0.02851
G1 X46.62 Y52.38 E0.02851
G1 X46.174 Y52.588 E0.02851
G1 X45.771 Y52.87 E0.02851
G1 X45.422 Y53.218 E0.02851
G1 X45.14 Y53.622 E0.02852
G1 X44.932 Y54.068 E0.02851
G1 X44.804 Y54.544 E0.02851
G1 X44.761 Y55.035 E0.02851
G1 X44.804 Y55.525 E0.02851
G1 X44.932 Y56.001 E0.02851
G1 X45.14 Y56.448 E0.02851
G1 X45.422 Y56.851 E0.02851
G1 X45.771 Y57.199 E0.02851
G1 X46.174 Y57.482 E0.02851
G1 X46.62 Y57.69 E0.02851
G1 X47.096 Y57.817 E0.02851
G1 X47.483 Y57.851 E0.02248
G1 X47.587 Y57.352 F18000
;TYPE:External perimeter
G1 F1800
G1 X47.989 Y57.317 E0.02339
G1 X48.379 Y57.212 E0.02338
G1 X48.746 Y57.042 E0.02338
G1 X49.076 Y56.81 E0.02339
G1 X49.362 Y56.524 E0.02338
G1 X49.594 Y56.193 E0.02339
G1 X49.764 Y55.827 E0.02338
G1 X49.869 Y55.437 E0.02338
G1 X49.904 Y55.035 E0.02339
G1 X49.869 Y54.632 E0.02339
G1 X49.764 Y54.242 E0.02338
G1 X49.594 Y53.876 E0.02338
G1 X49.362 Y53.545 E0.02339
G1 X49.076 Y53.26 E0.02338
G1 X48.746 Y53.028 E0.02339
G1 X48.379 Y52.857 E0.02338
G1 X47.989 Y52.753 E0.02338
G1 X47.587 Y52.717 E0.02339
G1 X47.184 Y52.753 E0.02339
G1 X46.794 Y52.857 E0.02338
G1 X46.428 Y53.028 E0.02338
G1 X46.097 Y53.26 E0.02339
G1 X45.812 Y53.545 E0.02338
G1 X45.58 Y53.876 E0.02339
G1 X45.409 Y54.242 E0.02338
G1 X45.305 Y54.632 E0.02338
G1 X45.27 Y55.035 E0.02339
G1 X45.305 Y55.437 E0.02339
G1 X45.409 Y55.827 E0.02338
G1 X45.58 Y56.193 E0.02338
G1 X45.812 Y56.524 E0.02339
G1 X46.097 Y56.81 E0.02338
G1 X46.428 Y57.042 E0.02339
G1 X46.794 Y57.212 E0.02338
G1 X47.184 Y57.317 E0.02338
G1 X47.527 Y57.347 E0.01991
;WIPE_START
M204 S1500
G1 X47.797 Y57.693 F18000
;WIPE_END
G1 E-2 F3000
G1 Z0.65 F18000
; acceleration to travel
G1 X60.197 Y51.647
; decel to extrusion
M204 S1000
G1 X68.464 Y47.617
; end travel
G1 Z0.25
G1 E2 F1800
;TYPE:Internal perimeter
G1 X68.533 Y47.764 E0.00942
G1 X68.866 Y48.24 E0.03364
G1 X69.277 Y48.651 E0.03364
G1 X69.753 Y48.985 E0.03364
G1 X70.28 Y49.23 E0.03364
G1 X70.841 Y49.381 E0.03364
G1 X71.42 Y49.431 E0.03364
G1 X71.999 Y49.381 E0.03364
G1 X72.56 Y49.23 E0.03364
G1 X73.087 Y48.985 E0.03364
G1 X73.563 Y48.651 E0.03364
G1 X73.974 Y48.24 E0.03364
G1 X74.307 Y47.764 E0.03364
G1 X74.553 Y47.238 E0.03364
G1 X74.703 Y46.676 E0.03364
G1 X74.754 Y46.097 E0.03364
G1 X74.703 Y45.518 E0.03364
G1 X74.553 Y44.957 E0.03364
G1 X74.307 Y44.43 E0.03364
G1 X73.974 Y43.954 E0.03364
G1 X73.563 Y43.543 E0.03364
G1 X73.087 Y43.21 E0.03364
G1 X72.56 Y42.964 E0.03364
G1 X71.999 Y42.814 E0.03364
G1 X71.42 Y42.763 E0.03364
G1 X70.841 Y42.814 E0.03364
G1 X70.28 Y42.964 E0.03364
G1 X69.753 Y43.21 E0.03364
G1 X69.277 Y43.543 E0.03364
G1 X68.866 Y43.954 E0.03364
G1 X68.533 Y44.43 E0.03364
G1 X68.287 Y44.957 E0.03364
G1 X68.137 Y45.518 E0.03364
G1 X68.086 Y46.097 E0.03364
G1 X68.137 Y46.676 E0.03364
G1 X68.287 Y47.238 E0.03364
G1 X68.439 Y47.562 E0.02075
G1 X68.923 Y47.403 F18000
G1 F1800
G1 X68.973 Y47.51 E0.00686
G1 X69.255 Y47.914 E0.02851
G1 X69.604 Y48.262 E0.02851
G1 X70.007 Y48.544 E0.02851
G1 X70.454 Y48.753 E0.02851
G1 X70.929 Y48.88 E0.02851
G1 X71.42 Y48.923 E0.02851
G1 X71.911 Y48.88 E0.02851
G1 X72.386 Y48.753 E0.02851
G1 X72.833 Y48.544 E0.02851
G1 X73.236 Y48.262 E0.02851
G1 X73.585 Y47.914 E0.02851
G1 X73.867 Y47.51 E0.02851
G1 X74.075 Y47.064 E0.02851
G1 X74.203 Y46.588 E0.02851
G1 X74.246 Y46.097 E0.02851
G1 X74.203 Y45.607 E0.02851
G1 X74.075 Y45.131 E0.02851
G1 X73.867 Y44.685 E0.02851
G1 X73.585 Y44.281 E0.02851
G1 X73.236 Y43.933 E0.02851
G1 X72.833 Y43.65 E0.02851
G1 X72.386 Y43.442 E0.02851
G1 X71.911 Y43.315 E0.02851
G1 X71.42 Y43.272 E0.02851
G1 X70.929 Y43.315 E0.02851
G1 X70.454 Y43.442 E0.02851
G1 X70.007 Y43.65 E0.02851
G1 X69.604 Y43.933 E0.02852
G1 X69.255 Y44.281 E0.02851
G1 X68.973 Y44.685 E0.02851
G1 X68.765 Y45.131 E0.02851
G1 X68.637 Y45.607 E0.02851
G1 X68.594 Y46.097 E0.02851
G1 X68.637 Y46.588 E0.02851
G1 X68.765 Y47.064 E0.02851
G1 X68.898 Y47.348 E0.01819
G1 X69.382 Y47.189 F18000
;TYPE:External perimeter
G1 F1800
G1 X69.413 Y47.256 E0.00429
G1 X69.645 Y47.587 E0.02339
G1 X69.93 Y47.873 E0.02338
G1 X70.261 Y48.104 E0.02339
G1 X70.627 Y48.275 E0.02338
G1 X71.018 Y48.379 E0.02338
G1 X71.42 Y48.415 E0.02339
G1 X71.822 Y48.379 E0.02339
G1 X72.213 Y48.275 E0.02338
G1 X72.579 Y48.104 E0.02338
G1 X72.91 Y47.873 E0.02339
G1 X73.195 Y47.587 E0.02338
G1 X73.427 Y47.256 E0.02339
G1 X73.598 Y46.89 E0.02338
G1 X73.702 Y46.5 E0.02338
G1 X73.737 Y46.097 E0.02339
G1 X73.702 Y45.695 E0.02339
G1 X73.598 Y45.305 E0.02338
G1 X73.427 Y44.939 E0.02338
G1 X73.195 Y44.608 E0.02339
G1 X72.91 Y44.322 E0.02338
G1 X72.579 Y44.09 E0.02339
G1 X72.213 Y43.92 E0.02338
G1 X71.822 Y43.815 E0.02338
G1 X71.42 Y43.78 E0.02339
G1 X71.018 Y43.815 E0.02339
G1 X70.627 Y43.92 E0.02338
G1 X70.261 Y44.09 E0.02338
G1 X69.93 Y44.322 E0.02339
G1 X69.645 Y44.608 E0.02338
G1 X69.413 Y44.939 E0.02339
G1 X69.242 Y45.305 E0.02338
G1 X69.138 Y45.695 E0.02338
G1 X69.103 Y46.097 E0.02339
G1 X69.138 Y46.5 E0.02339
G1 X69.242 Y46.89 E0.02338
G1 X69.356 Y47.134 E0.01562
;WIPE_START
M204 S1500
G1 X69.152 Y47.516 F18000
;WIPE_END
G1 E-2 F3000
G1 Z0.65 F18000
; acceleration to travel
G1 X55.919 Y57.501
; decel to extrusion
M204 S1000
G1 X47.096 Y64.157
; end travel
G1 Z0.25
G1 E2 F1800
;TYPE:Internal perimeter
G1 X47.008 Y64.165 E0.00513
G1 X46.447 Y64.315 E0.03364
G1 X45.92 Y64.561 E0.03364
G1 X45.444 Y64.894 E0.03364
G1 X45.033 Y65.305 E0.03364
G1 X44.7 Y65.781 E0.03364
G1 X44.454 Y66.308 E0.03364
G1 X44.367 Y66.634 E0.01957
G1 X44.014 Y66.588 E0.02057
G1 X44.014 Y55.895 E0.61902
G1 X44.367 Y55.849 E0.02057
G1 X44.454 Y56.175 E0.01957
G1 X44.7 Y56.702 E0.03364
G1 X45.033 Y57.178 E0.03364
G1 X45.444 Y57.589 E0.03364
G1 X45.92 Y57.922 E0.03364
G1 X46.447 Y58.168 E0.03364
G1 X47.008 Y58.318 E0.03364
G1 X47.587 Y58.369 E0.03364
G1 X48.166 Y58.318 E0.03364
G1 X48.727 Y58.168 E0.03364
G1 X49.254 Y57.922 E0.03364
G1 X49.73 Y57.589 E0.03364
G1 X50.141 Y57.178 E0.03364
G1 X50.474 Y56.702 E0.03364
G1 X50.72 Y56.175 E0.03364
G1 X50.87 Y55.614 E0.03364
G1 X50.921 Y55.035 E0.03364
G1 X50.87 Y54.456 E0.03364
G1 X50.72 Y53.894 E0.03364
G1 X50.474 Y53.368 E0.03364
G1 X50.141 Y52.892 E0.03364
G1 X49.73 Y52.481 E0.03364
G1 X49.254 Y52.147 E0.03364
G1 X48.727 Y51.902 E0.03364
G1 X48.166 Y51.751 E0.03364
G1 X47.587 Y51.701 E0.03364
G1 X47.008 Y51.751 E0.03364
G1 X46.447 Y51.902 E0.03364
G1 X45.92 Y52.147 E0.03364
G1 X45.444 Y52.481 E0.03364
G1 X45.033 Y52.892 E0.03364
G1 X44.7 Y53.368 E0.03364
G1 X44.454 Y53.894 E0.03364
G1 X44.367 Y54.221 E0.01957
G1 X44.014 Y54.175 E0.02057
G1 X44.014 Y41.532 E0.73191
G1 X75.986 Y41.542 E1.85088
G1 X75.986 Y51.656 E0.5855
G1 X56.464 Y51.656 E1.13017
G1 X56.109 Y51.687 E0.0206
G1 X55.707 Y51.795 E0.02413
G1 X55.329 Y51.971 E0.02413
G1 X54.987 Y52.21 E0.02413
G1 X54.693 Y52.505 E0.02413
G1 X54.454 Y52.846 E0.02413
G1 X54.277 Y53.224 E0.02413
G1 X54.17 Y53.626 E0.02413
G1 X54.139 Y53.981 E0.0206
G1 X54.139 Y78.468 E1.41762
G1 X44.014 Y78.468 E0.58611
G1 X44.014 Y68.308 E0.5882
G1 X44.367 Y68.262 E0.02057
G1 X44.454 Y68.588 E0.01957
G1 X44.7 Y69.115 E0.03364
G1 X45.033 Y69.591 E0.03364
G1 X45.444 Y70.002 E0.03364
G1 X45.92 Y70.335 E0.03364
G1 X46.447 Y70.581 E0.03364
G1 X47.008 Y70.731 E0.03364
G1 X47.587 Y70.782 E0.03364
G1 X48.166 Y70.731 E0.03364
G1 X48.727 Y70.581 E0.03364
G1 X49.254 Y70.335 E0.03364
G1 X49.73 Y70.002 E0.03364
G1 X50.141 Y69.591 E0.03364
G1 X50.474 Y69.115 E0.03364
G1 X50.72 Y68.588 E0.03364
G1 X50.87 Y68.027 E0.03364
G1 X50.921 Y67.448 E0.03364
G1 X50.87 Y66.869 E0.03364
G1 X50.72 Y66.308 E0.03364
G1 X50.474 Y65.781 E0.03364
G1 X50.141 Y65.305 E0.03364
G1 X49.73 Y64.894 E0.03364
G1 X49.254 Y64.561 E0.03365
G1 X48.727 Y64.315 E0.03364
G1 X48.166 Y64.165 E0.03364
G1 X47.587 Y64.114 E0.03364
G1 X47.156 Y64.152 E0.02504
G1 E-2 F3000
M204 S1500
G1 Z0.65 F18000
; acceleration to travel
G1 X60.491 Y56.958
; decel to extrusion
M204 S1000
G1 X69.382 Y52.162
; end travel
G1 Z0.25
G1 E2 F1800
G1 X56.486 Y52.162 E0.74658
G1 X56.197 Y52.188 E0.01675
G1 X55.88 Y52.272 E0.019
G1 X55.583 Y52.411 E0.019
G1 X55.314 Y52.599 E0.019
G1 X55.082 Y52.831 E0.019
G1 X54.894 Y53.1 E0.019
G1 X54.755 Y53.398 E0.019
G1 X54.67 Y53.715 E0.019
G1 X54.645 Y54.003 E0.01675
G1 X54.645 Y78.975 E1.44565
G1 X43.508 Y78.975 E0.64474
G1 X43.508 Y41.025 E2.19695
G1 X76.492 Y41.036 E1.9095
G1 X76.492 Y52.162 E0.64412
G1 X69.442 Y52.162 E0.40815
G1 X69.382 Y52.669 F18000
;TYPE:External perimeter
G1 F1800
G1 X56.508 Y52.669 E0.7453
G1 X56.286 Y52.688 E0.01291
