; generated by SuperSlicer 2.4 on 2024-04-04 at 05:47:41 UTC


;
;

;
;
; TODO: check the size of the extruder and the y-bar clearance. Optimize & test supports.

; external perimeters extrusion width = 0.40mm
; perimeters extrusion width = 0.40mm
; infill extrusion width = 0.40mm
; solid infill extrusion width = 0.40mm
; top infill extrusion width = 0.40mm
; first layer extrusion width = 0.56mm

; object:{"name":"UpperMount","id":"UpperMount.STL id:0 copy 0","object_center":[60.000000,60.000000,0.000000],"boundingbox_center":[60.000000,60.000000,20.000000],"boundingbox_size":[65.250000,100.000000,40.000000]}
; plater:{"center":[60.000000,60.000000,0.000000],"boundingbox_center":[60.000000,60.000000,20.000000],"boundingbox_size":[65.250000,100.000000,40.000000]}

;TYPE:Custom
; M190 S0
;M109 S0 ; uncomment to remove set&wait temp gcode added automatically after this start gcode
print_start EXTRUDER=245 BED=90 CHAMBER=50

;G92 E0
;G1 E10 F1500 ; prime the nozzle
M107
G21 ; set units to millimeters
G90 ; use absolute coordinates
M83 ; use relative distances for extrusion
SET_PRESSURE_ADVANCE ADVANCE=0.04
;_TOOLCHANGE 0
M104 S245 ; set temperature
M109 S245 ; set temperature and wait for it to be reached
M190 S90 ; set bed temperature and wait for it to be reached
M107
;LAYER_CHANGE
;Z:0.25
;HEIGHT:0.25
;BEFORE_LAYER_CHANGE
;0.25


G1 Z0.25 F18000
;AFTER_LAYER_CHANGE
;0.25
TIMELAPSE_TAKE_FRAME
G92 E0
G1 E-2 F3000
G1 Z0.65 F18000
M204 S1000
G1 X24.397 Y8.785
G1 Z0.25
G1 E2 F1800
;TYPE:Skirt
;WIDTH:0.52
G1 X24.002 Y10.448 E0.08282
G1 X24.002 Y109.552 E4.80375
G1 X24.731 Y111.758 E0.11259
G1 X26.039 Y112.857 E0.08282
G1 X27.702 Y113.252 E0.08282
G1 X92.298 Y113.252 E3.13108
G1 X94.504 Y112.523 E0.11259
G1 X95.603 Y111.215 E0.08282
G1 X95.998 Y109.552 E0.08282
G1 X95.998 Y10.448 E4.80375
G1 X95.269 Y8.242 E0.11259
G1 X93.961 Y7.143 E0.08282
G1 X92.298 Y6.748 E0.08282
G1 X27.702 Y6.748 E3.13108
G1 X25.496 Y7.477 E0.11259
G1 X24.435 Y8.739 E0.07991
G1 X24.862 Y8.901 F18000
G1 F1800
G1 X24.469 Y10.448 E0.07735
G1 X24.469 Y109.552 E4.80375
G1 X24.986 Y111.306 E0.08863
G1 X26.155 Y112.392 E0.07735
G1 X27.702 Y112.786 E0.07735
G1 X92.298 Y112.786 E3.13108
G1 X94.052 Y112.269 E0.08863
G1 X95.138 Y111.099 E0.07735
G1 X95.531 Y109.552 E0.07735
G1 X95.531 Y10.448 E4.80375
G1 X95.014 Y8.694 E0.08863
G1 X93.845 Y7.608 E0.07735
G1 X92.298 Y7.214 E0.07735
G1 X27.702 Y7.214 E3.13108
G1 X25.948 Y7.731 E0.08863
G1 X24.903 Y8.857 E0.07444
G1 E-2 F3000
M204 S1500
G1 Z0.65 F18000
; printing object UpperMount.STL id:0 copy 0
; acceleration to travel
G1 X42.339 Y52.523
; decel to extrusion
M204 S1000
G1 X53.963 Y81.633
; end travel
G1 Z0.25
G1 E2 F1800
;TYPE:Internal perimeter
;WIDTH:0.56
G1 X53.92 Y81.645 E0.00256
G1 X53.552 Y81.816 E0.0235
G1 X53.22 Y82.049 E0.0235
G1 X52.933 Y82.336 E0.0235
G1 X52.7 Y82.669 E0.0235
G1 X52.528 Y83.037 E0.0235
G1 X52.423 Y83.429 E0.0235
G1 X52.388 Y83.833 E0.0235
G1 X52.423 Y84.238 E0.0235
G1 X52.528 Y84.63 E0.0235
G1 X52.7 Y84.998 E0.0235
G1 X52.933 Y85.33 E0.0235
G1 X53.22 Y85.617 E0.0235
G1 X53.552 Y85.85 E0.0235
G1 X53.92 Y86.022 E0.0235
G1 X54.313 Y86.127 E0.0235
G1 X54.717 Y86.162 E0.0235
G1 X55.121 Y86.127 E0.0235
G1 X55.514 Y86.022 E0.0235
G1 X55.882 Y85.85 E0.0235
G1 X56.214 Y85.617 E0.0235
G1 X56.501 Y85.33 E0.0235
G1 X56.734 Y84.998 E0.0235
G1 X56.906 Y84.63 E0.0235
G1 X57.011 Y84.238 E0.0235
G1 X57.046 Y83.833 E0.0235
G1 X57.011 Y83.429 E0.0235
G1 X56.906 Y83.037 E0.0235
G1 X56.734 Y82.669 E0.0235
G1 X56.501 Y82.336 E0.0235
G1 X56.214 Y82.049 E0.0235
G1 X55.882 Y81.816 E0.0235
G1 X55.514 Y81.645 E0.0235
G1 X55.121 Y81.539 E0.0235
G1 X54.717 Y81.504 E0.0235
G1 X54.313 Y81.539 E0.0235
G1 X54.021 Y81.618 E0.01747
G1 X54.094 Y82.122 F18000
;TYPE:External perimeter
G1 F1800
G1 X53.807 Y82.256 E0.01837
G1 X53.547 Y82.438 E0.01838
G1 X53.322 Y82.663 E0.01837
G1 X53.14 Y82.923 E0.01838
G1 X53.006 Y83.21 E0.01837
G1 X52.924 Y83.517 E0.01837
G1 X52.896 Y83.833 E0.01837
G1 X52.924 Y84.149 E0.01837
G1 X53.006 Y84.456 E0.01837
G1 X53.14 Y84.744 E0.01837
G1 X53.322 Y85.004 E0.01838
G1 X53.547 Y85.228 E0.01837
G1 X53.807 Y85.41 E0.01838
G1 X54.094 Y85.544 E0.01837
G1 X54.401 Y85.626 E0.01837
G1 X54.717 Y85.654 E0.01837
G1 X55.033 Y85.626 E0.01837
G1 X55.34 Y85.544 E0.01837
G1 X55.627 Y85.41 E0.01837
G1 X55.887 Y85.228 E0.01838
G1 X56.112 Y85.004 E0.01837
G1 X56.294 Y84.744 E0.01838
G1 X56.428 Y84.456 E0.01837
G1 X56.51 Y84.149 E0.01837
G1 X56.538 Y83.833 E0.01837
G1 X56.51 Y83.517 E0.01837
G1 X56.428 Y83.21 E0.01837
G1 X56.294 Y82.923 E0.01837
G1 X56.112 Y82.663 E0.01838
G1 X55.887 Y82.438 E0.01837
G1 X55.627 Y82.256 E0.01838
G1 X55.34 Y82.122 E0.01837
G1 X55.033 Y82.04 E0.01837
G1 X54.717 Y82.012 E0.01837
G1 X54.401 Y82.04 E0.01837
G1 X54.152 Y82.107 E0.0149
;WIPE_START
M204 S1500
G1 X53.78 Y81.874 F18000
;WIPE_END
G1 E-2 F3000
G1 Z0.65 F18000
; acceleration to travel
G1 X53.546 Y84.729
; decel to extrusion
M204 S1000
G1 X53.39 Y86.632
; end travel
G1 Z0.25
G1 E2 F1800
;TYPE:Internal perimeter
G1 X53.25 Y86.666 E0.0083
G1 X52.532 Y86.956 E0.04489
G1 X51.862 Y87.347 E0.04488
G1 X51.295 Y87.799 E0.04196
G1 X38.303 Y99.792 E1.02363
G1 X37.724 Y100.426 E0.04968
G1 X37.23 Y101.2 E0.05314
G1 X36.874 Y102.046 E0.05314
G1 X36.668 Y102.941 E0.05314
G1 X36.618 Y103.857 E0.05314
G1 X36.724 Y104.769 E0.05314
G1 X36.984 Y105.65 E0.05314
G1 X37.39 Y106.473 E0.05314
G1 X37.931 Y107.215 E0.05314
G1 X38.589 Y107.854 E0.05314
G1 X38.765 Y107.974 E0.01233
G1 X38.677 Y108.26 E0.0173
G1 X28.994 Y108.26 E0.56055
G1 X28.994 Y99.656 E0.49807
G1 X29.936 Y100.388 E0.06901
G1 X30.716 Y100.81 E0.05137
G1 X31.556 Y101.097 E0.05137
G1 X32.431 Y101.243 E0.05137
G1 X33.319 Y101.242 E0.05137
G1 X34.194 Y101.095 E0.05137
G1 X35.033 Y100.806 E0.05137
G1 X35.813 Y100.383 E0.05137
G1 X36.466 Y99.872 E0.04802
G1 X50.49 Y86.927 E1.10487
G1 X50.986 Y86.398 E0.04196
G1 X51.429 Y85.762 E0.04489
G1 X51.776 Y85.069 E0.04488
G1 X51.941 Y84.569 E0.03046
G1 X52.26 Y85.252 E0.04359
G1 X52.543 Y85.657 E0.02863
G1 X52.893 Y86.007 E0.02863
G1 X53.298 Y86.29 E0.02863
G1 X53.418 Y86.346 E0.00764
G1 X53.396 Y86.572 E0.01314
G1 E-2 F3000
M204 S1500
G1 Z0.65 F18000
; acceleration to travel
G1 X56.356 Y85.777
; decel to extrusion
M204 S1000
G1 X58.329 Y85.247
; end travel
G1 Z0.25
G1 E2 F1800
G1 X58.82 Y85.749 E0.04064
G1 X59.396 Y86.188 E0.04196
G1 X84.239 Y102.461 E1.71927
G1 X84.968 Y102.857 E0.04802
G1 X85.807 Y103.146 E0.05137
G1 X86.682 Y103.293 E0.05137
G1 X87.569 Y103.293 E0.05137
G1 X88.444 Y103.148 E0.05137
G1 X89.284 Y102.861 E0.05137
G1 X90.065 Y102.439 E0.05137
G1 X91.006 Y101.707 E0.069
G1 X91.006 Y108.26 E0.37935
G1 X77.473 Y108.26 E0.78342
G1 X77.385 Y107.974 E0.01731
G1 X77.554 Y107.859 E0.01181
G1 X78.212 Y107.222 E0.05303
G1 X78.753 Y106.483 E0.05303
G1 X79.16 Y105.663 E0.05303
G1 X79.422 Y104.785 E0.05303
G1 X79.531 Y103.876 E0.05303
G1 X79.484 Y102.961 E0.05303
G1 X79.282 Y102.067 E0.05303
G1 X78.931 Y101.221 E0.05303
G1 X78.441 Y100.447 E0.05303
G1 X77.827 Y99.767 E0.05303
G1 X77.153 Y99.239 E0.04957
G1 X58.745 Y87.181 E1.27394
G1 X58.112 Y86.829 E0.04196
G1 X57.387 Y86.554 E0.04489
G1 X56.63 Y86.385 E0.04489
G1 X56.06 Y86.343 E0.03309
G1 X56.541 Y86.007 E0.03396
G1 X56.891 Y85.657 E0.02863
G1 X57.174 Y85.252 E0.02863
G1 X57.383 Y84.804 E0.02863
G1 X57.573 Y84.096 E0.0424
G1 X57.821 Y84.567 E0.03083
G1 X58.287 Y85.204 E0.04565
G1 X55.893 Y86.839 F18000
G1 F1800
G1 X55.856 Y86.836 E0.00212
G1 X55.5 Y86.861 E0.02066
G1 X54.092 Y86.981 E0.08182
G1 X53.406 Y87.149 E0.04088
G1 X52.755 Y87.412 E0.04064
G1 X52.149 Y87.766 E0.04064
G1 X51.625 Y88.184 E0.03878
G1 X38.662 Y100.15 E1.02132
G1 X38.127 Y100.736 E0.04591
G1 X37.68 Y101.436 E0.04811
G1 X37.358 Y102.202 E0.04811
G1 X37.172 Y103.012 E0.04811
G1 X37.126 Y103.842 E0.04811
G1 X37.222 Y104.667 E0.04811
G1 X37.457 Y105.465 E0.04811
G1 X37.825 Y106.21 E0.04811
G1 X38.314 Y106.882 E0.04811
G1 X38.911 Y107.46 E0.04811
G1 X39.597 Y107.929 E0.04811
G1 X40.353 Y108.274 E0.04811
G1 X40.883 Y108.413 E0.03169
G1 X40.837 Y108.766 E0.02062
G1 X28.488 Y108.766 E0.71491
G1 X28.488 Y98.572 E0.59018
G1 X28.778 Y98.485 E0.01748
G1 X29.035 Y98.879 E0.02719
G1 X29.579 Y99.469 E0.04651
G1 X30.213 Y99.963 E0.04651
G1 X30.92 Y100.344 E0.04651
G1 X31.68 Y100.605 E0.04651
G1 X32.473 Y100.736 E0.04651
G1 X33.276 Y100.736 E0.04651
G1 X34.068 Y100.603 E0.04651
G1 X34.828 Y100.341 E0.04651
G1 X35.534 Y99.958 E0.04651
G1 X36.138 Y99.486 E0.04438
G1 X50.133 Y86.567 E1.1026
G1 X50.592 Y86.079 E0.03878
G1 X50.993 Y85.503 E0.04064
G1 X51.307 Y84.875 E0.04064
G1 X51.526 Y84.212 E0.04044
G1 X51.752 Y82.991 E0.07187
G1 X51.94 Y82.495 E0.0307
G1 X52.212 Y82.037 E0.03086
G1 X52.559 Y81.632 E0.03087
G1 X52.971 Y81.293 E0.03086
G1 X53.434 Y81.03 E0.03086
G1 X53.937 Y80.851 E0.03087
G1 X54.462 Y80.761 E0.03086
G1 X54.995 Y80.763 E0.03086
G1 X55.52 Y80.857 E0.03087
G1 X56.021 Y81.04 E0.03086
G1 X56.483 Y81.306 E0.03086
G1 X56.892 Y81.649 E0.03087
G1 X57.236 Y82.056 E0.03086
G1 X57.503 Y82.514 E0.0307
G1 X57.926 Y83.681 E0.07187
G1 X58.252 Y84.299 E0.04044
G1 X58.665 Y84.866 E0.04064
G1 X59.156 Y85.368 E0.04064
G1 X59.688 Y85.775 E0.03878
G1 X84.499 Y102.026 E1.717
G1 X85.172 Y102.392 E0.04438
G1 X85.932 Y102.653 E0.04651
G1 X86.724 Y102.786 E0.04651
G1 X87.528 Y102.787 E0.04651
G1 X88.32 Y102.655 E0.04651
G1 X89.08 Y102.395 E0.04651
G1 X89.787 Y102.013 E0.04651
G1 X90.421 Y101.52 E0.04651
G1 X90.965 Y100.929 E0.04651
G1 X91.222 Y100.536 E0.02718
G1 X91.512 Y100.622 E0.01748
G1 X91.512 Y108.766 E0.47145
G1 X75.312 Y108.766 E0.93781
G1 X75.267 Y108.413 E0.02062
G1 X75.793 Y108.275 E0.03146
G1 X76.547 Y107.932 E0.04801
G1 X77.233 Y107.465 E0.04801
G1 X77.829 Y106.889 E0.04801
G1 X78.319 Y106.219 E0.04801
G1 X78.687 Y105.476 E0.04801
G1 X78.924 Y104.682 E0.04801
G1 X79.023 Y103.858 E0.04801
G1 X78.98 Y103.03 E0.04801
G1 X78.797 Y102.221 E0.04801
G1 X78.48 Y101.455 E0.04801
G1 X78.036 Y100.754 E0.04801
G1 X77.48 Y100.139 E0.04801
G1 X76.858 Y99.651 E0.04581
G1 X58.483 Y87.615 E1.27163
G1 X57.898 Y87.289 E0.03878
G1 X57.242 Y87.04 E0.04064
G1 X56.556 Y86.888 E0.04064
G1 X55.953 Y86.843 E0.03504
G1 E-2 F3000
M204 S1500
G1 Z0.65 F18000
; acceleration to travel
G1 X55.238 Y57.832
; decel to extrusion
M204 S1000
G1 X54.761 Y38.492
; end travel
G1 Z0.25
G1 E2 F1800
G1 X55.121 Y38.461 E0.02094
G1 X55.514 Y38.355 E0.0235
G1 X55.882 Y38.184 E0.0235
G1 X56.214 Y37.951 E0.0235
G1 X56.501 Y37.664 E0.0235
G1 X56.734 Y37.331 E0.0235
G1 X56.906 Y36.963 E0.0235
G1 X57.011 Y36.571 E0.0235
G1 X57.046 Y36.167 E0.0235
G1 X57.011 Y35.762 E0.0235
G1 X56.906 Y35.37 E0.0235
G1 X56.734 Y35.002 E0.0235
G1 X56.501 Y34.67 E0.0235
G1 X56.214 Y34.383 E0.0235
G1 X55.882 Y34.15 E0.0235
G1 X55.514 Y33.978 E0.0235
G1 X55.121 Y33.873 E0.0235
G1 X54.717 Y33.838 E0.0235
G1 X54.313 Y33.873 E0.0235
G1 X53.92 Y33.978 E0.0235
G1 X53.552 Y34.15 E0.0235
G1 X53.22 Y34.383 E0.0235
G1 X52.933 Y34.67 E0.0235
G1 X52.7 Y35.002 E0.0235
G1 X52.528 Y35.37 E0.0235
G1 X52.423 Y35.762 E0.0235
G1 X52.388 Y36.167 E0.0235
G1 X52.423 Y36.571 E0.0235
G1 X52.528 Y36.963 E0.0235
G1 X52.7 Y37.331 E0.0235
G1 X52.933 Y37.664 E0.0235
G1 X53.22 Y37.951 E0.0235
G1 X53.552 Y38.184 E0.0235
G1 X53.92 Y38.355 E0.0235
G1 X54.313 Y38.461 E0.0235
G1 X54.701 Y38.495 E0.0226
G1 X54.717 Y37.988 F18000
;TYPE:External perimeter
G1 F1800
G1 X55.033 Y37.96 E0.01837
G1 X55.34 Y37.878 E0.01837
G1 X55.627 Y37.744 E0.01837
G1 X55.887 Y37.562 E0.01838
G1 X56.112 Y37.337 E0.01837
G1 X56.294 Y37.077 E0.01838
G1 X56.428 Y36.79 E0.01837
G1 X56.51 Y36.483 E0.01837
G1 X56.538 Y36.167 E0.01837
G1 X56.51 Y35.851 E0.01837
G1 X56.428 Y35.544 E0.01837
G1 X56.294 Y35.256 E0.01837
G1 X56.112 Y34.996 E0.01838
G1 X55.887 Y34.772 E0.01837
G1 X55.627 Y34.59 E0.01838
G1 X55.34 Y34.456 E0.01837
G1 X55.033 Y34.374 E0.01837
G1 X54.717 Y34.346 E0.01837
G1 X54.401 Y34.374 E0.01837
G1 X54.094 Y34.456 E0.01837
G1 X53.807 Y34.59 E0.01837
G1 X53.547 Y34.772 E0.01838
G1 X53.322 Y34.996 E0.01837
G1 X53.14 Y35.256 E0.01838
G1 X53.006 Y35.544 E0.01837
G1 X52.924 Y35.851 E0.01837
G1 X52.896 Y36.167 E0.01837
G1 X52.924 Y36.483 E0.01837
G1 X53.006 Y36.79 E0.01837
G1 X53.14 Y37.077 E0.01837
G1 X53.322 Y37.337 E0.01838
G1 X53.547 Y37.562 E0.01837
G1 X53.807 Y37.744 E0.01838
G1 X54.094 Y37.878 E0.01837
G1 X54.401 Y37.96 E0.01837
G1 X54.657 Y37.982 E0.0149
;WIPE_START
M204 S1500
G1 X54.927 Y38.328 F18000
;WIPE_END
G1 E-2 F3000
G1 Z0.65 F18000
; acceleration to travel
G1 X39.367 Y22.375
; decel to extrusion
M204 S1000
G1 X28.994 Y11.74
; end travel
G1 Z0.25
G1 E2 F1800
;TYPE:Internal perimeter
G1 X38.677 Y11.74 E0.56055
G1 X38.765 Y12.026 E0.0173
G1 X38.589 Y12.146 E0.01233
G1 X37.931 Y12.785 E0.05314
G1 X37.39 Y13.527 E0.05314
G1 X36.984 Y14.35 E0.05314
G1 X36.724 Y15.231 E0.05314
G1 X36.618 Y16.143 E0.05314
G1 X36.668 Y17.059 E0.05314
G1 X36.874 Y17.954 E0.05314
G1 X37.23 Y18.8 E0.05314
G1 X37.724 Y19.574 E0.05314
G1 X38.303 Y20.208 E0.04968
G1 X51.295 Y32.201 E1.02363
G1 X51.862 Y32.653 E0.04196
G1 X52.532 Y33.044 E0.04488
G1 X53.25 Y33.334 E0.04489
G1 X53.39 Y33.368 E0.0083
G1 X53.418 Y33.654 E0.01662
G1 X53.298 Y33.71 E0.00764
G1 X52.893 Y33.993 E0.02863
G1 X52.543 Y34.343 E0.02863
G1 X52.26 Y34.748 E0.02863
G1 X51.941 Y35.431 E0.04359
G1 X51.776 Y34.931 E0.03046
G1 X51.429 Y34.238 E0.04488
G1 X50.986 Y33.602 E0.04489
G1 X50.49 Y33.073 E0.04196
G1 X36.466 Y20.128 E1.10487
G1 X35.813 Y19.617 E0.04802
G1 X35.033 Y19.194 E0.05137
G1 X34.194 Y18.905 E0.05137
G1 X33.319 Y18.758 E0.05137
G1 X32.431 Y18.757 E0.05137
G1 X31.556 Y18.903 E0.05137
G1 X30.716 Y19.19 E0.05137
G1 X29.936 Y19.612 E0.05137
G1 X28.994 Y20.344 E0.06901
G1 X28.994 Y11.8 E0.49459
G1 E-2 F3000
M204 S1500
G1 Z0.65 F18000
; acceleration to travel
G1 X45.234 Y24.914
; decel to extrusion
M204 S1000
G1 X56.06 Y33.657
; end travel
G1 Z0.25
G1 E2 F1800
G1 X56.63 Y33.615 E0.03309
G1 X57.387 Y33.446 E0.04489
G1 X58.112 Y33.171 E0.04489
G1 X58.745 Y32.819 E0.04196
G1 X77.153 Y20.761 E1.27394
G1 X77.827 Y20.233 E0.04957
G1 X78.441 Y19.553 E0.05303
G1 X78.931 Y18.779 E0.05303
G1 X79.282 Y17.933 E0.05303
G1 X79.484 Y17.039 E0.05303
G1 X79.531 Y16.124 E0.05303
G1 X79.422 Y15.215 E0.05303
G1 X79.16 Y14.337 E0.05303
G1 X78.753 Y13.517 E0.05303
G1 X78.212 Y12.778 E0.05303
G1 X77.554 Y12.141 E0.05303
G1 X77.385 Y12.026 E0.01181
G1 X77.473 Y11.74 E0.01731
G1 X91.006 Y11.74 E0.78342
G1 X91.006 Y18.293 E0.37935
G1 X90.065 Y17.561 E0.069
G1 X89.284 Y17.139 E0.05137
G1 X88.444 Y16.852 E0.05137
G1 X87.569 Y16.707 E0.05137
G1 X86.682 Y16.707 E0.05137
G1 X85.807 Y16.854 E0.05137
G1 X84.968 Y17.143 E0.05137
G1 X84.239 Y17.539 E0.04802
G1 X59.396 Y33.812 E1.71927
G1 X58.82 Y34.251 E0.04196
G1 X58.278 Y34.806 E0.04489
G1 X57.821 Y35.433 E0.04489
G1 X57.573 Y35.904 E0.03083
G1 X57.383 Y35.196 E0.0424
G1 X57.174 Y34.748 E0.02863
G1 X56.891 Y34.343 E0.02863
G1 X56.541 Y33.993 E0.02863
G1 X56.109 Y33.691 E0.03048
G1 X55.89 Y33.162 F18000
G1 F1800
G1 X56.556 Y33.112 E0.03865
G1 X57.242 Y32.96 E0.04064
G1 X57.898 Y32.711 E0.04064
G1 X58.483 Y32.385 E0.03878
G1 X76.858 Y20.349 E1.27163
G1 X77.48 Y19.861 E0.04581
G1 X78.036 Y19.246 E0.04801
G1 X78.48 Y18.545 E0.04801
G1 X78.797 Y17.779 E0.04801
G1 X78.98 Y16.97 E0.04801
G1 X79.023 Y16.142 E0.04801
G1 X78.924 Y15.318 E0.04801
G1 X78.687 Y14.524 E0.04801
G1 X78.319 Y13.781 E0.04801
G1 X77.829 Y13.111 E0.04801
G1 X77.233 Y12.535 E0.04801
G1 X76.89 Y12.302 E0.024
G1 X76.547 Y12.068 E0.024
G1 X75.793 Y11.725 E0.04801
G1 X75.267 Y11.587 E0.03146
G1 X75.312 Y11.234 E0.02062
G1 X91.512 Y11.234 E0.93781
G1 X91.512 Y19.378 E0.47145
G1 X91.222 Y19.464 E0.01748
G1 X90.965 Y19.071 E0.02718
G1 X90.421 Y18.48 E0.04651
G1 X89.787 Y17.987 E0.04651
G1 X89.08 Y17.605 E0.04651
G1 X88.32 Y17.345 E0.04651
G1 X87.528 Y17.213 E0.04651
G1 X87.126 Y17.213 E0.02325
G1 X86.724 Y17.214 E0.02325
G1 X85.932 Y17.347 E0.04651
G1 X85.172 Y17.608 E0.04651
G1 X84.499 Y17.974 E0.04438
G1 X59.688 Y34.225 E1.717
G1 X59.156 Y34.632 E0.03878
G1 X58.665 Y35.134 E0.04064
G1 X58.252 Y35.701 E0.04064
G1 X57.926 Y36.319 E0.04044
G1 X57.503 Y37.486 E0.07187
G1 X57.236 Y37.944 E0.0307
