; generated by SuperSlicer 2.4 on 2024-05-07 at 19:54:20 UTC

; 

; external perimeters extrusion width = 0.42mm
; perimeters extrusion width = 0.46mm
; infill extrusion width = 0.44mm
; solid infill extrusion width = 0.46mm
; top infill extrusion width = 0.44mm
; first layer extrusion width = 0.56mm

; object:{"name":"heatsink_holder","id":"heatsink_holder.STL id:0 copy 0","object_center":[115.000000,112.500000,0.000000],"boundingbox_center":[115.000000,112.500000,6.000000],"boundingbox_size":[120.000000,120.000000,12.000000]}
; Total objects to print: 1
M486 T1
; plater:{"center":[115.000000,112.500000,0.000000],"boundingbox_center":[115.000000,112.500000,6.000000],"boundingbox_size":[120.000000,120.000000,12.000000]}

;TYPE:Custom
G90 ; use absolute coordinates
M83 ; extruder relative mode
M140 S60 ; set final bed temp
M104 S150 ; set temporary nozzle temp to prevent oozing during homing and auto bed leveling
G4 S10 ; allow partial nozzle warmup
G28 ; home all axis
G1 Z50 F240
G1 X2 Y10 F3000
M104 S205 ; set final nozzle temp
M190 S60 ; wait for bed temp to stabilize
M109 S205 ; wait for nozzle temp to stabilize
G1 Z0.28 F240
G92 E0
G1 Y140 E10 F1500 ; prime the nozzle
G1 X2.3 F5000
G92 E0
G1 Y10 E10 F1200 ; prime the nozzle
G92 E0
M107
G21 ; set units to millimeters
G90 ; use absolute coordinates
M82 ; use absolute distances for extrusion
G92 E0
; Filament gcode
;_TOOLCHANGE 0
M107
;LAYER_CHANGE
;Z:0.2
;HEIGHT:0.2
;BEFORE_LAYER_CHANGE
;0.2


G1 E-2 F3600
G1 Z0.2 F9000
;AFTER_LAYER_CHANGE
;0.2
G92 E0
M204 S500
G1 X55.064 Y53.796
G1 E2 F2400
;TYPE:Skirt
;WIDTH:0.48
G1 F1200
G1 X53.703 Y55.654 E2.08368
G1 X52.686 Y57.72 E2.16736
G1 X52.043 Y59.931 E2.25104
G1 X51.781 Y62.5 E2.34491
G1 X51.781 Y162.5 E5.97924
G1 X52.043 Y165.069 E6.07311
G1 X52.686 Y167.28 E6.15679
G1 X53.423 Y168.86 E6.22014
G1 X54.703 Y170.774 E6.30382
G1 X56.296 Y172.436 E6.38751
G1 X58.154 Y173.797 E6.47119
G1 X60.22 Y174.814 E6.55487
G1 X62.431 Y175.457 E6.63855
G1 X65 Y175.719 E6.73242
G1 X165 Y175.719 E10.36675
G1 X167.569 Y175.457 E10.46062
G1 X169.78 Y174.814 E10.5443
G1 X171.36 Y174.077 E10.60765
G1 X173.274 Y172.797 E10.69133
G1 X174.936 Y171.204 E10.77501
G1 X176.297 Y169.346 E10.85869
G1 X177.314 Y167.28 E10.94237
G1 X177.957 Y165.069 E11.02606
G1 X178.219 Y162.5 E11.11992
G1 X178.206 Y62.219 E14.76445
G1 X177.957 Y59.931 E14.84813
G1 X177.314 Y57.72 E14.93181
G1 X176.577 Y56.14 E14.99516
G1 X175.297 Y54.226 E15.07884
G1 X173.704 Y52.564 E15.16253
G1 X171.846 Y51.203 E15.24621
G1 X169.78 Y50.186 E15.32989
G1 X167.569 Y49.543 E15.41357
G1 X165.281 Y49.294 E15.49725
G1 X65 Y49.281 E19.14178
G1 X62.431 Y49.543 E19.23565
G1 X60.22 Y50.186 E19.31933
G1 X58.64 Y50.923 E19.38268
G1 X56.726 Y52.203 E19.46636
G1 X55.107 Y53.755 E19.54786
G92 E0
G1 E-1.4 F3600
;WIPE_START
G1 F7200
G1 X54.394 Y54.72 E-1.97
;WIPE_END
G1 E-2 F3600
; printing object heatsink_holder.STL id:0 copy 0
M486 S0
; acceleration to travel
M204 S1500
G1 X130.352 Y112.645 F9000
; decel to extrusion
M204 S500
G1 X139.632 Y119.722
; end travel
G1 E0 F2400
;TYPE:Internal perimeter
;WIDTH:0.564
G1 F1200
G1 X123.961 Y119.722 E0.67901
G1 X123.148 Y119.793 E0.71435
G1 X122.322 Y120.014 E0.75141
G1 X121.547 Y120.376 E0.78847
G1 X120.846 Y120.866 E0.82552
G1 X120.544 Y121.169 E0.84405
G1 X120.241 Y121.471 E0.86258
G1 X119.751 Y122.172 E0.89964
G1 X119.389 Y122.947 E0.93669
G1 X119.168 Y123.773 E0.97375
G1 X119.097 Y124.586 E1.00909
G1 X119.097 Y150.414 E2.1282
G1 X119.168 Y151.227 E2.16355
G1 X119.389 Y152.053 E2.2006
G1 X119.751 Y152.828 E2.23766
G1 X120.241 Y153.529 E2.27472
G1 X120.846 Y154.134 E2.31177
G1 X121.547 Y154.624 E2.34883
G1 X122.322 Y154.986 E2.38589
G1 X123.148 Y155.207 E2.42294
G1 X123.961 Y155.278 E2.45829
G1 X156.039 Y155.278 E3.8482
G1 X156.852 Y155.207 E3.88354
G1 X157.678 Y154.986 E3.9206
G1 X158.453 Y154.624 E3.95765
G1 X159.154 Y154.134 E3.99471
G1 X159.759 Y153.529 E4.03177
G1 X160.249 Y152.828 E4.06882
G1 X160.611 Y152.053 E4.10588
G1 X160.832 Y151.227 E4.14294
G1 X160.903 Y150.414 E4.17828
G1 X160.903 Y124.586 E5.29739
G1 X160.832 Y123.773 E5.33273
G1 X160.611 Y122.947 E5.36979
G1 X160.249 Y122.172 E5.40685
G1 X159.759 Y121.471 E5.4439
G1 X159.154 Y120.866 E5.48096
G1 X158.453 Y120.376 E5.51802
G1 X157.678 Y120.014 E5.55507
G1 X156.852 Y119.793 E5.59213
G1 X156.039 Y119.722 E5.62747
G1 X139.692 Y119.722 E6.33577
G1 X139.632 Y120.243 F9000
;TYPE:External perimeter
G1 F1200
G1 X123.983 Y120.243 E7.0138
G1 X123.239 Y120.308 E7.04618
G1 X122.501 Y120.506 E7.07928
G1 X121.808 Y120.829 E7.11239
G1 X121.182 Y121.267 E7.1455
G1 X120.912 Y121.537 E7.16205
G1 X120.642 Y121.807 E7.1786
G1 X120.204 Y122.433 E7.21171
G1 X119.881 Y123.126 E7.24482
G1 X119.683 Y123.864 E7.27792
G1 X119.618 Y124.608 E7.3103
G1 X119.618 Y150.392 E8.42744
G1 X119.683 Y151.136 E8.45982
G1 X119.881 Y151.874 E8.49293
G1 X120.204 Y152.567 E8.52604
G1 X120.642 Y153.193 E8.55914
G1 X121.182 Y153.733 E8.59225
G1 X121.808 Y154.171 E8.62536
G1 X122.501 Y154.494 E8.65846
G1 X123.239 Y154.692 E8.69157
G1 X123.983 Y154.757 E8.72395
G1 X139.632 Y154.757 E9.40197
G1 X139.632 Y152.757 E9.48863
G1 X140.368 Y152.757 E9.52052
G1 X140.368 Y154.757 E9.60718
G1 X156.017 Y154.757 E10.2852
G1 X156.761 Y154.692 E10.31758
G1 X157.499 Y154.494 E10.35069
G1 X158.192 Y154.171 E10.38379
G1 X158.818 Y153.733 E10.4169
G1 X159.358 Y153.193 E10.45001
G1 X159.796 Y152.567 E10.48311
G1 X160.119 Y151.874 E10.51622
G1 X160.317 Y151.136 E10.54933
G1 X160.382 Y150.392 E10.58171
G1 X160.382 Y124.608 E11.69885
G1 X160.317 Y123.864 E11.73123
G1 X160.119 Y123.126 E11.76433
G1 X159.796 Y122.433 E11.79744
G1 X159.358 Y121.807 E11.83055
G1 X158.818 Y121.267 E11.86365
G1 X158.192 Y120.829 E11.89676
G1 X157.499 Y120.506 E11.92987
G1 X156.761 Y120.308 E11.96297
G1 X156.017 Y120.243 E11.99535
G1 X140.368 Y120.243 E12.67338
G1 X140.368 Y122.243 E12.76003
G1 X139.632 Y122.243 E12.79192
G1 X139.632 Y120.303 E12.87598
;WIPE_START
G1 X139.632 Y119.843 F9000
;WIPE_END
G92 E0
G1 E-1.4 F3600
;WIPE_START
G1 F7200
G1 X138.432 Y119.858 E-1.97
;WIPE_END
G1 E-2 F3600
; acceleration to travel
M204 S1500
G1 X95.601 Y119.737 F9000
; decel to extrusion
M204 S500
G1 X90.368 Y119.722
; end travel
G1 E0 F2400
;TYPE:Internal perimeter
G1 F1200
G1 X73.961 Y119.722 E0.7109
G1 X73.148 Y119.793 E0.74624
G1 X72.322 Y120.014 E0.7833
G1 X71.547 Y120.376 E0.82036
G1 X70.846 Y120.866 E0.85741
G1 X70.241 Y121.471 E0.89447
G1 X69.751 Y122.172 E0.93153
G1 X69.389 Y122.947 E0.96858
G1 X69.168 Y123.773 E1.00564
G1 X69.097 Y124.586 E1.04098
G1 X69.097 Y150.414 E2.16009
G1 X69.168 Y151.227 E2.19544
G1 X69.389 Y152.053 E2.23249
G1 X69.751 Y152.828 E2.26955
G1 X70.241 Y153.529 E2.30661
G1 X70.846 Y154.134 E2.34366
G1 X71.547 Y154.624 E2.38072
G1 X72.322 Y154.986 E2.41778
G1 X73.148 Y155.207 E2.45483
G1 X73.961 Y155.278 E2.49017
G1 X106.039 Y155.278 E3.88009
G1 X106.852 Y155.207 E3.91543
G1 X107.678 Y154.986 E3.95248
G1 X108.453 Y154.624 E3.98954
G1 X109.154 Y154.134 E4.0266
G1 X109.759 Y153.529 E4.06366
G1 X110.249 Y152.828 E4.10071
G1 X110.611 Y152.053 E4.13777
G1 X110.832 Y151.227 E4.17483
G1 X110.903 Y150.414 E4.21017
G1 X110.903 Y124.586 E5.32928
G1 X110.832 Y123.773 E5.36462
G1 X110.611 Y122.947 E5.40168
G1 X110.249 Y122.172 E5.43873
G1 X109.759 Y121.471 E5.47579
G1 X109.154 Y120.866 E5.51285
G1 X108.453 Y120.376 E5.54991
G1 X107.678 Y120.014 E5.58696
G1 X106.852 Y119.793 E5.62402
G1 X106.039 Y119.722 E5.65936
G1 X90.428 Y119.722 E6.33577
G1 X90.368 Y120.243 F9000
;TYPE:External perimeter
G1 F1200
G1 X90.368 Y122.243 E6.42243
G1 X89.632 Y122.243 E6.45432
G1 X89.632 Y120.243 E6.54097
G1 X73.983 Y120.243 E7.219
G1 X73.239 Y120.308 E7.25138
G1 X72.501 Y120.506 E7.28449
G1 X71.808 Y120.829 E7.31759
G1 X71.182 Y121.267 E7.3507
G1 X70.912 Y121.537 E7.36725
G1 X70.642 Y121.807 E7.38381
G1 X70.204 Y122.433 E7.41691
G1 X69.881 Y123.126 E7.45002
G1 X69.683 Y123.864 E7.48312
G1 X69.618 Y124.608 E7.51551
G1 X69.618 Y150.392 E8.63264
G1 X69.683 Y151.136 E8.66503
G1 X69.881 Y151.874 E8.69813
G1 X70.204 Y152.567 E8.73124
G1 X70.642 Y153.193 E8.76434
G1 X71.182 Y153.733 E8.79745
G1 X71.808 Y154.171 E8.83056
G1 X72.501 Y154.494 E8.86366
G1 X73.239 Y154.692 E8.89677
G1 X73.983 Y154.757 E8.92915
G1 X89.632 Y154.757 E9.60718
G1 X89.632 Y152.757 E9.69383
G1 X90.368 Y152.757 E9.72572
G1 X90.368 Y154.757 E9.81238
G1 X106.017 Y154.757 E10.4904
G1 X106.761 Y154.692 E10.52278
G1 X107.499 Y154.494 E10.55589
G1 X108.192 Y154.171 E10.589
G1 X108.818 Y153.733 E10.6221
G1 X109.358 Y153.193 E10.65521
G1 X109.796 Y152.567 E10.68832
G1 X110.119 Y151.874 E10.72142
G1 X110.317 Y151.136 E10.75453
G1 X110.382 Y150.392 E10.78691
G1 X110.382 Y124.608 E11.90405
G1 X110.317 Y123.864 E11.93643
G1 X110.119 Y123.126 E11.96954
G1 X109.796 Y122.433 E12.00264
G1 X109.358 Y121.807 E12.03575
G1 X108.818 Y121.267 E12.06885
G1 X108.192 Y120.829 E12.10196
G1 X107.499 Y120.506 E12.13507
G1 X106.761 Y120.308 E12.16817
G1 X106.017 Y120.243 E12.20056
G1 X90.428 Y120.243 E12.87598
;WIPE_START
G1 X89.968 Y120.243 F9000
;WIPE_END
G92 E0
G1 E-1.4 F3600
;WIPE_START
G1 F7200
G1 X88.768 Y120.228 E-1.97
;WIPE_END
G1 E-2 F3600
; acceleration to travel
M204 S1500
G1 X90.194 Y106.906 F9000
; decel to extrusion
M204 S500
G1 X90.368 Y105.278
; end travel
G1 E0 F2400
;TYPE:Internal perimeter
G1 F1200
G1 X106.039 Y105.278 E0.67901
G1 X106.852 Y105.207 E0.71435
G1 X107.678 Y104.986 E0.75141
G1 X108.453 Y104.624 E0.78847
G1 X109.154 Y104.134 E0.82552
G1 X109.759 Y103.529 E0.86258
G1 X110.249 Y102.828 E0.89964
G1 X110.611 Y102.053 E0.93669
G1 X110.832 Y101.227 E0.97375
G1 X110.903 Y100.414 E1.00909
G1 X110.903 Y74.586 E2.1282
G1 X110.832 Y73.773 E2.16355
G1 X110.611 Y72.947 E2.2006
G1 X110.249 Y72.172 E2.23766
G1 X109.759 Y71.471 E2.27472
G1 X109.154 Y70.866 E2.31177
G1 X108.453 Y70.376 E2.34883
G1 X107.678 Y70.014 E2.38589
G1 X106.852 Y69.793 E2.42294
G1 X106.039 Y69.722 E2.45829
G1 X73.961 Y69.722 E3.8482
G1 X73.148 Y69.793 E3.88354
G1 X72.322 Y70.014 E3.9206
G1 X71.547 Y70.376 E3.95765
G1 X70.846 Y70.866 E3.99471
G1 X70.241 Y71.471 E4.03177
G1 X69.751 Y72.172 E4.06882
G1 X69.389 Y72.947 E4.10588
G1 X69.168 Y73.773 E4.14294
G1 X69.097 Y74.586 E4.17828
G1 X69.097 Y100.414 E5.29739
G1 X69.168 Y101.227 E5.33273
G1 X69.389 Y102.053 E5.36979
G1 X69.751 Y102.828 E5.40685
G1 X70.241 Y103.529 E5.4439
G1 X70.846 Y104.134 E5.48096
G1 X71.547 Y104.624 E5.51802
G1 X72.322 Y104.986 E5.55507
G1 X73.148 Y105.207 E5.59213
G1 X73.961 Y105.278 E5.62747
G1 X90.308 Y105.278 E6.33577
G1 X90.368 Y104.757 F9000
;TYPE:External perimeter
G1 F1200
G1 X106.017 Y104.757 E7.0138
G1 X106.761 Y104.692 E7.04618
G1 X107.499 Y104.494 E7.07928
G1 X108.192 Y104.171 E7.11239
G1 X108.818 Y103.733 E7.1455
G1 X109.358 Y103.193 E7.1786
G1 X109.796 Y102.567 E7.21171
G1 X110.119 Y101.874 E7.24482
G1 X110.317 Y101.136 E7.27792
G1 X110.382 Y100.392 E7.3103
G1 X110.382 Y74.608 E8.42744
G1 X110.317 Y73.864 E8.45982
G1 X110.119 Y73.126 E8.49293
G1 X109.796 Y72.433 E8.52604
G1 X109.358 Y71.807 E8.55914
G1 X108.818 Y71.267 E8.59225
G1 X108.192 Y70.829 E8.62536
G1 X107.499 Y70.506 E8.65846
G1 X106.761 Y70.308 E8.69157
G1 X106.017 Y70.243 E8.72395
G1 X90.368 Y70.243 E9.40197
G1 X90.368 Y72.243 E9.48863
G1 X89.632 Y72.243 E9.52052
G1 X89.632 Y70.243 E9.60718
G1 X73.983 Y70.243 E10.2852
G1 X73.239 Y70.308 E10.31758
G1 X72.501 Y70.506 E10.35069
G1 X71.808 Y70.829 E10.38379
G1 X71.182 Y71.267 E10.4169
G1 X70.912 Y71.537 E10.43345
G1 X70.642 Y71.807 E10.45001
G1 X70.204 Y72.433 E10.48311
G1 X69.881 Y73.126 E10.51622
G1 X69.683 Y73.864 E10.54933
G1 X69.618 Y74.608 E10.58171
G1 X69.618 Y100.392 E11.69885
G1 X69.683 Y101.136 E11.73123
G1 X69.881 Y101.874 E11.76433
G1 X70.204 Y102.567 E11.79744
G1 X70.642 Y103.193 E11.83055
G1 X71.182 Y103.733 E11.86365
G1 X71.808 Y104.171 E11.89676
G1 X72.501 Y104.494 E11.92987
G1 X73.239 Y104.692 E11.96297
G1 X73.983 Y104.757 E11.99535
G1 X89.632 Y104.757 E12.67338
G1 X89.632 Y102.757 E12.76003
G1 X90.368 Y102.757 E12.79192
G1 X90.368 Y104.697 E12.87598
;WIPE_START
G1 X90.368 Y105.157 F9000
;WIPE_END
G92 E0
G1 E-1.4 F3600
;WIPE_START
G1 F7200
G1 X91.568 Y105.142 E-1.97
;WIPE_END
G1 E-2 F3600
; acceleration to travel
M204 S1500
G1 X134.399 Y105.263 F9000
; decel to extrusion
M204 S500
G1 X139.632 Y105.278
; end travel
G1 E0 F2400
;TYPE:Internal perimeter
G1 F1200
G1 X156.039 Y105.278 E0.7109
G1 X156.852 Y105.207 E0.74624
G1 X157.678 Y104.986 E0.7833
G1 X158.453 Y104.624 E0.82036
G1 X159.154 Y104.134 E0.85741
G1 X159.759 Y103.529 E0.89447
G1 X160.249 Y102.828 E0.93153
G1 X160.611 Y102.053 E0.96858
G1 X160.832 Y101.227 E1.00564
G1 X160.903 Y100.414 E1.04098
G1 X160.903 Y74.586 E2.16009
G1 X160.832 Y73.773 E2.19544
G1 X160.611 Y72.947 E2.23249
G1 X160.249 Y72.172 E2.26955
G1 X159.759 Y71.471 E2.30661
G1 X159.154 Y70.866 E2.34366
G1 X158.453 Y70.376 E2.38072
G1 X157.678 Y70.014 E2.41778
G1 X156.852 Y69.793 E2.45483
G1 X156.039 Y69.722 E2.49017
G1 X123.961 Y69.722 E3.88009
G1 X123.148 Y69.793 E3.91543
G1 X122.322 Y70.014 E3.95248
G1 X121.547 Y70.376 E3.98954
G1 X120.846 Y70.866 E4.0266
G1 X120.544 Y71.169 E4.04513
G1 X120.241 Y71.471 E4.06366
G1 X119.751 Y72.172 E4.10071
G1 X119.389 Y72.947 E4.13777
G1 X119.168 Y73.773 E4.17483
G1 X119.097 Y74.586 E4.21017
G1 X119.097 Y100.414 E5.32928
G1 X119.168 Y101.227 E5.36462
G1 X119.389 Y102.053 E5.40168
G1 X119.751 Y102.828 E5.43873
G1 X120.241 Y103.529 E5.47579
G1 X120.846 Y104.134 E5.51285
G1 X121.547 Y104.624 E5.54991
G1 X122.322 Y104.986 E5.58696
G1 X123.148 Y105.207 E5.62402
G1 X123.961 Y105.278 E5.65936
G1 X139.572 Y105.278 E6.33577
G1 X139.632 Y104.757 F9000
;TYPE:External perimeter
G1 F1200
G1 X139.632 Y102.757 E6.42243
G1 X140.368 Y102.757 E6.45432
G1 X140.368 Y104.757 E6.54097
G1 X156.017 Y104.757 E7.219
G1 X156.761 Y104.692 E7.25138
G1 X157.499 Y104.494 E7.28449
G1 X158.192 Y104.171 E7.31759
G1 X158.818 Y103.733 E7.3507
G1 X159.358 Y103.193 E7.38381
G1 X159.796 Y102.567 E7.41691
G1 X160.119 Y101.874 E7.45002
G1 X160.317 Y101.136 E7.48312
G1 X160.382 Y100.392 E7.51551
G1 X160.382 Y74.608 E8.63264
G1 X160.317 Y73.864 E8.66503
G1 X160.119 Y73.126 E8.69813
G1 X159.796 Y72.433 E8.73124
G1 X159.358 Y71.807 E8.76434
G1 X158.818 Y71.267 E8.79745
G1 X158.192 Y70.829 E8.83056
G1 X157.499 Y70.506 E8.86366
G1 X156.761 Y70.308 E8.89677
G1 X156.017 Y70.243 E8.92915
G1 X140.368 Y70.243 E9.60718
G1 X140.368 Y72.243 E9.69383
G1 X139.632 Y72.243 E9.72572
G1 X139.632 Y70.243 E9.81238
G1 X123.983 Y70.243 E10.4904
G1 X123.239 Y70.308 E10.52278
G1 X122.501 Y70.506 E10.55589
G1 X121.808 Y70.829 E10.589
G1 X121.182 Y71.267 E10.6221
G1 X120.912 Y71.537 E10.63866
G1 X120.642 Y71.807 E10.65521
G1 X120.204 Y72.433 E10.68832
G1 X119.881 Y73.126 E10.72142
G1 X119.683 Y73.864 E10.75453
G1 X119.618 Y74.608 E10.78691
G1 X119.618 Y100.392 E11.90405
G1 X119.683 Y101.136 E11.93643
G1 X119.881 Y101.874 E11.96954
G1 X120.204 Y102.567 E12.00264
G1 X120.642 Y103.193 E12.03575
G1 X121.182 Y103.733 E12.06885
G1 X121.808 Y104.171 E12.10196
G1 X122.501 Y104.494 E12.13507
G1 X123.239 Y104.692 E12.16817
G1 X123.983 Y104.757 E12.20056
G1 X139.572 Y104.757 E12.87598
;WIPE_START
G1 X140.032 Y104.757 F9000
;WIPE_END
G92 E0
G1 E-1.4 F3600
;WIPE_START
G1 F7200
G1 X141.232 Y104.772 E-1.97
;WIPE_END
G1 E-2 F3600
; acceleration to travel
M204 S1500
G1 X170.519 Y104.759 F9000
; decel to extrusion
M204 S500
G1 X174.097 Y104.757
; end travel
G1 E0 F2400
;TYPE:Internal perimeter
G1 F1200
G1 X174.097 Y162.461 E2.50018
G1 X173.955 Y164.079 E2.57057
G1 X173.545 Y165.61 E2.63925
G1 X172.875 Y167.047 E2.70793
G1 X171.966 Y168.345 E2.77661
G1 X170.845 Y169.466 E2.84529
G1 X169.547 Y170.375 E2.91397
G1 X168.11 Y171.045 E2.98265
G1 X166.579 Y171.455 E3.05132
G1 X164.961 Y171.597 E3.12172
G1 X65.039 Y171.597 E7.4511
G1 X63.421 Y171.455 E7.52149
G1 X61.89 Y171.045 E7.59017
G1 X60.453 Y170.375 E7.65885
G1 X59.155 Y169.466 E7.72753
G1 X58.034 Y168.345 E7.79621
G1 X57.125 Y167.047 E7.86488
G1 X56.455 Y165.61 E7.93356
G1 X56.045 Y164.079 E8.00224
G1 X55.903 Y162.461 E8.07264
G1 X55.903 Y62.539 E12.40201
G1 X56.045 Y60.921 E12.47241
G1 X56.455 Y59.39 E12.54109
