; generated by SuperSlicer 2.4 on 2024-05-22 at 18:32:13 UTC

; 

; external perimeters extrusion width = 0.42mm
; perimeters extrusion width = 0.46mm
; infill extrusion width = 0.44mm
; solid infill extrusion width = 0.46mm
; top infill extrusion width = 0.44mm
; first layer extrusion width = 0.56mm

; object:{"name":"TripodMountTest","id":"TripodMountTest.STL id:0 copy 0","object_center":[115.000000,112.500000,0.000000],"boundingbox_center":[115.000000,112.500000,5.425000],"boundingbox_size":[126.995743,61.168427,10.850000]}
; Total objects to print: 1
M486 T1
; plater:{"center":[115.000000,112.500000,0.000000],"boundingbox_center":[115.000000,112.500000,5.425000],"boundingbox_size":[126.995743,61.168427,10.850000]}

;TYPE:Custom
G90 ; use absolute coordinates
M83 ; extruder relative mode
M140 S60 ; set final bed temp
M104 S150 ; set temporary nozzle temp to prevent oozing during homing and auto bed leveling
G4 S10 ; allow partial nozzle warmup
G28 ; home all axis
G1 Z50 F240
G1 X2 Y10 F3000
M104 S205 ; set final nozzle temp
M190 S60 ; wait for bed temp to stabilize
M109 S205 ; wait for nozzle temp to stabilize
G1 Z0.28 F240
G92 E0
G1 Y140 E10 F1500 ; prime the nozzle
G1 X2.3 F5000
G92 E0
G1 Y10 E10 F1200 ; prime the nozzle
G92 E0
M107
G21 ; set units to millimeters
G90 ; use absolute coordinates
M82 ; use absolute distances for extrusion
G92 E0
; Filament gcode
;_TOOLCHANGE 0
M107
;LAYER_CHANGE
;Z:0.2
;HEIGHT:0.2
;BEFORE_LAYER_CHANGE
;0.2


G1 E-2 F3600
G1 Z0.2 F18000
;AFTER_LAYER_CHANGE
;0.2
G92 E0
M204 S500
G1 X77.296 Y80.815
G1 E2 F2400
;TYPE:Skirt
;WIDTH:0.48
G1 F1200
G1 X50.977 Y105.988 E3.32362
G1 X50.359 Y106.675 E3.35721
G1 X49.78 Y107.468 E3.39286
G1 X49.139 Y108.625 E3.44094
G1 X48.59 Y110.147 E3.49974
G1 X48.39 Y111.107 E3.53539
G1 X48.294 Y112.084 E3.57105
G1 X48.329 Y113.406 E3.61912
G1 X48.477 Y114.376 E3.65477
G1 X48.728 Y115.324 E3.69042
G1 X49.078 Y116.24 E3.72608
G1 X49.523 Y117.114 E3.76173
G1 X50.453 Y118.439 E3.82053
G1 X51.124 Y119.154 E3.85619
G1 X78.276 Y145.122 E5.22162
G1 X78.957 Y145.621 E5.25231
G1 X80.5 Y146.014 E5.31018
G1 X149.5 Y146.014 E7.81787
G1 X150.337 Y145.904 E7.84857
G1 X151.724 Y145.122 E7.90643
G1 X179.321 Y118.696 E9.29506
G1 X179.941 Y117.936 E9.33071
G1 X180.477 Y117.114 E9.36636
G1 X181.056 Y115.925 E9.41444
G1 X181.371 Y114.996 E9.45009
G1 X181.586 Y114.039 E9.48574
G1 X181.715 Y112.426 E9.54454
G1 X181.61 Y111.107 E9.59262
G1 X181.41 Y110.147 E9.62827
G1 X181.109 Y109.213 E9.66392
G1 X180.711 Y108.317 E9.69958
G1 X180.22 Y107.468 E9.73523
G1 X179.221 Y106.195 E9.79403
G1 X151.725 Y79.878 E11.17728
G1 X151.043 Y79.379 E11.20799
G1 X149.5 Y78.986 E11.26585
G1 X80.5 Y78.986 E13.77354
G1 X79.662 Y79.097 E13.80425
G1 X78.275 Y79.878 E13.86211
G1 X77.339 Y80.774 E13.90919
G92 E0
G1 E-1.4 F3600
;WIPE_START
G1 F14400
G1 X75.605 Y82.432 E-1.97
;WIPE_END
G1 E-2 F3600
; printing object TripodMountTest.STL id:0 copy 0
M486 S0
G1 X81.403 Y83.389 F18000
G1 E0 F2400
;TYPE:Internal perimeter
;WIDTH:0.564
G1 F1200
G1 X148.597 Y83.389 E2.91137
G1 X148.597 Y141.611 E5.43402
G1 X81.403 Y141.611 E8.34539
G1 X81.403 Y83.449 E10.86543
G1 X80.882 Y82.868 F18000
;TYPE:External perimeter
G1 F1200
G1 X149.118 Y82.868 E13.82196
G1 X149.118 Y142.132 E16.38976
G1 X80.882 Y142.132 E19.34628
G1 X80.882 Y82.928 E21.91148
;WIPE_START
G1 X81.228 Y83.068 F18000
;WIPE_END
G92 E0
G1 E-1.4 F3600
;WIPE_START
G1 F14400
G1 X83.628 Y83.068 E-1.97
;WIPE_END
G1 E-2 F3600
; acceleration to travel
M204 S1500
G1 X140.529 Y83.494 F18000
; decel to extrusion
M204 S500
G1 X147.387 Y83.545
; end travel
G1 E0 F2400
;TYPE:Solid infill
;WIDTH:0.562834
G1 F1200
G1 X148.217 Y84.375 E0.05071
G1 X148.217 Y85.111 E0.08257
G1 X146.874 Y83.769 E0.16464
G1 X146.138 Y83.769 E0.1965
G1 X148.217 Y85.848 E0.32363
G1 X148.217 Y86.585 E0.3555
G1 X145.401 Y83.769 E0.52769
G1 X144.664 Y83.769 E0.55955
G1 X148.217 Y87.322 E0.7768
G1 X148.217 Y88.059 E0.80867
G1 X143.927 Y83.769 E1.07098
G1 X143.19 Y83.769 E1.10284
G1 X148.217 Y88.796 E1.41022
G1 X148.217 Y89.533 E1.44208
G1 X142.453 Y83.769 E1.79452
G1 X141.716 Y83.769 E1.82638
G1 X148.217 Y90.27 E2.22388
G1 X148.217 Y91.007 E2.25574
G1 X140.979 Y83.769 E2.6983
G1 X140.242 Y83.769 E2.73016
G1 X148.217 Y91.744 E3.21778
G1 X148.217 Y92.481 E3.24964
G1 X139.505 Y83.769 E3.78233
G1 X138.768 Y83.769 E3.81419
G1 X148.217 Y93.218 E4.39193
G1 X148.217 Y93.954 E4.42379
G1 X138.031 Y83.769 E5.0466
G1 X137.295 Y83.769 E5.07846
G1 X148.217 Y94.691 E5.74633
G1 X148.217 Y95.428 E5.77819
G1 X136.558 Y83.769 E6.49111
G1 X135.821 Y83.769 E6.52298
G1 X148.217 Y96.165 E7.28096
G1 X148.217 Y96.902 E7.31283
G1 X135.084 Y83.769 E8.11588
G1 X134.347 Y83.769 E8.14774
G1 X148.217 Y97.639 E8.99585
G1 X148.217 Y98.376 E9.02771
G1 X133.61 Y83.769 E9.92088
G1 X132.873 Y83.769 E9.95274
G1 X148.217 Y99.113 E10.89098
G1 X148.217 Y99.85 E10.92284
G1 X132.136 Y83.769 E11.90613
G1 X131.399 Y83.769 E11.938
G1 X148.217 Y100.587 E12.96635
G1 X148.217 Y101.324 E12.99821
G1 X130.662 Y83.769 E14.07163
G1 X129.925 Y83.769 E14.10349
G1 X148.217 Y102.061 E15.22197
G1 X148.217 Y102.797 E15.25383
G1 X129.188 Y83.769 E16.41737
G1 X128.452 Y83.769 E16.44923
G1 X148.217 Y103.534 E17.65783
G1 X148.217 Y104.271 E17.68969
G1 X127.715 Y83.769 E18.94335
G1 X126.978 Y83.769 E18.97522
G1 X148.217 Y105.008 E20.27394
G1 X148.217 Y105.745 E20.3058
G1 X126.241 Y83.769 E21.64958
G1 X125.504 Y83.769 E21.68145
G1 X148.217 Y106.482 E23.07029
G1 X148.217 Y107.219 E23.10215
G1 X124.767 Y83.769 E24.53606
G1 X124.03 Y83.769 E24.56792
G1 X148.217 Y107.956 E26.04689
G1 X148.217 Y108.693 E26.07875
G1 X123.293 Y83.769 E27.60278
G1 X122.556 Y83.769 E27.63464
G1 X148.217 Y109.43 E29.20373
G1 X148.217 Y110.167 E29.23559
G1 X121.819 Y83.769 E30.84974
G1 X121.082 Y83.769 E30.88161
G1 X148.217 Y110.904 E32.54082
G1 X148.217 Y111.64 E32.57268
G1 X120.345 Y83.769 E34.27695
G1 X119.609 Y83.769 E34.30882
G1 X148.217 Y112.377 E36.05815
G1 X148.217 Y113.114 E36.09001
G1 X118.872 Y83.769 E37.88441
G1 X118.135 Y83.769 E37.91627
G1 X148.217 Y113.851 E39.75573
G1 X148.217 Y114.588 E39.78759
G1 X117.398 Y83.769 E41.67211
G1 X116.661 Y83.769 E41.70397
G1 X148.217 Y115.325 E43.63355
G1 X148.217 Y116.062 E43.66541
G1 X115.924 Y83.769 E45.64005
G1 X115.187 Y83.769 E45.67192
G1 X148.217 Y116.799 E47.69162
G1 X148.217 Y117.536 E47.72348
G1 X114.45 Y83.769 E49.78824
G1 X113.713 Y83.769 E49.8201
G1 X148.217 Y118.273 E51.92993
G1 X148.217 Y119.01 E51.96179
G1 X112.976 Y83.769 E54.11668
G1 X112.239 Y83.769 E54.14854
G1 X148.217 Y119.747 E56.34848
G1 X148.217 Y120.483 E56.38035
G1 X111.502 Y83.769 E58.62535
G1 X110.766 Y83.769 E58.65722
G1 X148.217 Y121.22 E60.94728
G1 X148.217 Y121.957 E60.97915
G1 X110.029 Y83.769 E63.31428
G1 X109.292 Y83.769 E63.34614
G1 X148.217 Y122.694 E65.72633
G1 X148.217 Y123.431 E65.75819
G1 X108.555 Y83.769 E68.18345
G1 X107.818 Y83.769 E68.21531
G1 X148.217 Y124.168 E70.68562
G1 X148.217 Y124.905 E70.71748
G1 X107.081 Y83.769 E73.23286
G1 X106.344 Y83.769 E73.26472
G1 X148.217 Y125.642 E75.82516
G1 X148.217 Y126.379 E75.85702
G1 X105.607 Y83.769 E78.46252
G1 X104.87 Y83.769 E78.49438
G1 X148.217 Y127.116 E81.14494
G1 X148.217 Y127.853 E81.1768
G1 X104.133 Y83.769 E83.87242
G1 X103.396 Y83.769 E83.90428
G1 X148.217 Y128.59 E86.64496
G1 X148.217 Y129.326 E86.67683
G1 X102.659 Y83.769 E89.46257
G1 X101.923 Y83.769 E89.49443
G1 X148.217 Y130.063 E92.32523
G1 X148.217 Y130.8 E92.3571
G1 X101.186 Y83.769 E95.23296
G1 X100.449 Y83.769 E95.26482
G1 X148.217 Y131.537 E98.18575
G1 X148.217 Y132.274 E98.21761
G1 X99.712 Y83.769 E101.1836
G1 X98.975 Y83.769 E101.21546
G1 X148.217 Y133.011 E104.22651
G1 X148.217 Y133.748 E104.25837
G1 X98.238 Y83.769 E107.31448
G1 X97.501 Y83.769 E107.34634
G1 X148.217 Y134.485 E110.44751
G1 X148.217 Y135.222 E110.47938
G1 X96.764 Y83.769 E113.62561
G1 X96.027 Y83.769 E113.65747
G1 X148.217 Y135.959 E116.84876
G1 X148.217 Y136.696 E116.88063
G1 X95.29 Y83.769 E120.11698
G1 X94.553 Y83.769 E120.14884
G1 X148.217 Y137.433 E123.43026
G1 X148.217 Y138.169 E123.46212
G1 X93.816 Y83.769 E126.7886
G1 X93.079 Y83.769 E126.82046
G1 X148.217 Y138.906 E130.192
G1 X148.217 Y139.643 E130.22386
G1 X92.343 Y83.769 E133.64046
G1 X91.606 Y83.769 E133.67232
G1 X148.217 Y140.38 E137.13398
G1 X148.217 Y141.117 E137.16584
G1 X90.869 Y83.769 E140.67256
G1 X90.132 Y83.769 E140.70443
G1 X147.593 Y141.231 E144.21809
G1 X146.856 Y141.231 E144.24996
G1 X89.395 Y83.769 E147.76362
G1 X88.658 Y83.769 E147.79549
G1 X146.119 Y141.231 E151.30915
G1 X145.382 Y141.231 E151.34102
G1 X87.921 Y83.769 E154.85468
G1 X87.184 Y83.769 E154.88654
G1 X144.646 Y141.231 E158.40021
G1 X143.909 Y141.231 E158.43207
G1 X86.447 Y83.769 E161.94574
G1 X85.71 Y83.769 E161.9776
G1 X143.172 Y141.231 E165.49127
G1 X142.435 Y141.231 E165.52313
G1 X84.973 Y83.769 E169.0368
G1 X84.236 Y83.769 E169.06866
G1 X141.698 Y141.231 E172.58233
G1 X140.961 Y141.231 E172.61419
G1 X83.5 Y83.769 E176.12786
G1 X82.763 Y83.769 E176.15972
G1 X140.224 Y141.231 E179.67339
G1 X139.487 Y141.231 E179.70525
G1 X82.026 Y83.769 E183.21892
G1 X81.783 Y83.769 E183.22939
G1 X81.783 Y84.264 E183.25078
G1 X138.75 Y141.231 E186.7342
G1 X138.013 Y141.231 E186.76606
G1 X81.783 Y85.001 E190.20442
G1 X81.783 Y85.738 E190.23629
G1 X137.276 Y141.231 E193.62959
G1 X136.539 Y141.231 E193.66145
G1 X81.783 Y86.475 E197.00969
G1 X81.783 Y87.212 E197.04155
G1 X135.803 Y141.231 E200.34473
G1 X135.066 Y141.231 E200.37659
G1 X81.783 Y87.948 E203.63471
G1 X81.783 Y88.685 E203.66657
G1 X134.329 Y141.231 E206.87962
G1 X133.592 Y141.231 E206.91149
G1 X81.783 Y89.422 E210.07948
G1 X81.783 Y90.159 E210.11134
G1 X132.855 Y141.231 E213.23427
G1 X132.118 Y141.231 E213.26614
G1 X81.783 Y90.896 E216.34401
G1 X81.783 Y91.633 E216.37587
G1 X131.381 Y141.231 E219.40868
G1 X130.644 Y141.231 E219.44054
G1 X81.783 Y92.37 E222.42829
G1 X81.783 Y93.107 E222.46016
G1 X129.907 Y141.231 E225.40284
G1 X129.17 Y141.231 E225.43471
G1 X81.783 Y93.844 E228.33233
G1 X81.783 Y94.581 E228.36419
G1 X128.433 Y141.231 E231.21676
G1 X127.696 Y141.231 E231.24862
G1 X81.783 Y95.318 E234.05613
G1 X81.783 Y96.055 E234.08799
G1 X126.96 Y141.231 E236.85043
G1 X126.223 Y141.231 E236.88229
G1 X81.783 Y96.791 E239.59967
G1 X81.783 Y97.528 E239.63154
G1 X125.486 Y141.231 E242.30386
G1 X124.749 Y141.231 E242.33572
G1 X81.783 Y98.265 E244.96298
G1 X81.783 Y99.002 E244.99484
G1 X124.012 Y141.231 E247.57704
G1 X123.275 Y141.231 E247.6089
G1 X81.783 Y99.739 E250.14604
G1 X81.783 Y100.476 E250.1779
G1 X122.538 Y141.231 E252.66998
G1 X121.801 Y141.231 E252.70184
G1 X81.783 Y101.213 E255.14885
G1 X81.783 Y101.95 E255.18072
G1 X121.064 Y141.231 E257.58267
G1 X120.327 Y141.231 E257.61453
G1 X81.783 Y102.687 E259.97142
G1 X81.783 Y103.424 E260.00329
G1 X119.59 Y141.231 E262.31512
G1 X118.853 Y141.231 E262.34698
G1 X81.783 Y104.161 E264.61375
G1 X81.783 Y104.898 E264.64561
G1 X118.117 Y141.231 E266.86732
G1 X117.38 Y141.231 E266.89918
G1 X81.783 Y105.635 E269.07583
G1 X81.783 Y106.371 E269.10769
G1 X116.643 Y141.231 E271.23928
G1 X115.906 Y141.231 E271.27114
G1 X81.783 Y107.108 E273.35767
G1 X81.783 Y107.845 E273.38953
G1 X115.169 Y141.231 E275.43099
G1 X114.432 Y141.231 E275.46285
G1 X81.783 Y108.582 E277.45926
G1 X81.783 Y109.319 E277.49112
G1 X113.695 Y141.231 E279.44246
G1 X112.958 Y141.231 E279.47432
G1 X81.783 Y110.056 E281.3806
G1 X81.783 Y110.793 E281.41246
G1 X112.221 Y141.231 E283.27368
G1 X111.484 Y141.231 E283.30555
G1 X81.783 Y111.53 E285.1217
G1 X81.783 Y112.267 E285.15357
G1 X110.747 Y141.231 E286.92466
G1 X110.01 Y141.231 E286.95652
G1 X81.783 Y113.004 E288.68256
G1 X81.783 Y113.741 E288.71442
G1 X109.274 Y141.231 E290.3954
G1 X108.537 Y141.231 E290.42726
G1 X81.783 Y114.478 E292.06317
G1 X81.783 Y115.214 E292.09503
G1 X107.8 Y141.231 E293.68588
G1 X107.063 Y141.231 E293.71775
G1 X81.783 Y115.951 E295.26354
G1 X81.783 Y116.688 E295.2954
G1 X106.326 Y141.231 E296.79613
G1 X105.589 Y141.231 E296.82799
G1 X81.783 Y117.425 E298.28366
G1 X81.783 Y118.162 E298.31552
G1 X104.852 Y141.231 E299.72613
G1 X104.115 Y141.231 E299.75799
G1 X81.783 Y118.899 E301.12354
G1 X81.783 Y119.636 E301.1554
G1 X103.378 Y141.231 E302.47588
G1 X102.641 Y141.231 E302.50774
G1 X81.783 Y120.373 E303.78317
G1 X81.783 Y121.11 E303.81503
G1 X101.904 Y141.231 E305.04539
G1 X101.167 Y141.231 E305.07725
G1 X81.783 Y121.847 E306.26255
G1 X81.783 Y122.584 E306.29442
G1 X100.431 Y141.231 E307.43466
G1 X99.694 Y141.231 E307.46652
G1 X81.783 Y123.321 E308.5617
G1 X81.783 Y124.057 E308.59356
G1 X98.957 Y141.231 E309.64368
G1 X98.22 Y141.231 E309.67554
G1 X81.783 Y124.794 E310.68059
G1 X81.783 Y125.531 E310.71246
G1 X97.483 Y141.231 E311.67245
G1 X96.746 Y141.231 E311.70431
G1 X81.783 Y126.268 E312.61925
G1 X81.783 Y127.005 E312.65111
G1 X96.009 Y141.231 E313.52098
G1 X95.272 Y141.231 E313.55284
G1 X81.783 Y127.742 E314.37765
G1 X81.783 Y128.479 E314.40952
G1 X94.535 Y141.231 E315.18927
G1 X93.798 Y141.231 E315.22113
G1 X81.783 Y129.216 E315.95582
G1 X81.783 Y129.953 E315.98768
G1 X93.061 Y141.231 E316.67731
G1 X92.324 Y141.231 E316.70917
G1 X81.783 Y130.69 E317.35374
G1 X81.783 Y131.427 E317.3856
G1 X91.588 Y141.231 E317.9851
G1 X90.851 Y141.231 E318.01697
G1 X81.783 Y132.164 E318.57141
G1 X81.783 Y132.9 E318.60327
G1 X90.114 Y141.231 E319.11265
G1 X89.377 Y141.231 E319.14452
G1 X81.783 Y133.637 E319.60884
G1 X81.783 Y134.374 E319.6407
G1 X88.64 Y141.231 E320.05996
G1 X87.903 Y141.231 E320.09182
G1 X81.783 Y135.111 E320.46602
G1 X81.783 Y135.848 E320.49788
G1 X87.166 Y141.231 E320.82702
G1 X86.429 Y141.231 E320.85888
G1 X81.783 Y136.585 E321.14296
G1 X81.783 Y137.322 E321.17482
G1 X85.692 Y141.231 E321.41384
G1 X84.955 Y141.231 E321.4457
G1 X81.783 Y138.059 E321.63965
G1 X81.783 Y138.796 E321.67152
G1 X84.218 Y141.231 E321.82041
G1 X83.481 Y141.231 E321.85227
G1 X81.783 Y139.533 E321.9561
G1 X81.783 Y140.27 E321.98797
G1 X82.745 Y141.231 E322.04673
G1 X82.008 Y141.231 E322.0786
G1 X81.559 Y140.782 E322.10601
G92 E0
G1 E-1.4 F3600
;WIPE_START
G1 F14400
G1 X82.008 Y141.231 E-1.55056
G1 X82.745 Y141.231 E-1.72557
G1 X82.017 Y140.503 E-1.97
;WIPE_END
G1 E-2 F3600
; acceleration to travel
M204 S1500
G1 X160.179 Y116.497 F18000
; decel to extrusion
M204 S500
G1 X169.6 Y113.604
; end travel
G1 E0 F2400
;TYPE:Internal perimeter
;WIDTH:0.564
G1 F1200
G1 X169.81 Y114.053 E0.02149
G1 X170.12 Y114.497 E0.04495
G1 X170.503 Y114.88 E0.06841
G1 X170.947 Y115.19 E0.09187
G1 X171.438 Y115.419 E0.11534
G1 X171.961 Y115.559 E0.1388
G1 X172.5 Y115.607 E0.16226
G1 X173.039 Y115.559 E0.18572
G1 X173.562 Y115.419 E0.20919
G1 X174.053 Y115.19 E0.23265
G1 X174.497 Y114.88 E0.25611
G1 X174.88 Y114.497 E0.27957
G1 X175.19 Y114.053 E0.30303
G1 X175.419 Y113.562 E0.3265
G1 X175.559 Y113.039 E0.34996
G1 X175.607 Y112.5 E0.37342
G1 X175.559 Y111.961 E0.39688
G1 X175.419 Y111.438 E0.42035
G1 X175.19 Y110.947 E0.44381
G1 X174.88 Y110.503 E0.46727
G1 X174.497 Y110.12 E0.49073
G1 X174.053 Y109.81 E0.51419
G1 X173.562 Y109.581 E0.53766
G1 X173.039 Y109.441 E0.56112
G1 X172.5 Y109.393 E0.58458
G1 X171.961 Y109.441 E0.60804
G1 X171.438 Y109.581 E0.63151
G1 X170.947 Y109.81 E0.65497
G1 X170.503 Y110.12 E0.67843
G1 X170.12 Y110.503 E0.70189
G1 X169.81 Y110.947 E0.72536
G1 X169.581 Y111.438 E0.74882
G1 X169.441 Y111.961 E0.77228
G1 X169.393 Y112.5 E0.79574
G1 X169.441 Y113.039 E0.8192
G1 X169.577 Y113.549 E0.84204
G1 X170.072 Y113.384 F18000
;TYPE:External perimeter
G1 F1200
G1 X170.263 Y113.792 E0.86155
G1 X170.521 Y114.161 E0.88106
G1 X170.839 Y114.479 E0.90058
G1 X171.208 Y114.737 E0.92009
G1 X171.616 Y114.928 E0.9396
G1 X172.051 Y115.044 E0.95911
G1 X172.5 Y115.083 E0.97862
G1 X172.949 Y115.044 E0.99814
G1 X173.384 Y114.928 E1.01765
G1 X173.792 Y114.737 E1.03716
G1 X174.161 Y114.479 E1.05667
G1 X174.479 Y114.161 E1.07618
G1 X174.737 Y113.792 E1.09569
G1 X174.928 Y113.384 E1.11521
G1 X175.044 Y112.949 E1.13472
G1 X175.083 Y112.5 E1.15423
G1 X175.044 Y112.051 E1.17374
G1 X174.928 Y111.616 E1.19325
G1 X174.737 Y111.208 E1.21276
G1 X174.479 Y110.839 E1.23228
G1 X174.161 Y110.521 E1.25179
G1 X173.792 Y110.263 E1.2713
