; generated by SuperSlicer 2.4 on 2024-05-04 at 04:06:28 UTC

; 

; external perimeters extrusion width = 0.42mm
; perimeters extrusion width = 0.46mm
; infill extrusion width = 0.44mm
; solid infill extrusion width = 0.46mm
; top infill extrusion width = 0.44mm
; first layer extrusion width = 0.56mm

; object:{"name":"battery_holder","id":"battery_holder.STL id:0 copy 0","object_center":[115.000000,112.500000,0.000000],"boundingbox_center":[115.000000,112.500000,5.000000],"boundingbox_size":[70.000000,41.750000,10.000000]}
; Total objects to print: 1
M486 T1
; plater:{"center":[115.000000,112.500000,0.000000],"boundingbox_center":[115.000000,112.500000,5.000000],"boundingbox_size":[70.000000,41.750000,10.000000]}

;TYPE:Custom
G90 ; use absolute coordinates
M83 ; extruder relative mode
M140 S60 ; set final bed temp
M104 S150 ; set temporary nozzle temp to prevent oozing during homing and auto bed leveling
G4 S10 ; allow partial nozzle warmup
G28 ; home all axis
G1 Z50 F240
G1 X2 Y10 F3000
M104 S215 ; set final nozzle temp
M190 S60 ; wait for bed temp to stabilize
M109 S215 ; wait for nozzle temp to stabilize
G1 Z0.28 F240
G92 E0
G1 Y140 E10 F1500 ; prime the nozzle
G1 X2.3 F5000
G92 E0
G1 Y10 E10 F1200 ; prime the nozzle
G92 E0
M107
G21 ; set units to millimeters
G90 ; use absolute coordinates
M82 ; use absolute distances for extrusion
G92 E0
; Filament gcode
;_TOOLCHANGE 0
M107
;LAYER_CHANGE
;Z:0.2
;HEIGHT:0.2
;BEFORE_LAYER_CHANGE
;0.2


G1 Z0.2 F9000
;AFTER_LAYER_CHANGE
;0.2
M204 S500
G1 X78.26 Y88.917
;TYPE:Skirt
;WIDTH:0.48
G1 F1200
G1 X77.175 Y90.082 E0.05786
G1 X76.781 Y91.625 E0.11573
G1 X76.781 Y96.625 E0.29744
G1 X77.331 Y98.423 E0.36578
G1 X96.386 Y126.709 E1.60528
G1 X97.936 Y128.734 E1.69794
G1 X99.84 Y130.702 E1.79749
G1 X102.292 Y132.648 E1.91126
G1 X104.641 Y134.057 E2.01081
G1 X107.144 Y135.17 E2.11035
G1 X109.763 Y135.97 E2.20989
G1 X112.461 Y136.444 E2.30944
G1 X115.196 Y136.588 E2.40898
G1 X117.539 Y136.444 E2.49429
G1 X120.237 Y135.97 E2.59383
G1 X122.856 Y135.17 E2.69337
G1 X125.706 Y133.873 E2.80715
G1 X128.03 Y132.424 E2.90669
G1 X130.16 Y130.702 E3.00624
G1 X132.064 Y128.734 E3.10578
G1 X133.614 Y126.709 E3.19844
G1 X152.669 Y98.423 E4.43795
G1 X153.219 Y96.625 E4.50628
G1 X153.219 Y91.625 E4.688
G1 X152.708 Y89.885 E4.7539
G1 X151.543 Y88.8 E4.81176
G1 X150 Y88.406 E4.86962
G1 X80 Y88.406 E7.41365
G1 X78.318 Y88.9 E7.47737
G92 E0
; printing object battery_holder.STL id:0 copy 0
M486 S0
; acceleration to travel
M204 S1500
G1 X95 Y100.875 F9000
; decel to extrusion
M204 S500
G1 X100.561 Y104.866
; end travel
;TYPE:Internal perimeter
;WIDTH:0.564
G1 F1200
G1 X100.54 Y104.894 E0.00151
G1 X99.439 Y106.904 E0.1008
G1 X98.615 Y109.042 E0.2001
G1 X98.084 Y111.272 E0.29939
G1 X97.854 Y113.552 E0.39868
G1 X97.931 Y115.842 E0.49798
G1 X98.312 Y118.102 E0.59727
G1 X98.991 Y120.291 E0.69656
G1 X99.956 Y122.369 E0.79586
G1 X101.189 Y124.301 E0.89515
G1 X102.669 Y126.051 E0.99444
G1 X104.368 Y127.588 E1.09374
G1 X106.257 Y128.885 E1.19303
G1 X108.303 Y129.919 E1.29232
G1 X110.468 Y130.671 E1.39162
G1 X112.713 Y131.127 E1.49091
G1 X115 Y131.28 E1.5902
G1 X117.287 Y131.127 E1.6895
G1 X119.532 Y130.671 E1.78879
G1 X121.697 Y129.919 E1.88808
G1 X123.743 Y128.885 E1.98738
G1 X125.632 Y127.588 E2.08667
G1 X127.331 Y126.051 E2.18596
G1 X128.811 Y124.301 E2.28526
G1 X130.044 Y122.369 E2.38455
G1 X131.009 Y120.291 E2.48384
G1 X131.688 Y118.102 E2.58314
G1 X132.069 Y115.842 E2.68243
G1 X132.146 Y113.552 E2.78172
G1 X131.916 Y111.272 E2.88102
G1 X131.385 Y109.042 E2.98031
G1 X130.561 Y106.904 E3.0796
G1 X129.46 Y104.894 E3.1789
G1 X128.101 Y103.049 E3.27819
G1 X126.507 Y101.402 E3.37748
G1 X124.709 Y99.982 E3.47678
G1 X122.737 Y98.814 E3.57607
G1 X120.627 Y97.919 E3.67536
G1 X118.417 Y97.314 E3.77466
G1 X116.161 Y97.01 E3.87329
G1 X115 Y96.971 E3.92362
G1 X114.608 Y96.985 E3.94061
G1 X113.839 Y97.01 E3.97394
G1 X111.583 Y97.314 E4.07258
G1 X109.373 Y97.919 E4.17187
G1 X107.263 Y98.814 E4.27117
G1 X105.291 Y99.982 E4.37046
G1 X103.493 Y101.402 E4.46975
G1 X101.899 Y103.049 E4.56905
G1 X100.596 Y104.818 E4.66423
G1 X100.98 Y105.175 F9000
;TYPE:External perimeter
G1 F1200
G1 X99.912 Y107.124 E4.7605
G1 X99.114 Y109.197 E4.85677
G1 X98.599 Y111.358 E4.95304
G1 X98.376 Y113.569 E5.04931
G1 X98.451 Y115.79 E5.14558
G1 X98.82 Y117.981 E5.24185
G1 X99.479 Y120.103 E5.33812
G1 X100.414 Y122.118 E5.43439
G1 X101.609 Y123.991 E5.53066
G1 X103.044 Y125.688 E5.62694
G1 X104.692 Y127.178 E5.72321
G1 X106.524 Y128.436 E5.81948
G1 X108.507 Y129.438 E5.91575
G1 X110.606 Y130.167 E6.01202
G1 X112.783 Y130.609 E6.10829
G1 X115 Y130.758 E6.20456
G1 X117.217 Y130.609 E6.30083
G1 X119.394 Y130.167 E6.3971
G1 X121.493 Y129.438 E6.49337
G1 X123.476 Y128.436 E6.58964
G1 X125.308 Y127.178 E6.68591
G1 X126.956 Y125.688 E6.78218
G1 X128.391 Y123.991 E6.87845
G1 X129.586 Y122.118 E6.97472
G1 X130.521 Y120.103 E7.07099
G1 X131.18 Y117.981 E7.16726
G1 X131.549 Y115.79 E7.26353
G1 X131.624 Y113.569 E7.35981
G1 X131.401 Y111.358 E7.45608
G1 X130.886 Y109.197 E7.55235
G1 X130.088 Y107.124 E7.64862
G1 X129.02 Y105.175 E7.74489
G1 X127.702 Y103.386 E7.84116
G1 X126.157 Y101.789 E7.93743
G1 X124.413 Y100.412 E8.0337
G1 X122.502 Y99.28 E8.12997
G1 X120.456 Y98.412 E8.22624
G1 X118.313 Y97.825 E8.32251
G1 X116.117 Y97.53 E8.4185
G1 X115 Y97.493 E8.46694
G1 X114.625 Y97.505 E8.48318
G1 X113.883 Y97.53 E8.51538
G1 X111.687 Y97.825 E8.61137
G1 X109.544 Y98.412 E8.70764
G1 X107.498 Y99.28 E8.80391
G1 X105.587 Y100.412 E8.90018
G1 X103.843 Y101.789 E8.99645
G1 X102.298 Y103.386 E9.09272
G1 X101.016 Y105.127 E9.1864
;WIPE_START
G1 X100.58 Y105.166 F9000
;WIPE_END
G92 E0
; acceleration to travel
M204 S1500
G1 X85.822 Y98.083
; decel to extrusion
M204 S500
G1 X80.903 Y95.722
; end travel
;TYPE:Internal perimeter
G1 F1200
G1 X80.903 Y92.528 E0.13838
G1 X149.097 Y92.528 E3.09308
G1 X149.097 Y95.722 E3.23146
G1 X143.235 Y95.722 E3.48547
G1 X141.466 Y95.869 E3.56236
G1 X139.71 Y96.317 E3.64089
G1 X138.052 Y97.049 E3.71942
G1 X136.538 Y98.046 E3.79795
G1 X135.21 Y99.28 E3.87648
G1 X134.105 Y100.716 E3.955
G1 X133.253 Y102.316 E4.03353
G1 X132.678 Y104.035 E4.11206
G1 X132.395 Y105.825 E4.19059
G1 X132.413 Y107.637 E4.26912
G1 X132.719 Y109.357 E4.34481
G1 X133.173 Y111.614 E4.44456
G1 X133.343 Y113.844 E4.54147
G1 X133.241 Y116.079 E4.63839
G1 X132.867 Y118.284 E4.73531
G1 X132.228 Y120.428 E4.83223
G1 X131.333 Y122.478 E4.92915
G1 X130.195 Y124.404 E5.02607
G1 X128.831 Y126.177 E5.12299
G1 X127.262 Y127.77 E5.2199
G1 X125.51 Y129.161 E5.31682
G1 X123.602 Y130.329 E5.41374
G1 X121.566 Y131.255 E5.51066
G1 X119.432 Y131.927 E5.60758
G1 X117.233 Y132.334 E5.7045
G1 X115 Y132.47 E5.80141
G1 X112.767 Y132.334 E5.89833
G1 X110.568 Y131.927 E5.99525
G1 X108.434 Y131.255 E6.09217
G1 X106.398 Y130.329 E6.18909
G1 X104.49 Y129.161 E6.28601
G1 X102.738 Y127.77 E6.38292
G1 X101.169 Y126.177 E6.47984
G1 X99.805 Y124.404 E6.57676
G1 X98.667 Y122.478 E6.67368
G1 X97.772 Y120.428 E6.7706
G1 X97.133 Y118.284 E6.86752
G1 X96.759 Y116.079 E6.96443
G1 X96.657 Y113.844 E7.06135
G1 X96.827 Y111.614 E7.15827
G1 X97.281 Y109.357 E7.25802
G1 X97.587 Y107.637 E7.33371
G1 X97.605 Y105.825 E7.41224
G1 X97.322 Y104.035 E7.49077
G1 X96.747 Y102.316 E7.5693
G1 X95.895 Y100.716 E7.64783
G1 X94.79 Y99.28 E7.72635
G1 X93.462 Y98.046 E7.80488
G1 X91.948 Y97.049 E7.88341
G1 X90.29 Y96.317 E7.96194
G1 X88.534 Y95.869 E8.04046
G1 X86.765 Y95.722 E8.11736
G1 X80.963 Y95.722 E8.36876
G1 X80.382 Y96.243 F9000
;TYPE:External perimeter
G1 F1200
G1 X80.382 Y92.007 E8.5523
G1 X149.618 Y92.007 E11.55216
G1 X149.618 Y96.243 E11.73569
G1 X143.256 Y96.243 E12.01134
G1 X141.553 Y96.385 E12.08541
G1 X139.881 Y96.811 E12.16017
G1 X138.302 Y97.508 E12.23493
G1 X136.861 Y98.457 E12.3097
G1 X135.597 Y99.632 E12.38446
G1 X134.545 Y100.999 E12.45922
G1 X133.734 Y102.522 E12.53398
G1 X133.186 Y104.159 E12.60875
G1 X132.917 Y105.863 E12.68351
G1 X132.934 Y107.589 E12.75827
G1 X133.231 Y109.26 E12.83184
G1 X133.69 Y111.543 E12.93271
G1 X133.865 Y113.836 E13.03239
G1 X133.76 Y116.135 E13.13206
G1 X133.376 Y118.403 E13.23174
G1 X132.719 Y120.607 E13.33142
G1 X131.798 Y122.716 E13.43109
G1 X130.628 Y124.696 E13.53077
G1 X129.225 Y126.52 E13.63045
G1 X127.611 Y128.159 E13.73012
G1 X125.809 Y129.589 E13.8298
G1 X123.847 Y130.79 E13.92948
G1 X121.753 Y131.743 E14.02915
G1 X119.558 Y132.433 E14.12883
G1 X117.296 Y132.852 E14.2285
G1 X115 Y132.992 E14.32818
G1 X112.704 Y132.852 E14.42786
G1 X110.442 Y132.433 E14.52753
G1 X108.247 Y131.743 E14.62721
G1 X106.153 Y130.79 E14.72689
G1 X104.191 Y129.589 E14.82656
G1 X102.389 Y128.159 E14.92624
G1 X100.775 Y126.52 E15.02592
G1 X99.372 Y124.696 E15.12559
G1 X98.202 Y122.716 E15.22527
G1 X97.281 Y120.607 E15.32495
G1 X96.624 Y118.403 E15.42462
G1 X96.24 Y116.135 E15.5243
G1 X96.135 Y113.836 E15.62397
G1 X96.31 Y111.543 E15.72365
G1 X96.769 Y109.26 E15.82452
G1 X97.066 Y107.589 E15.89809
G1 X97.083 Y105.863 E15.97285
G1 X96.814 Y104.159 E16.04761
G1 X96.266 Y102.522 E16.12238
G1 X95.455 Y100.999 E16.19714
G1 X94.403 Y99.632 E16.2719
G1 X93.139 Y98.457 E16.34667
G1 X91.698 Y97.508 E16.42143
G1 X90.119 Y96.811 E16.49619
G1 X88.447 Y96.385 E16.57095
G1 X86.744 Y96.243 E16.64503
G1 X80.442 Y96.243 E16.91807
;WIPE_START
G1 X80.582 Y95.897 F9000
;WIPE_END
G92 E0
; acceleration to travel
M204 S1500
G1 X131.851 Y94.277
; decel to extrusion
M204 S500
G1 X148.941 Y93.738
; end travel
;TYPE:Solid infill
;WIDTH:0.630134
G1 F1200
G1 X148.111 Y92.908 E0.05677
G1 X147.374 Y92.908 E0.09245
G1 X148.717 Y94.251 E0.18433
G1 X148.717 Y94.987 E0.22
G1 X146.638 Y92.908 E0.36233
G1 X145.901 Y92.908 E0.398
G1 X148.334 Y95.342 E0.56458
G1 X147.597 Y95.342 E0.60025
G1 X145.164 Y92.908 E0.76682
G1 X144.427 Y92.908 E0.80249
G1 X146.86 Y95.342 E0.96906
G1 X146.123 Y95.342 E1.00474
G1 X143.69 Y92.908 E1.17131
G1 X142.953 Y92.908 E1.20698
G1 X145.386 Y95.342 E1.37355
G1 X144.649 Y95.342 E1.40922
G1 X142.216 Y92.908 E1.57579
G1 X141.479 Y92.908 E1.61147
G1 X143.912 Y95.342 E1.77804
G1 X143.219 Y95.342 E1.81161
G1 X143.179 Y95.345 E1.81355
G1 X140.742 Y92.908 E1.98035
G1 X140.005 Y92.908 E2.01603
G1 X142.498 Y95.402 E2.18671
G1 X141.818 Y95.458 E2.21975
G1 X139.268 Y92.908 E2.39431
G1 X138.531 Y92.908 E2.42999
G1 X141.174 Y95.551 E2.61091
G1 X140.587 Y95.701 E2.64025
G1 X137.795 Y92.908 E2.83142
G1 X137.058 Y92.908 E2.86709
G1 X140 Y95.851 E3.06851
G1 X139.585 Y95.956 E3.08923
G1 X139.435 Y96.023 E3.09717
G1 X136.321 Y92.908 E3.31037
G1 X135.584 Y92.908 E3.34604
G1 X138.924 Y96.248 E3.57469
G1 X138.413 Y96.474 E3.60174
G1 X134.847 Y92.908 E3.84585
G1 X134.11 Y92.908 E3.88153
G1 X137.901 Y96.7 E4.14109
G1 X137.869 Y96.714 E4.1428
G1 X137.453 Y96.988 E4.16693
G1 X133.373 Y92.908 E4.44623
G1 X132.636 Y92.908 E4.4819
G1 X137.009 Y97.281 E4.78124
G1 X136.564 Y97.573 E4.80699
G1 X131.899 Y92.908 E5.12636
G1 X131.162 Y92.908 E5.16203
G1 X136.145 Y97.892 E5.50318
G1 X135.763 Y98.247 E5.52842
G1 X130.425 Y92.908 E5.89387
G1 X129.688 Y92.908 E5.92955
G1 X135.381 Y98.601 E6.31929
G1 X134.999 Y98.956 E6.34453
G1 X128.952 Y92.908 E6.75858
G1 X128.215 Y92.908 E6.79425
G1 X134.668 Y99.361 E7.23602
G1 X134.347 Y99.778 E7.26146
G1 X127.478 Y92.908 E7.73174
G1 X126.741 Y92.908 E7.76742
G1 X134.027 Y100.194 E8.26622
G1 X133.784 Y100.509 E8.28545
G1 X133.722 Y100.627 E8.29188
G1 X126.004 Y92.908 E8.82027
G1 X125.267 Y92.908 E8.85594
G1 X133.466 Y101.107 E9.41724
G1 X133.21 Y101.588 E9.44362
G1 X124.53 Y92.908 E10.03784
G1 X123.793 Y92.908 E10.07351
G1 X132.954 Y102.069 E10.70065
G1 X132.903 Y102.165 E10.70591
G1 X132.755 Y102.607 E10.72847
G1 X123.056 Y92.908 E11.39244
G1 X122.319 Y92.908 E11.42811
G1 X132.57 Y103.159 E12.12987
G1 X132.385 Y103.711 E12.15805
G1 X121.582 Y92.908 E12.89761
G1 X120.845 Y92.908 E12.93329
G1 X132.249 Y104.312 E13.71398
G1 X132.149 Y104.949 E13.74517
G1 X120.108 Y92.908 E14.56943
G1 X119.372 Y92.908 E14.60511
G1 X132.048 Y105.585 E15.47294
G1 X132.015 Y105.797 E15.48332
G1 X132.019 Y106.293 E15.50736
G1 X118.635 Y92.908 E16.42368
G1 X117.898 Y92.908 E16.45935
G1 X124.267 Y99.278 E16.89541
G1 X124.925 Y99.667 E16.9324
G1 X126.763 Y101.119 E17.0458
G1 X128.392 Y102.803 E17.1592
G1 X129.781 Y104.689 E17.2726
G1 X129.906 Y104.917 E17.28517
G1 X132.027 Y107.037 E17.43035
G1 X132.033 Y107.675 E17.46122
G1 X132.058 Y107.806 E17.46765
G1 X130.799 Y106.547 E17.5538
G1 X130.907 Y106.743 E17.56463
G1 X131.313 Y107.798 E17.61932
G1 X132.232 Y108.716 E17.68222
G1 X132.277 Y108.955 E17.69397
G1 X131.854 Y109.076 E17.71528
G1 X131.384 Y108.606 E17.74745
G92 E0
; acceleration to travel
M204 S1500
G1 X125.17 Y101.286 F9000
; decel to extrusion
M204 S500
G1 X123.099 Y98.846
; end travel
G1 F1200
G1 X117.161 Y92.908 E0.4065
G1 X116.424 Y92.908 E0.44217
G1 X121.312 Y97.796 E0.77678
G1 X120.752 Y97.559 E0.80618
G1 X120.181 Y97.402 E0.83486
G1 X115.687 Y92.908 E1.14252
G1 X114.95 Y92.908 E1.17819
G1 X119.166 Y97.124 E1.46682
G1 X118.493 Y96.94 E1.50061
G1 X118.206 Y96.902 E1.51461
G1 X114.213 Y92.908 E1.78798
G1 X113.476 Y92.908 E1.82365
G1 X117.355 Y96.787 E2.08918
G1 X116.503 Y96.673 E2.13077
G1 X112.739 Y92.908 E2.38845
G1 X112.002 Y92.908 E2.42413
G1 X115.716 Y96.622 E2.67839
G1 X114.967 Y96.61 E2.71466
G1 X111.265 Y92.908 E2.96808
G1 X110.529 Y92.908 E3.00375
G1 X114.236 Y96.616 E3.25759
G1 X113.807 Y96.631 E3.27838
G1 X113.549 Y96.665 E3.29101
G1 X109.792 Y92.908 E3.54822
G1 X109.055 Y92.908 E3.58389
G1 X112.899 Y96.753 E3.84708
G1 X112.25 Y96.84 E3.87881
G1 X108.318 Y92.908 E4.14798
G1 X107.581 Y92.908 E4.18365
G1 X111.6 Y96.928 E4.4588
G1 X111.507 Y96.94 E4.46334
G1 X111.011 Y97.076 E4.48822
G1 X106.844 Y92.908 E4.77352
G1 X106.107 Y92.908 E4.80919
G1 X110.433 Y97.234 E5.10534
G1 X109.854 Y97.393 E5.13437
G1 X105.37 Y92.908 E5.44137
G1 X104.633 Y92.908 E5.47704
G1 X109.276 Y97.551 E5.79489
G1 X109.248 Y97.559 E5.79631
G1 X108.756 Y97.768 E5.82218
G1 X103.896 Y92.908 E6.15485
G1 X103.159 Y92.908 E6.19052
G1 X108.238 Y97.987 E6.5382
G1 X107.721 Y98.207 E6.56541
G1 X102.422 Y92.908 E6.92812
G1 X101.686 Y92.908 E6.96379
G1 X107.203 Y98.426 E7.34152
G1 X107.091 Y98.474 E7.34742
G1 X106.728 Y98.688 E7.36781
G1 X100.949 Y92.908 E7.7635
G1 X100.212 Y92.908 E7.79917
G1 X106.266 Y98.962 E8.21362
G1 X105.803 Y99.236 E8.23966
G1 X99.475 Y92.908 E8.67287
G1 X98.738 Y92.908 E8.70854
G1 X105.34 Y99.511 E9.16053
G1 X105.075 Y99.667 E9.17542
G1 X104.899 Y99.807 E9.18629
G1 X98.001 Y92.908 E9.65853
G1 X97.264 Y92.908 E9.69421
G1 X104.487 Y100.132 E10.18871
G1 X104.076 Y100.457 E10.21411
G1 X96.527 Y92.908 E10.73087
G1 X95.79 Y92.908 E10.76655
G1 X103.664 Y100.782 E11.30557
G1 X103.252 Y101.107 E11.33097
G1 X95.053 Y92.908 E11.89225
G1 X94.316 Y92.908 E11.92793
G1 X102.888 Y101.48 E12.51473
G1 X102.526 Y101.855 E12.53996
G1 X93.579 Y92.908 E13.15241
G1 X92.843 Y92.908 E13.18809
G1 X102.163 Y102.229 E13.82619
G1 X101.801 Y102.604 E13.85142
G1 X92.106 Y92.908 E14.51516
G1 X91.369 Y92.908 E14.55083
G1 X101.462 Y103.002 E15.24182
G1 X101.149 Y103.426 E15.26733
G1 X90.632 Y92.908 E15.98736
G1 X89.895 Y92.908 E16.02303
G1 X100.837 Y103.85 E16.77211
G1 X100.524 Y104.275 E16.79763
G1 X89.158 Y92.908 E17.57575
G1 X88.421 Y92.908 E17.61142
G1 X92.412 Y96.899 E17.88463
G1 X93.698 Y97.746 E17.95915
G1 X95.072 Y99.023 E18.04996
G1 X96.216 Y100.509 E18.14076
G1 X96.436 Y100.923 E18.16348
G1 X100.213 Y104.7 E18.42202
G1 X99.952 Y105.176 E18.4483
G1 X97.176 Y102.4 E18.63833
G1 X97.547 Y103.508 E18.69487
G1 X99.691 Y105.652 E18.84165
G1 X99.43 Y106.128 E18.86793
G1 X97.777 Y104.475 E18.98113
G1 X97.915 Y105.35 E19.02402
G1 X99.169 Y106.604 E19.10989
G1 X99.093 Y106.743 E19.11757
G1 X98.948 Y107.12 E19.13711
G1 X97.982 Y106.154 E19.20324
G1 X97.975 Y106.884 E19.23857
G1 X98.743 Y107.652 E19.29117
G1 X98.538 Y108.184 E19.31877
G1 X97.968 Y107.613 E19.35782
G1 X97.967 Y107.675 E19.3608
G1 X97.859 Y108.242 E19.38873
G1 X98.333 Y108.716 E19.4212
G1 X98.19 Y109.088 E19.44051
G1 X97.88 Y109 E19.45611
G1 X97.549 Y108.669 E19.47876
G92 E0
; acceleration to travel
M204 S1500
G1 X92.953 Y99.652 F9000
; decel to extrusion
M204 S500
G1 X91.422 Y96.646
