; generated by SuperSlicer 2.4 on 2024-05-04 at 19:04:55 UTC

; 

; external perimeters extrusion width = 0.42mm
; perimeters extrusion width = 0.46mm
; infill extrusion width = 0.44mm
; solid infill extrusion width = 0.46mm
; top infill extrusion width = 0.44mm
; first layer extrusion width = 0.56mm

; object:{"name":"body","id":"body.STL id:0 copy 0","object_center":[115.000000,112.500000,0.000000],"boundingbox_center":[115.000000,112.500000,15.000000],"boundingbox_size":[47.970291,25.238417,30.000000]}
; Total objects to print: 1
M486 T1
; plater:{"center":[115.000000,112.500000,0.000000],"boundingbox_center":[115.000000,112.500000,15.000000],"boundingbox_size":[47.970291,25.238417,30.000000]}

;TYPE:Custom
G90 ; use absolute coordinates
M83 ; extruder relative mode
M140 S60 ; set final bed temp
M104 S150 ; set temporary nozzle temp to prevent oozing during homing and auto bed leveling
G4 S10 ; allow partial nozzle warmup
G28 ; home all axis
G1 Z50 F240
G1 X2 Y10 F3000
M104 S205 ; set final nozzle temp
M190 S60 ; wait for bed temp to stabilize
M109 S205 ; wait for nozzle temp to stabilize
G1 Z0.28 F240
G92 E0
G1 Y140 E10 F1500 ; prime the nozzle
G1 X2.3 F5000
G92 E0
G1 Y10 E10 F1200 ; prime the nozzle
G92 E0
M107
G21 ; set units to millimeters
G90 ; use absolute coordinates
M82 ; use absolute distances for extrusion
G92 E0
; Filament gcode
;_TOOLCHANGE 0
M107
;LAYER_CHANGE
;Z:0.2
;HEIGHT:0.2
;BEFORE_LAYER_CHANGE
;0.2


G1 E-2 F3600
G1 Z0.2 F9000
;AFTER_LAYER_CHANGE
;0.2
G92 E0
M204 S500
G1 X89.275 Y97.173
G1 E2 F2400
;TYPE:Skirt
;WIDTH:0.48
G1 F1200
G1 X88.19 Y98.338 E2.05786
G1 X87.796 Y99.881 E2.11573
G1 X87.796 Y125.119 E3.03297
G1 X88.307 Y126.859 E3.09887
G1 X89.472 Y127.944 E3.15673
G1 X91.015 Y128.338 E3.2146
G1 X138.985 Y128.338 E4.958
G1 X140.725 Y127.827 E5.02389
G1 X141.81 Y126.662 E5.08175
G1 X142.204 Y125.119 E5.13962
G1 X142.204 Y99.881 E6.05687
G1 X141.693 Y98.141 E6.12276
G1 X140.528 Y97.056 E6.18062
G1 X138.985 Y96.662 E6.23849
G1 X91.015 Y96.662 E7.98189
G1 X89.333 Y97.156 E8.0456
G92 E0
G1 E-1.4 F3600
;WIPE_START
G1 F7200
G1 X88.499 Y98.019 E-1.97
;WIPE_END
G1 E-2 F3600
; printing object body.STL id:0 copy 0
M486 S0
; acceleration to travel
M204 S1500
G1 X91.546 Y100.483 F9000
; decel to extrusion
M204 S500
G1 X91.918 Y100.784
; end travel
G1 E0 F2400
;TYPE:Internal perimeter
;WIDTH:0.564
G1 F1200
G1 X138.082 Y100.784 E2.0002
G1 X138.082 Y124.216 E3.01547
G1 X91.918 Y124.216 E5.01567
G1 X91.918 Y100.844 E6.02834
G1 X91.397 Y100.263 F9000
;TYPE:External perimeter
G1 F1200
G1 X138.603 Y100.263 E8.07369
G1 X138.603 Y124.737 E9.13412
G1 X91.397 Y124.737 E11.17947
G1 X91.397 Y100.323 E12.23729
;WIPE_START
G1 X91.743 Y100.463 F9000
;WIPE_END
G92 E0
G1 E-1.4 F3600
;WIPE_START
G1 F7200
G1 X92.943 Y100.463 E-1.97
;WIPE_END
G1 E-2 F3600
; acceleration to travel
M204 S1500
G1 X132.09 Y100.888 F9000
; decel to extrusion
M204 S500
G1 X136.872 Y100.94
; end travel
G1 E0 F2400
;TYPE:Solid infill
;WIDTH:0.561755
G1 F1200
G1 X137.702 Y101.769 E0.05061
G1 X137.702 Y102.506 E0.08241
G1 X136.36 Y101.164 E0.16432
G1 X135.623 Y101.164 E0.19613
G1 X137.702 Y103.243 E0.32301
G1 X137.702 Y103.98 E0.35482
G1 X134.886 Y101.164 E0.52668
G1 X134.149 Y101.164 E0.55848
G1 X137.702 Y104.717 E0.77531
G1 X137.702 Y105.454 E0.80712
G1 X133.412 Y101.164 E1.06893
G1 X132.675 Y101.164 E1.10073
G1 X137.702 Y106.191 E1.40751
G1 X137.702 Y106.928 E1.43932
G1 X131.938 Y101.164 E1.79108
G1 X131.201 Y101.164 E1.82288
G1 X137.702 Y107.665 E2.21961
G1 X137.702 Y108.402 E2.25142
G1 X130.464 Y101.164 E2.69312
G1 X129.727 Y101.164 E2.72493
G1 X137.702 Y109.139 E3.21161
G1 X137.702 Y109.876 E3.24341
G1 X128.99 Y101.164 E3.77507
G1 X128.253 Y101.164 E3.80688
G1 X137.702 Y110.612 E4.38351
G1 X137.702 Y111.349 E4.41531
G1 X127.517 Y101.164 E5.03692
G1 X126.78 Y101.164 E5.06872
G1 X137.702 Y112.086 E5.73531
G1 X137.702 Y112.823 E5.76711
G1 X126.043 Y101.164 E6.47867
G1 X125.306 Y101.164 E6.51047
G1 X137.702 Y113.56 E7.267
G1 X137.702 Y114.297 E7.2988
G1 X124.569 Y101.164 E8.10031
G1 X123.832 Y101.164 E8.13211
G1 X137.702 Y115.034 E8.9786
G1 X137.702 Y115.771 E9.0104
G1 X123.095 Y101.164 E9.90186
G1 X122.358 Y101.164 E9.93366
G1 X137.702 Y116.508 E10.87009
G1 X137.702 Y117.245 E10.90189
G1 X121.621 Y101.164 E11.8833
G1 X120.884 Y101.164 E11.9151
G1 X137.702 Y117.982 E12.94149
G1 X137.702 Y118.719 E12.97329
G1 X120.147 Y101.164 E14.04465
G1 X119.41 Y101.164 E14.07645
G1 X137.702 Y119.455 E15.19278
G1 X137.702 Y120.192 E15.22458
G1 X118.674 Y101.164 E16.38589
G1 X117.937 Y101.164 E16.41769
G1 X137.702 Y120.929 E17.62397
G1 X137.702 Y121.666 E17.65577
G1 X117.2 Y101.164 E18.90703
G1 X116.463 Y101.164 E18.93883
G1 X137.702 Y122.403 E20.23506
G1 X137.702 Y123.14 E20.26686
G1 X115.726 Y101.164 E21.60807
G1 X114.989 Y101.164 E21.63987
G1 X137.661 Y123.836 E23.02354
G1 X136.924 Y123.836 E23.05534
G1 X114.252 Y101.164 E24.43901
G1 X113.515 Y101.164 E24.47081
G1 X136.187 Y123.836 E25.85448
G1 X135.45 Y123.836 E25.88628
G1 X112.778 Y101.164 E27.26994
G1 X112.041 Y101.164 E27.30175
G1 X134.713 Y123.836 E28.68541
G1 X133.976 Y123.836 E28.71722
G1 X111.304 Y101.164 E30.10088
G1 X110.567 Y101.164 E30.13268
G1 X133.239 Y123.836 E31.51635
G1 X132.502 Y123.836 E31.54815
G1 X109.831 Y101.164 E32.93182
G1 X109.094 Y101.164 E32.96362
G1 X131.765 Y123.836 E34.34729
G1 X131.028 Y123.836 E34.37909
G1 X108.357 Y101.164 E35.76276
G1 X107.62 Y101.164 E35.79456
G1 X130.291 Y123.836 E37.17822
G1 X129.554 Y123.836 E37.21003
G1 X106.883 Y101.164 E38.59369
G1 X106.146 Y101.164 E38.6255
G1 X128.818 Y123.836 E40.00916
G1 X128.081 Y123.836 E40.04096
G1 X105.409 Y101.164 E41.42463
G1 X104.672 Y101.164 E41.45643
G1 X127.344 Y123.836 E42.8401
G1 X126.607 Y123.836 E42.8719
G1 X103.935 Y101.164 E44.25557
G1 X103.198 Y101.164 E44.28737
G1 X125.87 Y123.836 E45.67104
G1 X125.133 Y123.836 E45.70284
G1 X102.461 Y101.164 E47.0865
G1 X101.724 Y101.164 E47.11831
G1 X124.396 Y123.836 E48.50197
G1 X123.659 Y123.836 E48.53378
G1 X100.988 Y101.164 E49.91744
G1 X100.251 Y101.164 E49.94924
G1 X122.922 Y123.836 E51.33291
G1 X122.185 Y123.836 E51.36471
G1 X99.514 Y101.164 E52.74838
G1 X98.777 Y101.164 E52.78018
G1 X121.448 Y123.836 E54.16385
G1 X120.711 Y123.836 E54.19565
G1 X98.04 Y101.164 E55.57932
G1 X97.303 Y101.164 E55.61112
G1 X119.974 Y123.836 E56.99478
G1 X119.238 Y123.836 E57.02659
G1 X96.566 Y101.164 E58.41025
G1 X95.829 Y101.164 E58.44206
G1 X118.501 Y123.836 E59.82572
G1 X117.764 Y123.836 E59.85752
G1 X95.092 Y101.164 E61.24119
G1 X94.355 Y101.164 E61.27299
G1 X117.027 Y123.836 E62.65666
G1 X116.29 Y123.836 E62.68846
G1 X93.618 Y101.164 E64.07213
G1 X92.881 Y101.164 E64.10393
G1 X115.553 Y123.836 E65.4876
G1 X114.816 Y123.836 E65.5194
G1 X92.298 Y101.318 E66.89368
G1 X92.298 Y102.055 E66.92548
G1 X114.079 Y123.836 E68.25479
G1 X113.342 Y123.836 E68.28659
G1 X92.298 Y102.792 E69.57093
G1 X92.298 Y103.529 E69.60273
G1 X112.605 Y123.836 E70.84209
G1 X111.868 Y123.836 E70.87389
G1 X92.298 Y104.266 E72.06828
G1 X92.298 Y105.003 E72.10008
G1 X111.131 Y123.836 E73.24949
G1 X110.395 Y123.836 E73.28129
G1 X92.298 Y105.739 E74.38572
G1 X92.298 Y106.476 E74.41752
G1 X109.658 Y123.836 E75.47698
G1 X108.921 Y123.836 E75.50879
G1 X92.298 Y107.213 E76.52327
G1 X92.298 Y107.95 E76.55507
G1 X108.184 Y123.836 E77.52458
G1 X107.447 Y123.836 E77.55639
G1 X92.298 Y108.687 E78.48092
G1 X92.298 Y109.424 E78.51272
G1 X106.71 Y123.836 E79.39228
G1 X105.973 Y123.836 E79.42409
G1 X92.298 Y110.161 E80.25867
G1 X92.298 Y110.898 E80.29047
G1 X105.236 Y123.836 E81.08008
G1 X104.499 Y123.836 E81.11189
G1 X92.298 Y111.635 E81.85652
G1 X92.298 Y112.372 E81.88832
G1 X103.762 Y123.836 E82.58799
G1 X103.025 Y123.836 E82.61979
G1 X92.298 Y113.109 E83.27447
G1 X92.298 Y113.846 E83.30628
G1 X102.288 Y123.836 E83.91599
G1 X101.552 Y123.836 E83.94779
G1 X92.298 Y114.582 E84.51253
G1 X92.298 Y115.319 E84.54433
G1 X100.815 Y123.836 E85.06409
G1 X100.078 Y123.836 E85.09589
G1 X92.298 Y116.056 E85.57068
G1 X92.298 Y116.793 E85.60248
G1 X99.341 Y123.836 E86.03229
G1 X98.604 Y123.836 E86.0641
G1 X92.298 Y117.53 E86.44893
G1 X92.298 Y118.267 E86.48074
G1 X97.867 Y123.836 E86.8206
G1 X97.13 Y123.836 E86.8524
G1 X92.298 Y119.004 E87.14729
G1 X92.298 Y119.741 E87.17909
G1 X96.393 Y123.836 E87.429
G1 X95.656 Y123.836 E87.46081
G1 X92.298 Y120.478 E87.66574
G1 X92.298 Y121.215 E87.69755
G1 X94.919 Y123.836 E87.85751
G1 X94.182 Y123.836 E87.88931
G1 X92.298 Y121.952 E88.0043
G1 X92.298 Y122.689 E88.0361
G1 X93.445 Y123.836 E88.10612
G1 X92.709 Y123.836 E88.13792
G1 X92.074 Y123.201 E88.17663
M106 S84.15
;LAYER_CHANGE
;Z:0.4
;HEIGHT:0.2
;BEFORE_LAYER_CHANGE
;0.4


G92 E0
G1 E-1.4 F3600
;WIPE_START
G1 F7200
G1 X92.709 Y123.836 E-1.82612
G1 X93.011 Y123.836 E-1.97
;WIPE_END
G1 E-2 F3600
; stop printing object body.STL id:0 copy 0
M486 S-1
G1 Z0.4 F9000
;AFTER_LAYER_CHANGE
;0.4
M104 S200 ; set temperature
G92 E0
; acceleration to travel
M204 S1500
G1 X93.011 Y127.848
; decel to extrusion
M204 S500
G1 X93.011 Y128.338
; end travel
G1 E2 F2400
;TYPE:Skirt
;WIDTH:0.48
G1 F1200
G1 X138.985 Y128.338 E3.67084
G1 X140.725 Y127.827 E3.73673
G1 X141.81 Y126.662 E3.79459
G1 X142.204 Y125.119 E3.85246
G1 X142.204 Y99.881 E4.76971
G1 X141.693 Y98.141 E4.8356
G1 X140.528 Y97.056 E4.89346
G1 X138.985 Y96.662 E4.95133
G1 X91.015 Y96.662 E6.69473
G1 X89.275 Y97.173 E6.76062
G1 X88.19 Y98.338 E6.81849
G1 X87.796 Y99.881 E6.87635
G1 X87.796 Y125.119 E7.7936
G1 X88.307 Y126.859 E7.85949
G1 X89.472 Y127.944 E7.91736
G1 X91.015 Y128.338 E7.97522
G1 X92.951 Y128.338 E8.0456
G92 E0
G1 E-1.4 F3600
;WIPE_START
G1 F7200
G1 X94.151 Y128.338 E-1.97
;WIPE_END
G1 E-2 F3600
; printing object body.STL id:0 copy 0
M486 S0
; acceleration to travel
M204 S1500
G1 X91.913 Y124.948 F9000
; decel to extrusion
M204 S500
G1 X91.624 Y124.51
; end travel
G1 E0 F2400
;TYPE:Internal perimeter
;WIDTH:0.464
G1 X91.624 Y100.49 E0.84102
G1 X138.376 Y100.49 E2.47795
G1 X138.376 Y124.51 E3.31897
G1 X91.684 Y124.51 E4.9538
G1 X91.225 Y124.909 F9000
;TYPE:External perimeter
;WIDTH:0.42
G1 F1500
G1 X91.225 Y100.091 E5.73196
G1 X138.775 Y100.091 E7.22287
G1 X138.775 Y124.909 E8.00103
G1 X91.285 Y124.909 E9.49005
;WIPE_START
G1 X91.425 Y124.563 F9000
;WIPE_END
G92 E0
G1 E-1.4 F3600
;WIPE_START
G1 F7200
G1 X91.425 Y123.363 E-1.97
;WIPE_END
G1 E-2 F3600
; acceleration to travel
M204 S1500
G1 X91.713 Y104.046 F9000
; decel to extrusion
M204 S500
G1 X91.75 Y101.55
; end travel
G1 E0 F2400
;TYPE:Solid infill
;WIDTH:0.463796
G1 X92.503 Y100.797 E0.03726
G1 X93.099 Y100.797 E0.0581
G1 X91.931 Y101.965 E0.11588
G1 X91.931 Y102.56 E0.13672
G1 X93.694 Y100.797 E0.22397
G1 X94.29 Y100.797 E0.24481
G1 X91.931 Y103.156 E0.36153
G1 X91.931 Y103.751 E0.38237
G1 X94.885 Y100.797 E0.52856
G1 X95.481 Y100.797 E0.5494
G1 X91.931 Y104.347 E0.72507
G1 X91.931 Y104.942 E0.74591
G1 X96.076 Y100.797 E0.95105
G1 X96.672 Y100.797 E0.9719
G1 X91.931 Y105.538 E1.20651
G1 X91.931 Y106.133 E1.22735
G1 X97.267 Y100.797 E1.49144
G1 X97.863 Y100.797 E1.51228
G1 X91.931 Y106.729 E1.80584
G1 X91.931 Y107.324 E1.82668
G1 X98.458 Y100.797 E2.14972
G1 X99.054 Y100.797 E2.17056
G1 X91.931 Y107.92 E2.52307
G1 X91.931 Y108.515 E2.54391
G1 X99.649 Y100.797 E2.92589
G1 X100.245 Y100.797 E2.94673
G1 X91.931 Y109.11 E3.35819
G1 X91.931 Y109.706 E3.37903
G1 X100.84 Y100.797 E3.81995
G1 X101.436 Y100.797 E3.8408
G1 X91.931 Y110.301 E4.3112
G1 X91.931 Y110.897 E4.33204
G1 X102.031 Y100.797 E4.83191
G1 X102.627 Y100.797 E4.85276
G1 X91.931 Y111.492 E5.3821
G1 X91.931 Y112.088 E5.40294
G1 X103.222 Y100.797 E5.96177
G1 X103.818 Y100.797 E5.98261
G1 X91.931 Y112.683 E6.5709
G1 X91.931 Y113.279 E6.59174
G1 X104.413 Y100.797 E7.20951
G1 X105.009 Y100.797 E7.23035
G1 X91.931 Y113.874 E7.8776
G1 X91.931 Y114.47 E7.89844
G1 X105.604 Y100.797 E8.57515
G1 X106.2 Y100.797 E8.59599
G1 X91.931 Y115.065 E9.30218
G1 X91.931 Y115.661 E9.32303
G1 X106.795 Y100.797 E10.05869
G1 X107.391 Y100.797 E10.07953
G1 X91.931 Y116.256 E10.84466
G1 X91.931 Y116.852 E10.86551
G1 X107.986 Y100.797 E11.66012
G1 X108.582 Y100.797 E11.68096
G1 X91.931 Y117.447 E12.50504
G1 X91.931 Y118.043 E12.52588
G1 X109.177 Y100.797 E13.37944
G1 X109.772 Y100.797 E13.40028
G1 X91.931 Y118.638 E14.28331
G1 X91.931 Y119.234 E14.30415
G1 X110.368 Y100.797 E15.21665
G1 X110.963 Y100.797 E15.23749
G1 X91.931 Y119.829 E16.17947
G1 X91.931 Y120.425 E16.20031
G1 X111.559 Y100.797 E17.17176
G1 X112.154 Y100.797 E17.1926
G1 X91.931 Y121.02 E18.19352
G1 X91.931 Y121.616 E18.21437
G1 X112.75 Y100.797 E19.24476
G1 X113.345 Y100.797 E19.2656
G1 X91.931 Y122.211 E20.32547
G1 X91.931 Y122.807 E20.34631
G1 X113.941 Y100.797 E21.43566
G1 X114.536 Y100.797 E21.4565
G1 X91.931 Y123.402 E22.57532
G1 X91.931 Y123.998 E22.59616
G1 X115.132 Y100.797 E23.74445
G1 X115.727 Y100.797 E23.76529
G1 X92.322 Y124.203 E24.92372
G1 X92.917 Y124.203 E24.94456
G1 X116.323 Y100.797 E26.10299
G1 X116.918 Y100.797 E26.12383
G1 X93.513 Y124.203 E27.28226
G1 X94.108 Y124.203 E27.3031
G1 X117.514 Y100.797 E28.46153
G1 X118.109 Y100.797 E28.48237
G1 X94.704 Y124.203 E29.6408
G1 X95.299 Y124.203 E29.66164
G1 X118.705 Y100.797 E30.82008
G1 X119.3 Y100.797 E30.84092
G1 X95.895 Y124.203 E31.99935
G1 X96.49 Y124.203 E32.02019
G1 X119.896 Y100.797 E33.17862
G1 X120.491 Y100.797 E33.19946
G1 X97.086 Y124.203 E34.35789
G1 X97.681 Y124.203 E34.37873
G1 X121.087 Y100.797 E35.53716
G1 X121.682 Y100.797 E35.558
G1 X98.277 Y124.203 E36.71643
G1 X98.872 Y124.203 E36.73727
G1 X122.278 Y100.797 E37.8957
G1 X122.873 Y100.797 E37.91654
G1 X99.468 Y124.203 E39.07497
G1 X100.063 Y124.203 E39.09581
G1 X123.469 Y100.797 E40.25424
G1 X124.064 Y100.797 E40.27509
G1 X100.659 Y124.203 E41.43352
G1 X101.254 Y124.203 E41.45436
G1 X124.66 Y100.797 E42.61279
G1 X125.255 Y100.797 E42.63363
G1 X101.85 Y124.203 E43.79206
G1 X102.445 Y124.203 E43.8129
G1 X125.851 Y100.797 E44.97133
G1 X126.446 Y100.797 E44.99217
G1 X103.041 Y124.203 E46.1506
G1 X103.636 Y124.203 E46.17144
G1 X127.042 Y100.797 E47.32987
G1 X127.637 Y100.797 E47.35071
G1 X104.232 Y124.203 E48.50914
G1 X104.827 Y124.203 E48.52998
G1 X128.233 Y100.797 E49.68841
G1 X128.828 Y100.797 E49.70926
G1 X105.423 Y124.203 E50.86769
G1 X106.018 Y124.203 E50.88853
G1 X129.424 Y100.797 E52.04696
G1 X130.019 Y100.797 E52.0678
G1 X106.614 Y124.203 E53.22623
G1 X107.209 Y124.203 E53.24707
G1 X130.615 Y100.797 E54.4055
G1 X131.21 Y100.797 E54.42634
G1 X107.805 Y124.203 E55.58477
G1 X108.4 Y124.203 E55.60561
G1 X131.806 Y100.797 E56.76404
G1 X132.401 Y100.797 E56.78488
G1 X108.996 Y124.203 E57.94331
G1 X109.591 Y124.203 E57.96415
G1 X132.997 Y100.797 E59.12258
G1 X133.592 Y100.797 E59.14343
G1 X110.187 Y124.203 E60.30186
G1 X110.782 Y124.203 E60.3227
G1 X134.188 Y100.797 E61.48113
G1 X134.783 Y100.797 E61.50197
G1 X111.378 Y124.203 E62.6604
G1 X111.973 Y124.203 E62.68124
G1 X135.379 Y100.797 E63.83967
G1 X135.974 Y100.797 E63.86051
G1 X112.569 Y124.203 E65.01894
G1 X113.164 Y124.203 E65.03978
G1 X136.57 Y100.797 E66.19821
G1 X137.165 Y100.797 E66.21905
G1 X113.76 Y124.203 E67.37748
G1 X114.355 Y124.203 E67.39832
G1 X137.761 Y100.797 E68.55675
G1 X138.069 Y100.797 E68.56753
G1 X138.069 Y101.085 E68.5776
G1 X114.951 Y124.203 E69.72179
G1 X115.546 Y124.203 E69.74263
G1 X138.069 Y101.68 E70.85736
G1 X138.069 Y102.276 E70.8782
G1 X116.142 Y124.203 E71.96345
G1 X116.737 Y124.203 E71.98429
G1 X138.069 Y102.871 E73.04006
G1 X138.069 Y103.467 E73.0609
G1 X117.333 Y124.203 E74.08721
G1 X117.928 Y124.203 E74.10805
G1 X138.069 Y104.062 E75.10488
G1 X138.069 Y104.658 E75.12572
G1 X118.524 Y124.203 E76.09307
G1 X119.119 Y124.203 E76.11391
G1 X138.069 Y105.253 E77.05179
G1 X138.069 Y105.849 E77.07264
G1 X119.715 Y124.203 E77.98104
G1 X120.31 Y124.203 E78.00189
G1 X138.069 Y106.444 E78.88082
G1 X138.069 Y107.04 E78.90166
G1 X120.906 Y124.203 E79.75112
G1 X121.501 Y124.203 E79.77196
G1 X138.069 Y107.635 E80.59195
G1 X138.069 Y108.231 E80.61279
G1 X122.097 Y124.203 E81.40331
G1 X122.692 Y124.203 E81.42415
G1 X138.069 Y108.826 E82.18519
G1 X138.069 Y109.422 E82.20603
G1 X123.288 Y124.203 E82.9376
