; generated by SuperSlicer 2.4 on 2024-05-04 at 02:59:54 UTC

; 

; external perimeters extrusion width = 0.42mm
; perimeters extrusion width = 0.46mm
; infill extrusion width = 0.44mm
; solid infill extrusion width = 0.46mm
; top infill extrusion width = 0.44mm
; first layer extrusion width = 0.56mm

; object:{"name":"nucleo_mount_tester","id":"nucleo_mount_tester.STL id:0 copy 0","object_center":[115.000000,112.500000,0.000000],"boundingbox_center":[115.000000,112.500000,2.000000],"boundingbox_size":[50.292000,18.542000,4.000000]}
; Total objects to print: 1
M486 T1
; plater:{"center":[115.000000,112.500000,0.000000],"boundingbox_center":[115.000000,112.500000,2.000000],"boundingbox_size":[50.292000,18.542000,4.000000]}

;TYPE:Custom
G90 ; use absolute coordinates
M83 ; extruder relative mode
M140 S60 ; set final bed temp
M104 S150 ; set temporary nozzle temp to prevent oozing during homing and auto bed leveling
G4 S10 ; allow partial nozzle warmup
G28 ; home all axis
G1 Z50 F240
G1 X2 Y10 F3000
M104 S205 ; set final nozzle temp
M190 S60 ; wait for bed temp to stabilize
M109 S205 ; wait for nozzle temp to stabilize
G1 Z0.28 F240
G92 E0
G1 Y140 E10 F1500 ; prime the nozzle
G1 X2.3 F5000
G92 E0
G1 Y10 E10 F1200 ; prime the nozzle
G92 E0
M107
G21 ; set units to millimeters
G90 ; use absolute coordinates
M82 ; use absolute distances for extrusion
G92 E0
; Filament gcode
;_TOOLCHANGE 0
M107
;LAYER_CHANGE
;Z:0.2
;HEIGHT:0.2
;BEFORE_LAYER_CHANGE
;0.2


G1 E-2 F3600
G1 Z0.2 F9000
;AFTER_LAYER_CHANGE
;0.2
G92 E0
M204 S500
G1 X88.114 Y100.521
G1 E2 F2400
;TYPE:Skirt
;WIDTH:0.48
G1 F1200
G1 X87.029 Y101.686 E2.05786
G1 X86.635 Y103.229 E2.11573
G1 X86.635 Y121.771 E2.7896
G1 X87.146 Y123.511 E2.8555
G1 X88.311 Y124.596 E2.91336
G1 X89.854 Y124.99 E2.97123
G1 X140.146 Y124.99 E4.799
G1 X141.886 Y124.479 E4.8649
G1 X142.971 Y123.314 E4.92276
G1 X143.365 Y121.771 E4.98063
G1 X143.365 Y103.229 E5.6545
G1 X142.854 Y101.489 E5.7204
G1 X141.689 Y100.404 E5.77826
G1 X140.146 Y100.01 E5.83613
G1 X89.854 Y100.01 E7.6639
G1 X88.172 Y100.504 E7.72762
G92 E0
G1 E-1.4 F3600
;WIPE_START
G1 F7200
G1 X87.338 Y101.367 E-1.97
;WIPE_END
G1 E-2 F3600
; printing object nucleo_mount_tester.STL id:0 copy 0
M486 S0
; acceleration to travel
M204 S1500
G1 X127.124 Y117.045 F9000
; decel to extrusion
M204 S500
G1 X131.985 Y118.96
; end travel
G1 E0 F2400
;TYPE:Internal perimeter
;WIDTH:0.564
G1 F1200
G1 X131.729 Y119.269 E0.01739
G1 X131.183 Y118.807 E0.0484
G1 X130.687 Y118.626 E0.07129
G1 X130.159 Y118.626 E0.09414
G1 X129.702 Y118.793 E0.11523
G1 X129.419 Y118.991 E0.13018
G1 X129.189 Y119.269 E0.14582
G1 X128.643 Y118.807 E0.17683
G1 X128.147 Y118.626 E0.19972
G1 X127.66 Y118.626 E0.22082
G1 X127.329 Y118.715 E0.23567
G1 X126.905 Y118.96 E0.25687
G1 X126.649 Y119.269 E0.27426
G1 X126.103 Y118.807 E0.30527
G1 X125.607 Y118.626 E0.32817
G1 X125.12 Y118.626 E0.34927
G1 X124.789 Y118.715 E0.36411
G1 X124.365 Y118.96 E0.38532
G1 X124.11 Y119.269 E0.40266
G1 X123.562 Y118.807 E0.4337
G1 X123.067 Y118.626 E0.45656
G1 X122.539 Y118.626 E0.47941
G1 X122.082 Y118.793 E0.5005
G1 X121.799 Y118.991 E0.51546
G1 X121.569 Y119.269 E0.5311
G1 X121.023 Y118.807 E0.56211
G1 X120.527 Y118.626 E0.58501
G1 X120.04 Y118.626 E0.60611
G1 X119.709 Y118.715 E0.62095
G1 X119.285 Y118.96 E0.64216
G1 X119.03 Y119.269 E0.6595
G1 X118.482 Y118.807 E0.69054
G1 X117.987 Y118.626 E0.7134
G1 X117.459 Y118.626 E0.73625
G1 X117.002 Y118.793 E0.75734
G1 X116.719 Y118.991 E0.7723
G1 X116.489 Y119.269 E0.78794
G1 X115.943 Y118.807 E0.81895
G1 X115.447 Y118.626 E0.84185
G1 X114.919 Y118.626 E0.8647
G1 X114.462 Y118.793 E0.88578
G1 X114.179 Y118.991 E0.90075
G1 X113.949 Y119.269 E0.91638
G1 X113.403 Y118.807 E0.94739
G1 X112.907 Y118.626 E0.97029
G1 X112.379 Y118.626 E0.99314
G1 X111.922 Y118.793 E1.01423
G1 X111.639 Y118.991 E1.02919
G1 X111.409 Y119.269 E1.04483
G1 X110.863 Y118.807 E1.07583
G1 X110.367 Y118.626 E1.09873
G1 X109.839 Y118.626 E1.12158
G1 X109.382 Y118.793 E1.14267
G1 X109.099 Y118.991 E1.15763
G1 X108.87 Y119.269 E1.17326
G1 X108.323 Y118.807 E1.20428
G1 X107.827 Y118.626 E1.22717
G1 X107.299 Y118.626 E1.25002
G1 X106.842 Y118.793 E1.27111
G1 X106.559 Y118.991 E1.28607
G1 X106.33 Y119.269 E1.30169
G1 X105.783 Y118.807 E1.33271
G1 X105.287 Y118.626 E1.3556
G1 X104.8 Y118.626 E1.3767
G1 X104.469 Y118.715 E1.39155
G1 X104.045 Y118.96 E1.41275
G1 X103.789 Y119.269 E1.43014
G1 X103.243 Y118.807 E1.46115
G1 X102.747 Y118.626 E1.48405
G1 X102.26 Y118.626 E1.50515
G1 X101.929 Y118.715 E1.51999
G1 X101.505 Y118.96 E1.5412
G1 X101.25 Y119.269 E1.55854
G1 X100.702 Y118.807 E1.58958
G1 X100.207 Y118.626 E1.61244
G1 X99.72 Y118.626 E1.63354
G1 X99.389 Y118.715 E1.64839
G1 X98.965 Y118.96 E1.6696
G1 X98.709 Y119.269 E1.68698
G1 X98.163 Y118.807 E1.71799
G1 X97.667 Y118.626 E1.74089
G1 X97.139 Y118.626 E1.76374
G1 X96.643 Y118.807 E1.78664
G1 X96.238 Y119.15 E1.80962
G1 X95.998 Y119.575 E1.83079
G1 X95.909 Y119.919 E1.84617
G1 X95.931 Y120.426 E1.86817
G1 X96.13 Y120.872 E1.88929
G1 X90.757 Y120.868 E2.12208
G1 X90.757 Y104.132 E2.84725
G1 X96.069 Y104.129 E3.07742
G1 X95.89 Y104.841 E3.10923
G1 X95.979 Y105.391 E3.1334
G1 X96.237 Y105.851 E3.15623
G1 X96.643 Y106.193 E3.17925
G1 X97.139 Y106.374 E3.20212
G1 X97.667 Y106.374 E3.22497
G1 X98.163 Y106.193 E3.24786
G1 X98.673 Y105.762 E3.2768
G1 X99.183 Y106.193 E3.30573
G1 X99.679 Y106.374 E3.32863
G1 X100.207 Y106.374 E3.35148
G1 X100.664 Y106.207 E3.37257
G1 X100.947 Y106.009 E3.38753
G1 X101.176 Y105.731 E3.40316
G1 X101.723 Y106.193 E3.43417
G1 X102.219 Y106.374 E3.45707
G1 X102.747 Y106.374 E3.47992
G1 X103.204 Y106.207 E3.50101
G1 X103.487 Y106.009 E3.51597
G1 X103.753 Y105.686 E3.53409
G1 X104.019 Y106.009 E3.55222
G1 X104.302 Y106.207 E3.56718
G1 X104.759 Y106.374 E3.58827
G1 X105.287 Y106.374 E3.61112
G1 X105.744 Y106.207 E3.63221
G1 X106.027 Y106.009 E3.64717
G1 X106.256 Y105.731 E3.66276
G1 X106.803 Y106.193 E3.6938
G1 X107.299 Y106.374 E3.71666
G1 X107.827 Y106.374 E3.73951
G1 X108.284 Y106.207 E3.7606
G1 X108.567 Y106.009 E3.77556
G1 X108.796 Y105.731 E3.79115
G1 X109.343 Y106.193 E3.82219
G1 X109.839 Y106.374 E3.84505
G1 X110.367 Y106.374 E3.86791
G1 X110.824 Y106.207 E3.88899
G1 X111.107 Y106.009 E3.90396
G1 X111.336 Y105.731 E3.91954
G1 X111.883 Y106.193 E3.95058
G1 X112.379 Y106.374 E3.97345
G1 X112.907 Y106.374 E3.9963
G1 X113.403 Y106.193 E4.01919
G1 X113.912 Y105.762 E4.04808
G1 X114.423 Y106.193 E4.07706
G1 X114.919 Y106.374 E4.09992
G1 X115.447 Y106.374 E4.12277
G1 X115.904 Y106.207 E4.14386
G1 X116.187 Y106.009 E4.15882
G1 X116.416 Y105.731 E4.17441
G1 X116.963 Y106.193 E4.20545
G1 X117.459 Y106.374 E4.22831
G1 X117.987 Y106.374 E4.25116
G1 X118.444 Y106.207 E4.27225
G1 X118.727 Y106.009 E4.28721
G1 X118.956 Y105.731 E4.30285
G1 X119.503 Y106.193 E4.33386
G1 X119.999 Y106.374 E4.35676
G1 X120.527 Y106.374 E4.37961
G1 X120.984 Y106.207 E4.40069
G1 X121.267 Y106.009 E4.41566
G1 X121.496 Y105.731 E4.43124
G1 X122.043 Y106.193 E4.46228
G1 X122.539 Y106.374 E4.48515
G1 X123.067 Y106.374 E4.508
G1 X123.524 Y106.207 E4.52909
G1 X123.807 Y106.009 E4.54405
G1 X124.036 Y105.731 E4.55968
G1 X124.583 Y106.193 E4.59069
G1 X125.079 Y106.374 E4.61359
G1 X125.607 Y106.374 E4.63644
G1 X126.064 Y106.207 E4.65753
G1 X126.347 Y106.009 E4.67249
G1 X126.613 Y105.686 E4.69061
G1 X126.88 Y106.009 E4.70874
G1 X127.162 Y106.207 E4.72367
G1 X127.619 Y106.374 E4.74477
G1 X128.147 Y106.374 E4.76763
G1 X128.604 Y106.207 E4.78871
G1 X128.887 Y106.009 E4.80368
G1 X129.116 Y105.731 E4.81931
G1 X129.663 Y106.193 E4.85032
G1 X130.159 Y106.374 E4.87322
G1 X130.687 Y106.374 E4.89607
G1 X131.144 Y106.207 E4.91716
G1 X131.427 Y106.009 E4.93212
G1 X131.656 Y105.731 E4.94776
G1 X132.203 Y106.193 E4.97877
G1 X132.699 Y106.374 E5.00166
G1 X133.227 Y106.374 E5.02451
G1 X133.684 Y106.207 E5.0456
G1 X133.967 Y106.009 E5.06056
G1 X134.279 Y105.631 E5.08181
G1 X134.458 Y105.121 E5.10521
G1 X134.434 Y104.574 E5.12895
G1 X134.232 Y104.119 E5.15054
G1 X134.658 Y104.13 E5.16901
G1 X139.243 Y104.132 E5.36767
G1 X139.243 Y120.868 E6.09282
G1 X134.658 Y120.87 E6.29146
G1 X134.294 Y120.879 E6.30724
G1 X134.467 Y120.195 E6.33782
G1 X134.44 Y119.831 E6.35361
G1 X134.28 Y119.37 E6.37479
G1 X133.94 Y118.96 E6.39782
G1 X133.517 Y118.715 E6.41901
G1 X133.186 Y118.626 E6.43387
G1 X132.74 Y118.626 E6.45322
G1 X132.409 Y118.715 E6.46806
G1 X132.037 Y118.93 E6.48667
G92 E0
G1 E-1.4 F3600
;WIPE_START
G1 F7200
G1 X131.729 Y119.269 E-1.61755
G1 X131.183 Y118.807 E-1.9575
G1 X131.158 Y118.798 E-1.97
;WIPE_END
G1 E-2 F3600
; acceleration to travel
M204 S1500
G1 X117.786 Y119.846 F9000
; decel to extrusion
M204 S500
G1 X116.152 Y119.974
; end travel
G1 E0 F2400
;TYPE:External perimeter
G1 F1200
G1 X116.101 Y119.772 E0.00903
G1 X115.94 Y119.487 E0.02319
G1 X115.677 Y119.265 E0.03811
G1 X115.355 Y119.147 E0.053
G1 X115.011 Y119.147 E0.06787
G1 X114.705 Y119.259 E0.082
G1 X114.536 Y119.377 E0.09093
G1 X114.328 Y119.63 E0.10511
G1 X114.213 Y119.957 E0.12014
G1 X114.228 Y120.305 E0.13523
G1 X114.367 Y120.617 E0.15004
G1 X114.615 Y120.865 E0.16523
G1 X114.91 Y120.959 E0.17869
G1 X115.186 Y121.007 E0.19079
G1 X115.594 Y120.928 E0.20882
G1 X115.89 Y120.758 E0.22362
G1 X116.073 Y120.48 E0.23801
G1 X116.139 Y120.288 E0.24678
G1 X116.149 Y120.034 E0.25782
;WIPE_START
G1 X116.464 Y119.724 F9000
;WIPE_END
G92 E0
G1 E-1.4 F3600
;WIPE_START
G1 F7200
G1 X116.097 Y119.358 E-1.64647
G1 X115.779 Y119.089 E-1.84395
G1 X115.53 Y118.998 E-1.97
;WIPE_END
G1 E-2 F3600
G1 X113.613 Y119.957 F9000
G1 E0 F2400
G1 F1200
G1 X113.504 Y119.645 E0.01431
G1 X113.387 Y119.476 E0.02321
G1 X113.137 Y119.265 E0.03738
G1 X112.815 Y119.147 E0.05227
G1 X112.471 Y119.147 E0.06714
G1 X112.165 Y119.259 E0.08127
G1 X111.996 Y119.377 E0.0902
G1 X111.788 Y119.63 E0.10437
G1 X111.673 Y119.957 E0.1194
G1 X111.688 Y120.305 E0.1345
G1 X111.827 Y120.617 E0.14931
G1 X112.075 Y120.865 E0.1645
G1 X112.37 Y120.959 E0.17795
G1 X112.646 Y121.007 E0.19006
G1 X113.035 Y120.932 E0.20723
G1 X113.22 Y120.856 E0.21589
G1 X113.462 Y120.619 E0.23056
G1 X113.598 Y120.303 E0.24546
G1 X113.611 Y120.017 E0.25789
;WIPE_START
G1 X113.91 Y119.688 F9000
;WIPE_END
G92 E0
G1 E-1.4 F3600
;WIPE_START
G1 F7200
G1 X113.683 Y119.554 E-1.5253
G1 X113.537 Y119.341 E-1.64824
G1 X113.239 Y119.089 E-1.83314
G1 X112.969 Y118.99 E-1.97
;WIPE_END
G1 E-2 F3600
G1 X111.072 Y119.974 F9000
G1 E0 F2400
G1 F1200
G1 X111.021 Y119.772 E0.00903
G1 X110.86 Y119.487 E0.0232
G1 X110.597 Y119.265 E0.03811
G1 X110.275 Y119.147 E0.053
G1 X109.931 Y119.147 E0.06787
G1 X109.625 Y119.259 E0.082
G1 X109.456 Y119.377 E0.09093
G1 X109.248 Y119.63 E0.10511
G1 X109.133 Y119.957 E0.12014
G1 X109.148 Y120.305 E0.13523
G1 X109.287 Y120.617 E0.15004
G1 X109.535 Y120.865 E0.16523
G1 X109.83 Y120.959 E0.17869
G1 X110.106 Y121.007 E0.19079
G1 X110.514 Y120.928 E0.20882
G1 X110.81 Y120.758 E0.22362
G1 X110.993 Y120.48 E0.23801
G1 X111.059 Y120.288 E0.24678
G1 X111.069 Y120.034 E0.25782
;WIPE_START
G1 X111.384 Y119.724 F9000
;WIPE_END
G92 E0
G1 E-1.4 F3600
;WIPE_START
G1 F7200
G1 X111.017 Y119.358 E-1.64648
G1 X110.699 Y119.089 E-1.84396
G1 X110.45 Y118.998 E-1.97
;WIPE_END
G1 E-2 F3600
G1 X108.533 Y119.974 F9000
G1 E0 F2400
G1 F1200
G1 X108.481 Y119.771 E0.00907
G1 X108.32 Y119.487 E0.02321
G1 X108.057 Y119.265 E0.03812
G1 X107.735 Y119.147 E0.053
G1 X107.391 Y119.147 E0.06787
G1 X107.085 Y119.259 E0.082
G1 X106.916 Y119.377 E0.09094
G1 X106.708 Y119.63 E0.10511
G1 X106.593 Y119.957 E0.12014
G1 X106.608 Y120.305 E0.13523
G1 X106.747 Y120.617 E0.15004
G1 X106.995 Y120.865 E0.16523
G1 X107.29 Y120.959 E0.17869
G1 X107.566 Y121.007 E0.1908
G1 X107.974 Y120.928 E0.20881
G1 X108.256 Y120.767 E0.22287
G1 X108.39 Y120.6 E0.23214
G1 X108.518 Y120.304 E0.24614
G1 X108.53 Y120.034 E0.25785
;WIPE_START
G1 X108.845 Y119.723 F9000
;WIPE_END
G92 E0
G1 E-1.4 F3600
;WIPE_START
G1 F7200
G1 X108.477 Y119.357 E-1.64654
G1 X108.159 Y119.089 E-1.8439
G1 X107.91 Y118.998 E-1.97
;WIPE_END
G1 E-2 F3600
G1 X105.993 Y119.974 F9000
G1 E0 F2400
G1 F1200
G1 X105.941 Y119.771 E0.00907
G1 X105.78 Y119.487 E0.02321
G1 X105.517 Y119.265 E0.03812
G1 X105.195 Y119.147 E0.053
G1 X104.868 Y119.147 E0.06713
G1 X104.67 Y119.2 E0.07603
G1 X104.387 Y119.364 E0.0902
G1 X104.168 Y119.63 E0.10511
G1 X104.053 Y119.957 E0.12014
G1 X104.068 Y120.305 E0.13523
G1 X104.207 Y120.617 E0.15004
G1 X104.455 Y120.865 E0.16524
G1 X104.75 Y120.959 E0.17869
G1 X105.026 Y121.007 E0.1908
G1 X105.434 Y120.928 E0.20881
G1 X105.716 Y120.767 E0.22287
G1 X105.85 Y120.6 E0.23214
G1 X105.978 Y120.304 E0.24614
G1 X105.99 Y120.034 E0.25785
;WIPE_START
G1 X106.305 Y119.723 F9000
;WIPE_END
G92 E0
G1 E-1.4 F3600
;WIPE_START
G1 F7200
G1 X105.937 Y119.357 E-1.64654
G1 X105.619 Y119.089 E-1.84391
G1 X105.37 Y118.998 E-1.97
;WIPE_END
G1 E-2 F3600
G1 X103.452 Y119.974 F9000
G1 E0 F2400
G1 F1200
G1 X103.401 Y119.772 E0.00903
G1 X103.24 Y119.487 E0.0232
G1 X102.977 Y119.265 E0.03811
G1 X102.655 Y119.147 E0.053
G1 X102.328 Y119.147 E0.06713
G1 X102.13 Y119.2 E0.07602
G1 X101.847 Y119.364 E0.09019
G1 X101.628 Y119.629 E0.10511
G1 X101.513 Y119.957 E0.12014
G1 X101.528 Y120.305 E0.13523
G1 X101.667 Y120.617 E0.15004
G1 X101.915 Y120.865 E0.16523
G1 X102.21 Y120.959 E0.17869
G1 X102.486 Y121.007 E0.1908
G1 X102.894 Y120.928 E0.20882
G1 X103.19 Y120.758 E0.22362
G1 X103.373 Y120.48 E0.23801
G1 X103.439 Y120.288 E0.24678
G1 X103.449 Y120.034 E0.25782
;WIPE_START
G1 X103.764 Y119.724 F9000
;WIPE_END
G92 E0
G1 E-1.4 F3600
;WIPE_START
G1 F7200
G1 X103.397 Y119.358 E-1.64648
G1 X103.079 Y119.089 E-1.84395
G1 X102.83 Y118.998 E-1.97
;WIPE_END
G1 E-2 F3600
; acceleration to travel
M204 S1500
G1 X101.132 Y120.013 F9000
; decel to extrusion
M204 S500
G1 X100.924 Y120.136
; end travel
G1 E0 F2400
G1 F1200
G1 X100.867 Y119.783 E0.0155
G1 X100.701 Y119.487 E0.03023
G1 X100.437 Y119.265 E0.04516
G1 X100.115 Y119.147 E0.06004
G1 X99.788 Y119.147 E0.07417
G1 X99.59 Y119.2 E0.08306
G1 X99.307 Y119.364 E0.09723
G1 X99.088 Y119.63 E0.11214
G1 X98.973 Y119.957 E0.12718
G1 X98.988 Y120.305 E0.14227
G1 X99.127 Y120.617 E0.15708
G1 X99.375 Y120.865 E0.17227
G1 X99.67 Y120.959 E0.18573
G1 X99.946 Y121.007 E0.19783
G1 X100.354 Y120.928 E0.21585
G1 X100.651 Y120.758 E0.23067
G1 X100.841 Y120.466 E0.24577
G1 X100.909 Y120.195 E0.25789
;WIPE_START
G1 X101.265 Y119.928 F9000
;WIPE_END
G92 E0
G1 E-1.4 F3600
;WIPE_START
G1 F7200
G1 X101.059 Y119.716 E-1.54052
G1 X100.857 Y119.357 E-1.73605
G1 X100.539 Y119.089 E-1.9338
G1 X100.467 Y119.063 E-1.97
;WIPE_END
G1 E-2 F3600
; acceleration to travel
M204 S1500
G1 X98.601 Y119.86 F9000
; decel to extrusion
M204 S500
G1 X98.373 Y119.957
; end travel
G1 E0 F2400
G1 F1200
G1 X98.264 Y119.646 E0.01429
G1 X98.147 Y119.476 E0.02321
G1 X97.897 Y119.265 E0.03738
G1 X97.575 Y119.147 E0.05226
G1 X97.231 Y119.147 E0.06714
G1 X96.908 Y119.265 E0.08203
G1 X96.646 Y119.487 E0.09694
G1 X96.485 Y119.771 E0.11108
G1 X96.433 Y119.974 E0.12013
G1 X96.448 Y120.305 E0.13449
G1 X96.587 Y120.617 E0.1493
G1 X96.835 Y120.865 E0.16449
G1 X97.13 Y120.959 E0.17794
G1 X97.391 Y121.004 E0.18941
G1 X97.56 Y120.989 E0.19676
G1 X97.969 Y120.867 E0.21526
G1 X98.219 Y120.617 E0.23057
G1 X98.358 Y120.305 E0.24538
G1 X98.37 Y120.017 E0.25787
;WIPE_START
G1 X98.67 Y119.689 F9000
;WIPE_END
G92 E0
G1 E-1.4 F3600
;WIPE_START
G1 F7200
G1 X98.444 Y119.554 E-1.52507
G1 X98.297 Y119.341 E-1.6482
G1 X97.999 Y119.089 E-1.83309
G1 X97.729 Y118.99 E-1.97
;WIPE_END
G1 E-2 F3600
; acceleration to travel
M204 S1500
G1 X97.591 Y107.283 F9000
; decel to extrusion
M204 S500
G1 X97.575 Y105.853
; end travel
G1 E0 F2400
G1 F1200
G1 X97.897 Y105.735 E0.01489
G1 X98.147 Y105.524 E0.02905
G1 X98.264 Y105.355 E0.03796
G1 X98.373 Y105.043 E0.05227
G1 X98.358 Y104.697 E0.06731
G1 X98.23 Y104.4 E0.08131
G1 X98.096 Y104.233 E0.09059
G1 X97.82 Y104.076 E0.10433
G1 X97.541 Y104.007 E0.11678
G1 X97.265 Y104.007 E0.12877
G1 X96.985 Y104.076 E0.14122
G1 X96.695 Y104.242 E0.15573
G1 X96.505 Y104.534 E0.17083
G1 X96.422 Y104.864 E0.18555
G1 X96.479 Y105.217 E0.20105
G1 X96.645 Y105.513 E0.21578
