; generated by SuperSlicer 2.4 on 2024-05-04 at 03:33:45 UTC

; 

; external perimeters extrusion width = 0.42mm
; perimeters extrusion width = 0.46mm
; infill extrusion width = 0.44mm
; solid infill extrusion width = 0.46mm
; top infill extrusion width = 0.44mm
; first layer extrusion width = 0.56mm

; object:{"name":"nucleo_mount_tester","id":"nucleo_mount_tester.STL id:0 copy 0","object_center":[115.000000,112.500000,0.000000],"boundingbox_center":[115.000000,112.500000,2.000000],"boundingbox_size":[50.292000,18.542000,4.000000]}
; Total objects to print: 1
M486 T1
; plater:{"center":[115.000000,112.500000,0.000000],"boundingbox_center":[115.000000,112.500000,2.000000],"boundingbox_size":[50.292000,18.542000,4.000000]}

;TYPE:Custom
G90 ; use absolute coordinates
M83 ; extruder relative mode
M140 S60 ; set final bed temp
M104 S150 ; set temporary nozzle temp to prevent oozing during homing and auto bed leveling
G4 S10 ; allow partial nozzle warmup
G28 ; home all axis
G1 Z50 F240
G1 X2 Y10 F3000
M104 S215 ; set final nozzle temp
M190 S60 ; wait for bed temp to stabilize
M109 S215 ; wait for nozzle temp to stabilize
G1 Z0.28 F240
G92 E0
G1 Y140 E10 F1500 ; prime the nozzle
G1 X2.3 F5000
G92 E0
G1 Y10 E10 F1200 ; prime the nozzle
G92 E0
M107
G21 ; set units to millimeters
G90 ; use absolute coordinates
M82 ; use absolute distances for extrusion
G92 E0
; Filament gcode
;_TOOLCHANGE 0
M107
;LAYER_CHANGE
;Z:0.2
;HEIGHT:0.2
;BEFORE_LAYER_CHANGE
;0.2


G1 Z0.2 F9000
;AFTER_LAYER_CHANGE
;0.2
M204 S500
G1 X88.114 Y100.521
;TYPE:Skirt
;WIDTH:0.48
G1 F1200
G1 X87.029 Y101.686 E0.05786
G1 X86.635 Y103.229 E0.11573
G1 X86.635 Y121.771 E0.7896
G1 X87.146 Y123.511 E0.8555
G1 X88.311 Y124.596 E0.91336
G1 X89.854 Y124.99 E0.97123
G1 X140.146 Y124.99 E2.799
G1 X141.886 Y124.479 E2.8649
G1 X142.971 Y123.314 E2.92276
G1 X143.365 Y121.771 E2.98063
G1 X143.365 Y103.229 E3.6545
G1 X142.854 Y101.489 E3.7204
G1 X141.689 Y100.404 E3.77826
G1 X140.146 Y100.01 E3.83613
G1 X89.854 Y100.01 E5.6639
G1 X88.172 Y100.504 E5.72762
G92 E0
; printing object nucleo_mount_tester.STL id:0 copy 0
M486 S0
; acceleration to travel
M204 S1500
G1 X96.065 Y104.504 F9000
; decel to extrusion
M204 S500
G1 X98.696 Y105.838
; end travel
;TYPE:Internal perimeter
;WIDTH:0.564
G1 F1200
G1 X98.892 Y106.087 E0.01374
G1 X99.338 Y106.37 E0.03665
G1 X99.701 Y106.469 E0.05294
G1 X100.23 Y106.469 E0.07585
G1 X100.735 Y106.276 E0.09927
G1 X101.022 Y106.052 E0.11507
G1 X101.192 Y105.834 E0.12701
G1 X101.655 Y106.262 E0.1543
G1 X102.196 Y106.469 E0.17941
G1 X102.77 Y106.469 E0.20429
G1 X103.311 Y106.262 E0.2294
G1 X103.752 Y105.855 E0.25539
G1 X104.197 Y106.259 E0.28145
G1 X104.732 Y106.469 E0.30635
G1 X105.313 Y106.469 E0.33151
G1 X105.847 Y106.259 E0.35637
G1 X106.297 Y105.855 E0.38256
G1 X106.733 Y106.263 E0.40844
G1 X107.277 Y106.469 E0.43366
G1 X107.85 Y106.469 E0.45848
G1 X108.355 Y106.276 E0.48189
G1 X108.642 Y106.052 E0.49769
G1 X108.811 Y105.836 E0.50955
G1 X109.277 Y106.258 E0.5368
G1 X109.813 Y106.469 E0.56175
G1 X110.39 Y106.468 E0.58675
G1 X110.894 Y106.276 E0.61014
G1 X111.182 Y106.052 E0.62596
G1 X111.351 Y105.836 E0.63782
G1 X111.817 Y106.258 E0.66508
G1 X112.353 Y106.469 E0.69002
G1 X112.93 Y106.468 E0.71502
G1 X113.434 Y106.276 E0.73841
G1 X113.722 Y106.052 E0.75424
G1 X113.891 Y105.836 E0.7661
G1 X114.357 Y106.258 E0.79335
G1 X114.893 Y106.469 E0.8183
G1 X115.47 Y106.468 E0.8433
G1 X115.974 Y106.276 E0.86669
G1 X116.262 Y106.052 E0.88251
G1 X116.431 Y105.836 E0.89437
G1 X116.897 Y106.258 E0.92163
G1 X117.433 Y106.469 E0.94657
G1 X118.01 Y106.468 E0.97157
G1 X118.514 Y106.276 E0.99496
G1 X118.802 Y106.052 E1.01079
G1 X118.971 Y105.836 E1.02265
G1 X119.437 Y106.258 E1.0499
G1 X119.973 Y106.469 E1.07485
G1 X120.55 Y106.468 E1.09986
G1 X121.055 Y106.276 E1.12328
G1 X121.343 Y106.05 E1.13911
G1 X121.511 Y105.835 E1.15096
G1 X121.977 Y106.259 E1.17823
G1 X122.512 Y106.468 E1.20317
G1 X123.093 Y106.469 E1.22832
G1 X123.627 Y106.259 E1.25318
G1 X124.075 Y105.856 E1.27931
G1 X124.515 Y106.259 E1.30516
G1 X125.054 Y106.469 E1.33019
G1 X125.586 Y106.468 E1.35326
G1 X125.947 Y106.369 E1.36947
G1 X126.395 Y106.087 E1.39242
G1 X126.591 Y105.836 E1.40621
G1 X127.057 Y106.258 E1.43347
G1 X127.593 Y106.469 E1.45842
G1 X128.126 Y106.468 E1.48152
G1 X128.487 Y106.369 E1.49772
G1 X128.935 Y106.087 E1.52068
G1 X129.131 Y105.836 E1.53447
G1 X129.597 Y106.258 E1.56174
G1 X130.133 Y106.469 E1.58668
G1 X130.666 Y106.468 E1.60979
G1 X131.027 Y106.369 E1.62599
G1 X131.475 Y106.087 E1.64895
G1 X131.671 Y105.836 E1.66274
G1 X132.136 Y106.258 E1.68996
G1 X132.669 Y106.469 E1.71478
G1 X133.199 Y106.472 E1.73776
G1 X133.549 Y106.38 E1.75344
G1 X134.004 Y106.117 E1.77621
G1 X134.365 Y105.682 E1.80069
G1 X134.559 Y105.134 E1.82588
G1 X134.526 Y104.562 E1.85072
G1 X134.345 Y104.127 E1.87114
G1 X139.243 Y104.131 E2.08337
G1 X139.243 Y120.869 E2.80856
G1 X134.345 Y120.873 E3.02078
G1 X134.526 Y120.438 E3.04121
G1 X134.559 Y119.866 E3.06605
G1 X134.365 Y119.318 E3.09123
G1 X134.004 Y118.883 E3.11571
G1 X133.549 Y118.62 E3.13849
G1 X133.199 Y118.528 E3.15416
G1 X132.669 Y118.531 E3.17714
G1 X132.136 Y118.742 E3.20197
G1 X131.692 Y119.145 E3.22796
G1 X131.251 Y118.738 E3.25395
G1 X130.71 Y118.531 E3.27907
G1 X130.179 Y118.531 E3.30205
G1 X129.819 Y118.631 E3.31827
G1 X129.371 Y118.913 E3.3412
G1 X129.153 Y119.193 E3.35655
G1 X128.935 Y118.913 E3.3719
G1 X128.452 Y118.609 E3.39663
G1 X127.924 Y118.513 E3.41988
G1 X127.601 Y118.542 E3.43394
G1 X127.278 Y118.631 E3.44843
G1 X126.831 Y118.913 E3.47135
G1 X126.635 Y119.164 E3.48514
G1 X126.169 Y118.742 E3.5124
G1 X125.633 Y118.531 E3.53734
G1 X125.1 Y118.532 E3.56045
G1 X124.739 Y118.631 E3.57665
G1 X124.291 Y118.913 E3.59961
G1 X124.073 Y119.193 E3.61496
G1 X123.855 Y118.913 E3.63031
G1 X123.407 Y118.631 E3.65324
G1 X123.046 Y118.531 E3.66948
G1 X122.56 Y118.531 E3.69055
G1 X122.199 Y118.631 E3.70678
G1 X121.751 Y118.913 E3.72972
G1 X121.554 Y119.166 E3.74359
G1 X121.091 Y118.738 E3.77088
G1 X120.55 Y118.531 E3.79601
G1 X120.019 Y118.531 E3.81899
G1 X119.659 Y118.631 E3.83521
G1 X119.211 Y118.913 E3.85814
G1 X119.014 Y119.166 E3.87201
G1 X118.551 Y118.738 E3.8993
G1 X118.01 Y118.531 E3.92443
G1 X117.479 Y118.531 E3.94741
G1 X117.119 Y118.631 E3.96362
G1 X116.671 Y118.913 E3.98656
G1 X116.474 Y119.166 E4.00043
G1 X116.011 Y118.738 E4.02772
G1 X115.47 Y118.531 E4.05285
G1 X114.939 Y118.531 E4.07583
G1 X114.579 Y118.631 E4.09204
G1 X114.131 Y118.913 E4.11498
G1 X113.934 Y119.166 E4.12885
G1 X113.471 Y118.738 E4.15614
G1 X112.93 Y118.531 E4.18127
G1 X112.399 Y118.531 E4.20425
G1 X112.039 Y118.631 E4.22046
G1 X111.591 Y118.913 E4.24339
G1 X111.395 Y119.164 E4.25718
G1 X110.929 Y118.742 E4.28444
G1 X110.393 Y118.531 E4.30939
G1 X109.86 Y118.532 E4.33249
G1 X109.499 Y118.631 E4.34869
G1 X109.051 Y118.913 E4.37165
G1 X108.854 Y119.166 E4.38553
G1 X108.391 Y118.738 E4.41283
G1 X107.85 Y118.531 E4.43795
G1 X107.319 Y118.531 E4.46093
G1 X106.959 Y118.631 E4.47715
G1 X106.511 Y118.913 E4.50008
G1 X106.315 Y119.164 E4.51387
G1 X105.849 Y118.741 E4.54115
G1 X105.313 Y118.531 E4.56606
G1 X104.733 Y118.531 E4.59121
G1 X104.199 Y118.741 E4.61607
G1 X103.751 Y119.144 E4.64219
G1 X103.31 Y118.741 E4.66805
G1 X102.772 Y118.531 E4.69308
G1 X102.24 Y118.532 E4.71615
G1 X101.879 Y118.631 E4.73235
G1 X101.431 Y118.913 E4.75531
G1 X101.235 Y119.164 E4.7691
G1 X100.769 Y118.742 E4.79636
G1 X100.233 Y118.531 E4.82131
G1 X99.7 Y118.532 E4.84442
G1 X99.339 Y118.631 E4.86064
G1 X98.891 Y118.914 E4.88361
G1 X98.673 Y119.194 E4.89896
G1 X98.456 Y118.914 E4.91427
G1 X98.009 Y118.632 E4.9372
G1 X97.651 Y118.531 E4.95332
G1 X97.167 Y118.528 E4.97429
G1 X96.816 Y118.62 E4.99001
G1 X96.362 Y118.883 E5.01274
G1 X96 Y119.319 E5.0373
G1 X95.81 Y119.863 E5.06226
G1 X95.834 Y120.402 E5.08562
G1 X95.994 Y120.875 E5.10727
G1 X90.757 Y120.869 E5.33419
G1 X90.757 Y104.131 E6.05939
G1 X96.021 Y104.126 E6.28749
G1 X95.84 Y104.562 E6.30794
G1 X95.809 Y105.094 E6.33105
G1 X95.904 Y105.46 E6.34745
G1 X96.161 Y105.916 E6.37011
G1 X96.595 Y106.281 E6.39467
G1 X97.126 Y106.472 E6.41912
G1 X97.697 Y106.469 E6.44387
G1 X98.228 Y106.258 E6.46864
G1 X98.651 Y105.878 E6.49327
G92 E0
; acceleration to travel
M204 S1500
G1 X110.527 Y115.949 F9000
; decel to extrusion
M204 S500
G1 X114.486 Y119.306
; end travel
;TYPE:External perimeter
G1 F1200
G1 X114.248 Y119.61 E0.01671
G1 X114.173 Y119.962 E0.03232
G1 X114.173 Y120.282 E0.0462
G1 X114.226 Y120.486 E0.05532
G1 X114.415 Y120.794 E0.07097
G1 X114.707 Y120.981 E0.08599
G1 X115.012 Y121.091 E0.10003
G1 X115.342 Y121.091 E0.11432
G1 X115.523 Y121.043 E0.12245
G1 X115.805 Y120.902 E0.13614
G1 X116.074 Y120.65 E0.15209
G1 X116.192 Y120.294 E0.16833
G1 X116.192 Y119.962 E0.1827
G1 X116.121 Y119.624 E0.19767
G1 X115.994 Y119.432 E0.20765
G1 X115.731 Y119.189 E0.22318
G1 X115.374 Y119.052 E0.23977
G1 X115.01 Y119.052 E0.25551
G1 X114.792 Y119.113 E0.26535
G1 X114.536 Y119.274 E0.27841
;WIPE_START
G1 X114.099 Y119.205 F9000
;WIPE_END
G1 X113.581 Y119.624
G1 F1200
G1 X113.454 Y119.432 E0.28839
G1 X113.191 Y119.189 E0.30393
G1 X112.834 Y119.052 E0.32052
G1 X112.47 Y119.052 E0.33626
G1 X112.252 Y119.113 E0.34609
G1 X111.946 Y119.306 E0.36176
G1 X111.708 Y119.61 E0.37847
G1 X111.633 Y119.962 E0.39408
G1 X111.633 Y120.282 E0.40796
G1 X111.686 Y120.486 E0.41707
G1 X111.875 Y120.794 E0.43273
G1 X112.167 Y120.981 E0.44775
G1 X112.472 Y121.091 E0.46178
G1 X112.802 Y121.091 E0.47608
G1 X112.983 Y121.043 E0.48421
G1 X113.265 Y120.902 E0.4979
G1 X113.534 Y120.65 E0.51385
G1 X113.652 Y120.294 E0.53009
G1 X113.652 Y119.962 E0.54446
G1 X113.594 Y119.683 E0.55682
;WIPE_START
G1 X113.804 Y119.292 F9000
;WIPE_END
G92 E0
; acceleration to travel
M204 S1500
G1 X111.771 Y119.665
; decel to extrusion
M204 S500
G1 X111.093 Y119.79
; end travel
G1 F1200
G1 X110.932 Y119.447 E0.0164
G1 X110.649 Y119.192 E0.0329
G1 X110.295 Y119.052 E0.04942
G1 X109.93 Y119.053 E0.0652
G1 X109.712 Y119.113 E0.07503
G1 X109.406 Y119.306 E0.0907
G1 X109.168 Y119.61 E0.10742
G1 X109.093 Y119.962 E0.12303
G1 X109.093 Y120.282 E0.1369
G1 X109.146 Y120.486 E0.14602
G1 X109.335 Y120.794 E0.16167
G1 X109.627 Y120.981 E0.1767
G1 X109.932 Y121.091 E0.19073
G1 X110.262 Y121.091 E0.20503
G1 X110.443 Y121.043 E0.21316
G1 X110.725 Y120.902 E0.22685
G1 X110.994 Y120.65 E0.24279
G1 X111.114 Y120.288 E0.25931
G1 X111.095 Y119.85 E0.27832
;WIPE_START
G1 X111.363 Y119.494 F9000
;WIPE_END
G92 E0
; acceleration to travel
M204 S1500
G1 X109.27 Y119.845
; decel to extrusion
M204 S500
G1 X108.572 Y119.962
; end travel
G1 F1200
G1 X108.501 Y119.624 E0.01497
G1 X108.374 Y119.432 E0.02495
G1 X108.111 Y119.189 E0.04048
G1 X107.754 Y119.052 E0.05708
G1 X107.39 Y119.052 E0.07282
G1 X107.172 Y119.113 E0.08265
G1 X106.866 Y119.306 E0.09831
G1 X106.628 Y119.61 E0.11502
G1 X106.553 Y119.962 E0.13064
G1 X106.553 Y120.282 E0.14451
G1 X106.606 Y120.486 E0.15363
G1 X106.795 Y120.794 E0.16928
G1 X107.087 Y120.981 E0.1843
G1 X107.392 Y121.091 E0.19834
G1 X107.722 Y121.091 E0.21264
G1 X107.903 Y121.043 E0.22077
G1 X108.185 Y120.902 E0.23445
G1 X108.454 Y120.65 E0.2504
G1 X108.572 Y120.294 E0.26665
G1 X108.572 Y120.022 E0.27841
;WIPE_START
G1 X108.888 Y119.717 F9000
;WIPE_END
G92 E0
; acceleration to travel
M204 S1500
G1 X106.732 Y119.772
; decel to extrusion
M204 S500
G1 X106.013 Y119.79
; end travel
G1 F1200
G1 X105.852 Y119.447 E0.0164
G1 X105.569 Y119.191 E0.03291
G1 X105.215 Y119.052 E0.04941
G1 X104.831 Y119.052 E0.06604
G1 X104.477 Y119.191 E0.08252
G1 X104.193 Y119.447 E0.09906
G1 X104.031 Y119.793 E0.11563
G1 X104.013 Y120.277 E0.13662
G1 X104.064 Y120.486 E0.14596
G1 X104.256 Y120.794 E0.16166
G1 X104.547 Y120.98 E0.17663
G1 X104.852 Y121.091 E0.19068
G1 X105.182 Y121.091 E0.20498
G1 X105.363 Y121.043 E0.21311
G1 X105.645 Y120.902 E0.22679
G1 X105.914 Y120.65 E0.24274
G1 X106.034 Y120.288 E0.25926
G1 X106.015 Y119.85 E0.27826
;WIPE_START
G1 X106.282 Y119.494 F9000
;WIPE_END
G92 E0
; acceleration to travel
M204 S1500
G1 X104.178 Y119.715
; decel to extrusion
M204 S500
G1 X103.477 Y119.788
; end travel
G1 F1200
G1 X103.31 Y119.447 E0.01646
G1 X103.03 Y119.191 E0.03288
G1 X102.674 Y119.052 E0.04943
G1 X102.31 Y119.053 E0.0652
G1 X102.092 Y119.113 E0.07503
G1 X101.786 Y119.306 E0.0907
G1 X101.548 Y119.61 E0.10742
G1 X101.473 Y119.962 E0.12303
G1 X101.473 Y120.295 E0.13745
G1 X101.588 Y120.631 E0.15281
G1 X101.734 Y120.806 E0.16271
G1 X102.007 Y120.981 E0.17677
G1 X102.312 Y121.091 E0.19079
G1 X102.642 Y121.091 E0.20509
G1 X102.823 Y121.043 E0.21322
G1 X103.106 Y120.901 E0.22693
G1 X103.374 Y120.648 E0.2429
G1 X103.491 Y120.289 E0.25929
G1 X103.479 Y119.848 E0.2784
;WIPE_START
G1 X103.745 Y119.491 F9000
;WIPE_END
G92 E0
; acceleration to travel
M204 S1500
G1 X101.636 Y119.715
; decel to extrusion
M204 S500
G1 X100.933 Y119.79
; end travel
G1 F1200
G1 X100.772 Y119.447 E0.0164
G1 X100.489 Y119.192 E0.0329
G1 X100.135 Y119.052 E0.04942
G1 X99.77 Y119.053 E0.06521
G1 X99.552 Y119.113 E0.07504
G1 X99.246 Y119.306 E0.09071
G1 X99.008 Y119.611 E0.10744
G1 X98.936 Y119.963 E0.12304
G1 X98.936 Y120.292 E0.13727
G1 X99.05 Y120.65 E0.15355
G1 X99.321 Y120.902 E0.16959
G1 X99.614 Y121.048 E0.18379
G1 X99.931 Y121.104 E0.19771
G1 X100.114 Y121.088 E0.20568
G1 X100.283 Y121.043 E0.21327
G1 X100.565 Y120.902 E0.22696
G1 X100.834 Y120.65 E0.2429
G1 X100.954 Y120.288 E0.25942
G1 X100.935 Y119.85 E0.27843
;WIPE_START
G1 X101.203 Y119.494 F9000
;WIPE_END
G92 E0
; acceleration to travel
M204 S1500
G1 X99.108 Y119.839
; decel to extrusion
M204 S500
G1 X98.41 Y119.954
; end travel
G1 F1200
G1 X98.336 Y119.61 E0.01521
G1 X98.101 Y119.306 E0.0319
G1 X97.795 Y119.113 E0.04756
G1 X97.577 Y119.052 E0.05736
G1 X97.233 Y119.049 E0.07229
G1 X97.017 Y119.106 E0.08198
G1 X96.703 Y119.287 E0.09765
G1 X96.461 Y119.579 E0.11409
G1 X96.335 Y119.94 E0.13064
G1 X96.351 Y120.305 E0.14646
G1 X96.423 Y120.516 E0.15613
G1 X96.634 Y120.818 E0.17211
G1 X96.936 Y120.984 E0.18703
G1 X97.232 Y121.091 E0.20065
G1 X97.574 Y121.091 E0.21549
G1 X97.879 Y120.981 E0.22952
G1 X98.171 Y120.794 E0.24455
G1 X98.369 Y120.472 E0.26094
G1 X98.419 Y120.136 E0.27565
G1 X98.413 Y120.014 E0.28095
;WIPE_START
G1 X98.721 Y119.702 F9000
;WIPE_END
G92 E0
; acceleration to travel
M204 S1500
G1 X97.877 Y109.387
; decel to extrusion
M204 S500
G1 X97.596 Y105.948
; end travel
G1 F1200
G1 X97.949 Y105.809 E0.01646
G1 X98.233 Y105.553 E0.03298
G1 X98.394 Y105.207 E0.04955
G1 X98.414 Y104.709 E0.07112
G1 X98.293 Y104.351 E0.08751
G1 X98.026 Y104.099 E0.10344
G1 X97.732 Y103.952 E0.11768
G1 X97.415 Y103.896 E0.1316
G1 X97.232 Y103.912 E0.13956
G1 X97.063 Y103.957 E0.14715
G1 X96.791 Y104.093 E0.16033
G1 X96.505 Y104.32 E0.17615
G1 X96.355 Y104.68 E0.19305
G1 X96.334 Y105.042 E0.20877
G1 X96.391 Y105.263 E0.21867
G1 X96.569 Y105.578 E0.23431
G1 X96.859 Y105.822 E0.25075
G1 X97.215 Y105.951 E0.26716
G1 X97.536 Y105.949 E0.28106
;WIPE_START
G1 X97.877 Y106.234 F9000
;WIPE_END
G1 X99.006 Y105.39
G1 F1200
G1 X99.246 Y105.694 E0.29784
G1 X99.551 Y105.888 E0.3135
G1 X99.771 Y105.948 E0.32336
G1 X100.134 Y105.948 E0.33908
G1 X100.476 Y105.817 E0.35496
G1 X100.651 Y105.68 E0.36459
G1 X100.878 Y105.39 E0.38053
G1 X100.952 Y105.038 E0.39614
G1 X100.952 Y104.718 E0.41001
G1 X100.9 Y104.514 E0.41913
G1 X100.711 Y104.206 E0.43478
G1 X100.419 Y104.019 E0.44981
G1 X100.114 Y103.909 E0.46384
G1 X99.784 Y103.909 E0.47814
G1 X99.603 Y103.957 E0.48627
G1 X99.32 Y104.099 E0.49997
G1 X99.052 Y104.352 E0.51595
G1 X98.936 Y104.707 E0.53215
G1 X98.936 Y105.036 E0.54639
G1 X98.995 Y105.331 E0.55945
;WIPE_START
G1 X98.802 Y105.734 F9000
;WIPE_END
G92 E0
; acceleration to travel
M204 S1500
G1 X100.859 Y105.465
; decel to extrusion
M204 S500
G1 X101.544 Y105.376
; end travel
G1 F1200
G1 X101.671 Y105.568 E0.00998
G1 X101.935 Y105.811 E0.02551
G1 X102.292 Y105.948 E0.0421
G1 X102.674 Y105.948 E0.05863
G1 X103.031 Y105.811 E0.07522
G1 X103.294 Y105.568 E0.09075
G1 X103.421 Y105.376 E0.10073
G1 X103.492 Y105.038 E0.1157
G1 X103.492 Y104.718 E0.12956
G1 X103.44 Y104.514 E0.13868
G1 X103.251 Y104.206 E0.15433
