; generated by SuperSlicer 2.4 on 2024-05-04 at 04:51:19 UTC

; 

; external perimeters extrusion width = 0.42mm
; perimeters extrusion width = 0.46mm
; infill extrusion width = 0.44mm
; solid infill extrusion width = 0.46mm
; top infill extrusion width = 0.44mm
; first layer extrusion width = 0.56mm

; object:{"name":"nucleo_mount_tester","id":"nucleo_mount_tester.STL id:0 copy 0","object_center":[115.000000,112.500000,0.000000],"boundingbox_center":[115.000000,112.500000,3.000000],"boundingbox_size":[60.000000,30.000000,6.000000]}
; Total objects to print: 1
M486 T1
; plater:{"center":[115.000000,112.500000,0.000000],"boundingbox_center":[115.000000,112.500000,3.000000],"boundingbox_size":[60.000000,30.000000,6.000000]}

;TYPE:Custom
G90 ; use absolute coordinates
M83 ; extruder relative mode
M140 S60 ; set final bed temp
M104 S150 ; set temporary nozzle temp to prevent oozing during homing and auto bed leveling
G4 S10 ; allow partial nozzle warmup
G28 ; home all axis
G1 Z50 F240
G1 X2 Y10 F3000
M104 S215 ; set final nozzle temp
M190 S60 ; wait for bed temp to stabilize
M109 S215 ; wait for nozzle temp to stabilize
G1 Z0.28 F240
G92 E0
G1 Y140 E10 F1500 ; prime the nozzle
G1 X2.3 F5000
G92 E0
G1 Y10 E10 F1200 ; prime the nozzle
G92 E0
M107
G21 ; set units to millimeters
G90 ; use absolute coordinates
M82 ; use absolute distances for extrusion
G92 E0
; Filament gcode
;_TOOLCHANGE 0
M107
;LAYER_CHANGE
;Z:0.2
;HEIGHT:0.2
;BEFORE_LAYER_CHANGE
;0.2


G1 Z0.2 F9000
;AFTER_LAYER_CHANGE
;0.2
M204 S500
G1 X83.439 Y95.692
;TYPE:Skirt
;WIDTH:0.48
G1 F1200
G1 X82.631 Y96.654 E0.04563
G1 X82.351 Y97.14 E0.06602
G1 X82.012 Y97.983 E0.09905
G1 X81.794 Y99.219 E0.14469
G1 X81.781 Y125.5 E1.09981
G1 X81.968 Y126.869 E1.15004
G1 X82.474 Y128.09 E1.19804
G1 X83.138 Y129.004 E1.23914
G1 X83.734 Y129.565 E1.26888
G1 X84.41 Y130.026 E1.29862
G1 X85.631 Y130.532 E1.34662
G1 X87 Y130.719 E1.39685
G1 X143 Y130.719 E3.43207
G1 X144.18 Y130.578 E3.47527
G1 X145.36 Y130.149 E3.5209
G1 X146.132 Y129.669 E3.55393
G1 X146.808 Y129.061 E3.58696
G1 X147.169 Y128.632 E3.60735
G1 X147.796 Y127.544 E3.65299
G1 X148.078 Y126.68 E3.68602
G1 X148.176 Y126.128 E3.70641
G1 X148.206 Y99.219 E4.68434
G1 X148.078 Y98.32 E4.71738
G1 X147.796 Y97.456 E4.7504
G1 X147.369 Y96.654 E4.78343
G1 X146.808 Y95.939 E4.81647
G1 X145.846 Y95.131 E4.8621
G1 X145.044 Y94.704 E4.89513
G1 X144.18 Y94.422 E4.92816
G1 X143.281 Y94.294 E4.96119
G1 X87 Y94.281 E7.00661
G1 X85.82 Y94.422 E7.04981
G1 X84.64 Y94.851 E7.09544
G1 X84.154 Y95.131 E7.11583
G1 X83.486 Y95.655 E7.14668
G92 E0
; printing object nucleo_mount_tester.STL id:0 copy 0
M486 S0
; acceleration to travel
M204 S1500
G1 X106.322 Y113.288 F9000
; decel to extrusion
M204 S500
G1 X113.934 Y119.166
; end travel
;TYPE:Internal perimeter
;WIDTH:0.564
G1 F1200
G1 X113.471 Y118.738 E0.0273
G1 X112.93 Y118.531 E0.05242
G1 X112.399 Y118.531 E0.0754
G1 X112.039 Y118.631 E0.09162
G1 X111.591 Y118.913 E0.11455
G1 X111.395 Y119.164 E0.12833
G1 X110.929 Y118.742 E0.1556
G1 X110.393 Y118.531 E0.18054
G1 X109.86 Y118.532 E0.20365
G1 X109.499 Y118.631 E0.21985
G1 X109.051 Y118.913 E0.24281
G1 X108.854 Y119.166 E0.25668
G1 X108.391 Y118.738 E0.28398
G1 X107.85 Y118.531 E0.30911
G1 X107.319 Y118.531 E0.33209
G1 X106.959 Y118.631 E0.3483
G1 X106.511 Y118.913 E0.37123
G1 X106.315 Y119.164 E0.38502
G1 X105.849 Y118.741 E0.4123
G1 X105.313 Y118.531 E0.43721
G1 X104.733 Y118.531 E0.46237
G1 X104.199 Y118.741 E0.48723
G1 X103.751 Y119.144 E0.51335
G1 X103.31 Y118.741 E0.5392
G1 X102.772 Y118.531 E0.56423
G1 X102.24 Y118.532 E0.5873
G1 X101.879 Y118.631 E0.60351
G1 X101.431 Y118.913 E0.62646
G1 X101.235 Y119.164 E0.64025
G1 X100.769 Y118.742 E0.66752
G1 X100.233 Y118.531 E0.69246
G1 X99.7 Y118.532 E0.71557
G1 X99.339 Y118.631 E0.73179
G1 X98.891 Y118.914 E0.75476
G1 X98.673 Y119.193 E0.7701
G1 X98.456 Y118.914 E0.78543
G1 X98.009 Y118.632 E0.80834
G1 X97.651 Y118.531 E0.82445
G1 X97.167 Y118.528 E0.84542
G1 X96.816 Y118.62 E0.86112
G1 X96.364 Y118.881 E0.88376
G1 X96.003 Y119.311 E0.9081
G1 X95.81 Y119.839 E0.93244
G1 X95.81 Y120.36 E0.95502
G1 X95.904 Y120.708 E0.97062
G1 X96.164 Y121.16 E0.99321
G1 X96.596 Y121.521 E1.0176
G1 X97.126 Y121.712 E1.04201
G1 X97.697 Y121.709 E1.06676
G1 X98.228 Y121.498 E1.09153
G1 X98.696 Y121.078 E1.11876
G1 X98.892 Y121.327 E1.13251
G1 X99.373 Y121.632 E1.15721
G1 X99.903 Y121.727 E1.1805
G1 X100.225 Y121.698 E1.19453
G1 X100.548 Y121.609 E1.20902
G1 X100.995 Y121.327 E1.23194
G1 X101.192 Y121.074 E1.24581
G1 X101.655 Y121.502 E1.27311
G1 X102.196 Y121.709 E1.29824
G1 X102.727 Y121.709 E1.32122
G1 X103.088 Y121.609 E1.33746
G1 X103.535 Y121.326 E1.3604
G1 X103.731 Y121.075 E1.37417
G1 X104.196 Y121.498 E1.40144
G1 X104.733 Y121.709 E1.42641
G1 X105.266 Y121.708 E1.44952
G1 X105.627 Y121.609 E1.46572
G1 X106.075 Y121.327 E1.48868
G1 X106.271 Y121.076 E1.50247
G1 X106.737 Y121.498 E1.52973
G1 X107.273 Y121.709 E1.55468
G1 X107.806 Y121.708 E1.57779
G1 X108.167 Y121.609 E1.59398
G1 X108.615 Y121.327 E1.61695
G1 X108.811 Y121.076 E1.63074
G1 X109.277 Y121.498 E1.658
G1 X109.813 Y121.709 E1.68294
G1 X110.346 Y121.708 E1.70605
G1 X110.707 Y121.609 E1.72225
G1 X111.155 Y121.327 E1.74521
G1 X111.351 Y121.076 E1.759
G1 X111.817 Y121.498 E1.78626
G1 X112.353 Y121.709 E1.81121
G1 X112.886 Y121.708 E1.83432
G1 X113.247 Y121.609 E1.85051
G1 X113.695 Y121.327 E1.87348
G1 X113.891 Y121.076 E1.88727
G1 X114.357 Y121.498 E1.91453
G1 X114.893 Y121.709 E1.93947
G1 X115.426 Y121.708 E1.96258
G1 X115.787 Y121.609 E1.97878
G1 X116.235 Y121.327 E2.00174
G1 X116.431 Y121.076 E2.01553
G1 X116.897 Y121.498 E2.04279
G1 X117.433 Y121.709 E2.06774
G1 X117.966 Y121.708 E2.09085
G1 X118.327 Y121.609 E2.10704
G1 X118.775 Y121.327 E2.13
G1 X118.971 Y121.076 E2.1438
G1 X119.437 Y121.498 E2.17106
G1 X119.973 Y121.709 E2.196
G1 X120.506 Y121.708 E2.21911
G1 X120.867 Y121.609 E2.23531
G1 X121.315 Y121.327 E2.25827
G1 X121.511 Y121.076 E2.27206
G1 X121.977 Y121.498 E2.29932
G1 X122.513 Y121.709 E2.32427
G1 X123.046 Y121.708 E2.34737
G1 X123.407 Y121.609 E2.36357
G1 X123.855 Y121.327 E2.38653
G1 X124.051 Y121.076 E2.40033
G1 X124.517 Y121.498 E2.42759
G1 X125.053 Y121.709 E2.45253
G1 X125.586 Y121.708 E2.47564
G1 X125.947 Y121.609 E2.49184
G1 X126.395 Y121.327 E2.5148
G1 X126.591 Y121.076 E2.52859
G1 X127.057 Y121.498 E2.55585
G1 X127.593 Y121.709 E2.5808
G1 X128.126 Y121.708 E2.60391
G1 X128.487 Y121.609 E2.6201
G1 X128.935 Y121.327 E2.64307
G1 X129.131 Y121.076 E2.65686
G1 X129.597 Y121.498 E2.68412
G1 X130.133 Y121.709 E2.70906
G1 X130.666 Y121.708 E2.73217
G1 X131.027 Y121.609 E2.74837
G1 X131.475 Y121.327 E2.77133
G1 X131.671 Y121.076 E2.78512
G1 X132.136 Y121.498 E2.81234
G1 X132.669 Y121.709 E2.83716
G1 X133.199 Y121.712 E2.86013
G1 X133.549 Y121.62 E2.87581
G1 X134.002 Y121.359 E2.89847
G1 X134.363 Y120.929 E2.92282
G1 X134.555 Y120.401 E2.94715
G1 X134.555 Y119.839 E2.97149
G1 X134.363 Y119.311 E2.99582
G1 X134.002 Y118.881 E3.02017
G1 X133.549 Y118.62 E3.04284
G1 X133.199 Y118.528 E3.05851
G1 X132.669 Y118.531 E3.08148
G1 X132.136 Y118.742 E3.1063
G1 X131.692 Y119.145 E3.13229
G1 X131.251 Y118.738 E3.15828
G1 X130.71 Y118.531 E3.18341
G1 X130.179 Y118.531 E3.20639
G1 X129.819 Y118.631 E3.2226
G1 X129.371 Y118.913 E3.24553
G1 X129.153 Y119.193 E3.26088
G1 X128.935 Y118.913 E3.27624
G1 X128.452 Y118.609 E3.30097
G1 X127.924 Y118.513 E3.32421
G1 X127.601 Y118.542 E3.33828
G1 X127.278 Y118.631 E3.35276
G1 X126.831 Y118.913 E3.37568
G1 X126.635 Y119.164 E3.38947
G1 X126.169 Y118.742 E3.41673
G1 X125.633 Y118.531 E3.44168
G1 X125.1 Y118.532 E3.46478
G1 X124.739 Y118.631 E3.48098
G1 X124.291 Y118.913 E3.50394
G1 X124.073 Y119.193 E3.5193
G1 X123.855 Y118.913 E3.53464
G1 X123.407 Y118.631 E3.55758
G1 X123.046 Y118.531 E3.57381
G1 X122.56 Y118.531 E3.59488
G1 X122.199 Y118.631 E3.61112
G1 X121.751 Y118.913 E3.63405
G1 X121.554 Y119.166 E3.64792
G1 X121.091 Y118.738 E3.67522
G1 X120.55 Y118.531 E3.70034
G1 X120.019 Y118.531 E3.72332
G1 X119.659 Y118.631 E3.73954
G1 X119.211 Y118.913 E3.76247
G1 X119.014 Y119.166 E3.77634
G1 X118.551 Y118.738 E3.80364
G1 X118.01 Y118.531 E3.82876
G1 X117.479 Y118.531 E3.85174
G1 X117.119 Y118.631 E3.86796
G1 X116.671 Y118.913 E3.89089
G1 X116.474 Y119.166 E3.90476
G1 X116.011 Y118.738 E3.93206
G1 X115.47 Y118.531 E3.95718
G1 X114.939 Y118.531 E3.98016
G1 X114.579 Y118.631 E3.99638
G1 X114.131 Y118.913 E4.01931
G1 X113.971 Y119.118 E4.03058
G1 X114.248 Y119.61 F9000
;TYPE:External perimeter
G1 F1200
G1 X114.172 Y119.968 E4.04646
G1 X114.193 Y120.45 E4.06736
G1 X114.354 Y120.793 E4.08376
G1 X114.636 Y121.048 E4.10027
G1 X114.991 Y121.188 E4.11678
G1 X115.355 Y121.187 E4.13257
G1 X115.574 Y121.127 E4.14239
G1 X115.88 Y120.934 E4.15807
G1 X116.117 Y120.63 E4.17478
G1 X116.192 Y120.278 E4.19039
G1 X116.192 Y119.962 E4.20406
G1 X116.121 Y119.624 E4.21903
G1 X115.994 Y119.432 E4.22901
G1 X115.731 Y119.189 E4.24454
G1 X115.374 Y119.052 E4.26114
G1 X115.01 Y119.052 E4.27688
G1 X114.792 Y119.113 E4.28671
G1 X114.486 Y119.306 E4.30237
G1 X114.285 Y119.562 E4.31648
;WIPE_START
G1 X113.854 Y119.675 F9000
;WIPE_END
G1 X113.581 Y119.624
G1 F1200
G1 X113.454 Y119.432 E4.32647
G1 X113.191 Y119.189 E4.342
G1 X112.834 Y119.052 E4.35859
G1 X112.47 Y119.052 E4.37433
G1 X112.252 Y119.113 E4.38417
G1 X111.946 Y119.306 E4.39983
G1 X111.708 Y119.61 E4.41654
G1 X111.632 Y119.968 E4.43242
G1 X111.653 Y120.45 E4.45332
G1 X111.814 Y120.793 E4.46972
G1 X112.096 Y121.048 E4.48623
G1 X112.451 Y121.188 E4.50274
G1 X112.815 Y121.187 E4.51853
G1 X113.034 Y121.127 E4.52835
G1 X113.34 Y120.934 E4.54403
G1 X113.577 Y120.63 E4.56074
G1 X113.652 Y120.278 E4.57635
G1 X113.652 Y119.962 E4.59002
G1 X113.594 Y119.683 E4.60239
;WIPE_START
G1 X113.804 Y119.292 F9000
;WIPE_END
G92 E0
; acceleration to travel
M204 S1500
G1 X111.771 Y119.665
; decel to extrusion
M204 S500
G1 X111.093 Y119.79
; end travel
G1 F1200
G1 X110.932 Y119.447 E0.0164
G1 X110.649 Y119.192 E0.0329
G1 X110.295 Y119.052 E0.04942
G1 X109.93 Y119.053 E0.0652
G1 X109.712 Y119.113 E0.07503
G1 X109.406 Y119.306 E0.0907
G1 X109.168 Y119.61 E0.10742
G1 X109.092 Y119.968 E0.1233
G1 X109.113 Y120.45 E0.1442
G1 X109.274 Y120.793 E0.1606
G1 X109.556 Y121.048 E0.1771
G1 X109.911 Y121.188 E0.19362
G1 X110.275 Y121.187 E0.2094
G1 X110.494 Y121.127 E0.21923
G1 X110.8 Y120.934 E0.2349
G1 X111.037 Y120.63 E0.25162
G1 X111.114 Y120.272 E0.2675
G1 X111.095 Y119.85 E0.2858
;WIPE_START
G1 X111.363 Y119.494 F9000
;WIPE_END
G92 E0
; acceleration to travel
M204 S1500
G1 X109.27 Y119.845
; decel to extrusion
M204 S500
G1 X108.572 Y119.962
; end travel
G1 F1200
G1 X108.501 Y119.624 E0.01497
G1 X108.374 Y119.432 E0.02495
G1 X108.111 Y119.189 E0.04048
G1 X107.754 Y119.052 E0.05708
G1 X107.39 Y119.052 E0.07282
G1 X107.172 Y119.113 E0.08265
G1 X106.866 Y119.306 E0.09831
G1 X106.628 Y119.61 E0.11502
G1 X106.552 Y119.968 E0.1309
G1 X106.573 Y120.45 E0.15181
G1 X106.734 Y120.793 E0.16821
G1 X107.016 Y121.048 E0.18471
G1 X107.371 Y121.188 E0.20123
G1 X107.735 Y121.187 E0.21701
G1 X107.954 Y121.127 E0.22684
G1 X108.26 Y120.934 E0.24251
G1 X108.497 Y120.63 E0.25922
G1 X108.572 Y120.278 E0.27484
G1 X108.572 Y120.022 E0.2859
;WIPE_START
G1 X108.888 Y119.717 F9000
;WIPE_END
G92 E0
; acceleration to travel
M204 S1500
G1 X106.732 Y119.772
; decel to extrusion
M204 S500
G1 X106.013 Y119.79
; end travel
G1 F1200
G1 X105.852 Y119.447 E0.0164
G1 X105.569 Y119.191 E0.03291
G1 X105.215 Y119.052 E0.04941
G1 X104.831 Y119.052 E0.06604
G1 X104.477 Y119.191 E0.08252
G1 X104.193 Y119.447 E0.09906
G1 X104.034 Y119.787 E0.11536
G1 X104.007 Y120.119 E0.12977
G1 X104.036 Y120.456 E0.14442
G1 X104.195 Y120.792 E0.16054
G1 X104.476 Y121.048 E0.17703
G1 X104.831 Y121.188 E0.19356
G1 X105.195 Y121.187 E0.20934
G1 X105.414 Y121.127 E0.21917
G1 X105.72 Y120.934 E0.23484
G1 X105.957 Y120.63 E0.25155
G1 X106.034 Y120.272 E0.26743
G1 X106.015 Y119.85 E0.28574
;WIPE_START
G1 X106.282 Y119.494 F9000
;WIPE_END
G92 E0
; acceleration to travel
M204 S1500
G1 X104.178 Y119.715
; decel to extrusion
M204 S500
G1 X103.477 Y119.788
; end travel
G1 F1200
G1 X103.31 Y119.447 E0.01646
G1 X103.03 Y119.191 E0.03288
G1 X102.674 Y119.052 E0.04943
G1 X102.31 Y119.053 E0.0652
G1 X102.092 Y119.113 E0.07503
G1 X101.786 Y119.306 E0.0907
G1 X101.548 Y119.61 E0.10742
G1 X101.473 Y119.962 E0.12303
G1 X101.473 Y120.278 E0.1367
G1 X101.544 Y120.616 E0.15166
G1 X101.671 Y120.808 E0.16165
G1 X101.935 Y121.051 E0.17718
G1 X102.292 Y121.188 E0.19377
G1 X102.656 Y121.188 E0.20951
G1 X102.875 Y121.127 E0.21935
G1 X103.18 Y120.934 E0.23502
G1 X103.417 Y120.629 E0.25175
G1 X103.491 Y120.273 E0.26752
G1 X103.479 Y119.848 E0.28593
;WIPE_START
G1 X103.745 Y119.491 F9000
;WIPE_END
G92 E0
; acceleration to travel
M204 S1500
G1 X101.636 Y119.715
; decel to extrusion
M204 S500
G1 X100.933 Y119.79
; end travel
G1 F1200
G1 X100.772 Y119.447 E0.0164
G1 X100.489 Y119.192 E0.0329
G1 X100.135 Y119.052 E0.04942
G1 X99.77 Y119.053 E0.06521
G1 X99.552 Y119.113 E0.07504
G1 X99.246 Y119.306 E0.09071
G1 X99.008 Y119.611 E0.10744
G1 X98.936 Y119.963 E0.12304
G1 X98.936 Y120.276 E0.13658
G1 X99.006 Y120.63 E0.15224
G1 X99.246 Y120.934 E0.16902
G1 X99.566 Y121.137 E0.18543
G1 X99.926 Y121.202 E0.20128
G1 X100.132 Y121.183 E0.21023
G1 X100.334 Y121.127 E0.21934
G1 X100.64 Y120.934 E0.235
G1 X100.877 Y120.63 E0.25171
G1 X100.954 Y120.272 E0.26759
G1 X100.935 Y119.85 E0.28589
;WIPE_START
G1 X101.203 Y119.494 F9000
;WIPE_END
G92 E0
; acceleration to travel
M204 S1500
G1 X99.11 Y119.848
; decel to extrusion
M204 S500
G1 X98.413 Y119.966
; end travel
G1 F1200
G1 X98.337 Y119.61 E0.01575
G1 X98.1 Y119.306 E0.03245
G1 X97.795 Y119.113 E0.04811
G1 X97.577 Y119.052 E0.05791
G1 X97.233 Y119.049 E0.07283
G1 X97.017 Y119.106 E0.08251
G1 X96.704 Y119.287 E0.09816
G1 X96.461 Y119.576 E0.11453
G1 X96.332 Y119.931 E0.13091
G1 X96.332 Y120.292 E0.14654
G1 X96.389 Y120.507 E0.15618
G1 X96.57 Y120.819 E0.17181
G1 X96.859 Y121.062 E0.1882
G1 X97.215 Y121.191 E0.2046
G1 X97.596 Y121.188 E0.2211
G1 X97.949 Y121.049 E0.23756
G1 X98.233 Y120.793 E0.25407
G1 X98.394 Y120.447 E0.27065
G1 X98.411 Y120.026 E0.28891
;WIPE_START
G1 X98.731 Y119.723 F9000
;WIPE_END
G92 E0
; acceleration to travel
M204 S1500
G1 X112.217 Y119.907
; decel to extrusion
M204 S500
G1 X116.712 Y119.968
; end travel
G1 F1200
G1 X116.733 Y120.45 E0.0209
G1 X116.894 Y120.793 E0.0373
G1 X117.176 Y121.048 E0.05381
G1 X117.531 Y121.188 E0.07032
G1 X117.895 Y121.187 E0.08611
G1 X118.114 Y121.127 E0.09593
G1 X118.42 Y120.934 E0.11161
G1 X118.657 Y120.63 E0.12832
G1 X118.732 Y120.278 E0.14393
G1 X118.732 Y119.962 E0.1576
G1 X118.661 Y119.624 E0.17257
G1 X118.534 Y119.432 E0.18255
G1 X118.271 Y119.189 E0.19808
G1 X117.914 Y119.052 E0.21468
G1 X117.55 Y119.052 E0.23042
G1 X117.332 Y119.113 E0.24025
G1 X117.026 Y119.306 E0.25591
G1 X116.788 Y119.61 E0.27263
G1 X116.725 Y119.909 E0.2859
;WIPE_START
G1 X116.358 Y120.154 F9000
;WIPE_END
G92 E0
; acceleration to travel
M204 S1500
G1 X118.531 Y120.06
; decel to extrusion
M204 S500
G1 X119.255 Y120.029
; end travel
G1 F1200
G1 X119.273 Y120.45 E0.01826
G1 X119.434 Y120.793 E0.03466
G1 X119.716 Y121.048 E0.05116
G1 X120.071 Y121.188 E0.06768
G1 X120.435 Y121.187 E0.08346
G1 X120.654 Y121.127 E0.09329
G1 X120.96 Y120.934 E0.10896
G1 X121.197 Y120.63 E0.12567
G1 X121.272 Y120.278 E0.14129
G1 X121.272 Y119.962 E0.15496
G1 X121.201 Y119.624 E0.16992
G1 X121.074 Y119.432 E0.1799
G1 X120.811 Y119.189 E0.19544
G1 X120.454 Y119.052 E0.21203
G1 X120.09 Y119.052 E0.22777
G1 X119.872 Y119.113 E0.2376
G1 X119.566 Y119.306 E0.25327
G1 X119.328 Y119.61 E0.26998
G1 X119.252 Y119.969 E0.2859
;WIPE_START
G1 X118.917 Y120.244 F9000
;WIPE_END
G92 E0
; acceleration to travel
M204 S1500
G1 X121.089 Y120.399
; decel to extrusion
M204 S500
G1 X121.813 Y120.45
; end travel
G1 F1200
G1 X121.974 Y120.793 E0.0164
G1 X122.256 Y121.048 E0.0329
G1 X122.611 Y121.188 E0.04942
G1 X122.975 Y121.187 E0.0652
G1 X123.194 Y121.127 E0.07503
G1 X123.5 Y120.934 E0.0907
G1 X123.737 Y120.63 E0.10742
G1 X123.812 Y120.278 E0.12303
