; generated by SuperSlicer 2.4 on 2024-05-04 at 02:34:52 UTC

; 

; external perimeters extrusion width = 0.42mm
; perimeters extrusion width = 0.46mm
; infill extrusion width = 0.44mm
; solid infill extrusion width = 0.46mm
; top infill extrusion width = 0.44mm
; first layer extrusion width = 0.56mm

; object:{"name":"nucleo_mount_tester","id":"nucleo_mount_tester.STL id:0 copy 0","object_center":[115.000000,112.500000,0.000000],"boundingbox_center":[115.000000,112.500000,2.000000],"boundingbox_size":[50.292000,18.542000,4.000000]}
; Total objects to print: 1
M486 T1
; plater:{"center":[115.000000,112.500000,0.000000],"boundingbox_center":[115.000000,112.500000,2.000000],"boundingbox_size":[50.292000,18.542000,4.000000]}

;TYPE:Custom
G90 ; use absolute coordinates
M83 ; extruder relative mode
M140 S60 ; set final bed temp
M104 S150 ; set temporary nozzle temp to prevent oozing during homing and auto bed leveling
G4 S10 ; allow partial nozzle warmup
G28 ; home all axis
G1 Z50 F240
G1 X2 Y10 F3000
M104 S205 ; set final nozzle temp
M190 S60 ; wait for bed temp to stabilize
M109 S205 ; wait for nozzle temp to stabilize
G1 Z0.28 F240
G92 E0
G1 Y140 E10 F1500 ; prime the nozzle
G1 X2.3 F5000
G92 E0
G1 Y10 E10 F1200 ; prime the nozzle
G92 E0
M107
G21 ; set units to millimeters
G90 ; use absolute coordinates
M82 ; use absolute distances for extrusion
G92 E0
; Filament gcode
;_TOOLCHANGE 0
M107
;LAYER_CHANGE
;Z:0.2
;HEIGHT:0.2
;BEFORE_LAYER_CHANGE
;0.2


G1 E-2 F3600
G1 Z0.2 F9000
;AFTER_LAYER_CHANGE
;0.2
G92 E0
M204 S500
G1 X88.114 Y100.521
G1 E2 F2400
;TYPE:Skirt
;WIDTH:0.48
G1 F1200
G1 X87.029 Y101.686 E2.05786
G1 X86.635 Y103.229 E2.11573
G1 X86.635 Y121.771 E2.7896
G1 X87.146 Y123.511 E2.8555
G1 X88.311 Y124.596 E2.91336
G1 X89.854 Y124.99 E2.97123
G1 X140.146 Y124.99 E4.799
G1 X141.886 Y124.479 E4.8649
G1 X142.971 Y123.314 E4.92276
G1 X143.365 Y121.771 E4.98063
G1 X143.365 Y103.229 E5.6545
G1 X142.854 Y101.489 E5.7204
G1 X141.689 Y100.404 E5.77826
G1 X140.146 Y100.01 E5.83613
G1 X89.854 Y100.01 E7.6639
G1 X88.172 Y100.504 E7.72762
G92 E0
G1 E-1.4 F3600
;WIPE_START
G1 F7200
G1 X87.338 Y101.367 E-1.97
;WIPE_END
G1 E-2 F3600
; printing object nucleo_mount_tester.STL id:0 copy 0
M486 S0
; acceleration to travel
M204 S1500
G1 X97.473 Y105.438 F9000
; decel to extrusion
M204 S500
G1 X98.712 Y105.936
; end travel
G1 E0 F2400
;TYPE:Internal perimeter
;WIDTH:0.564
G1 F1200
G1 X99.083 Y106.286 E0.02213
G1 X99.636 Y106.515 E0.04806
G1 X100.206 Y106.515 E0.07273
G1 X100.575 Y106.402 E0.08949
G1 X101.046 Y106.098 E0.11374
G1 X101.213 Y105.852 E0.12663
G1 X101.38 Y106.098 E0.13952
G1 X101.85 Y106.402 E0.16377
G1 X102.22 Y106.515 E0.18053
G1 X102.746 Y106.515 E0.2033
G1 X103.115 Y106.402 E0.22006
G1 X103.586 Y106.098 E0.24431
G1 X103.708 Y105.918 E0.25375
G1 X104.203 Y106.303 E0.28091
G1 X104.717 Y106.515 E0.30501
G1 X105.286 Y106.515 E0.32965
G1 X105.655 Y106.402 E0.3464
G1 X106.126 Y106.098 E0.37066
G1 X106.248 Y105.918 E0.38009
G1 X106.743 Y106.303 E0.40726
G1 X107.257 Y106.515 E0.43135
G1 X107.826 Y106.515 E0.45599
G1 X108.195 Y106.402 E0.47274
G1 X108.666 Y106.098 E0.497
G1 X108.814 Y105.88 E0.50843
G1 X109.242 Y106.287 E0.53402
G1 X109.797 Y106.515 E0.56002
G1 X110.366 Y106.515 E0.58464
G1 X110.735 Y106.402 E0.6014
G1 X111.206 Y106.098 E0.62566
G1 X111.354 Y105.881 E0.63705
G1 X111.783 Y106.286 E0.66264
G1 X112.336 Y106.515 E0.68857
G1 X112.906 Y106.515 E0.71325
G1 X113.275 Y106.402 E0.73001
G1 X113.746 Y106.098 E0.75426
G1 X113.913 Y105.852 E0.76716
G1 X114.081 Y106.098 E0.78006
G1 X114.589 Y106.427 E0.80628
G1 X115.136 Y106.535 E0.83044
G1 X115.486 Y106.503 E0.84569
G1 X115.816 Y106.401 E0.86064
G1 X116.285 Y106.099 E0.88482
G1 X116.434 Y105.881 E0.89624
G1 X116.863 Y106.286 E0.92183
G1 X117.416 Y106.515 E0.94777
G1 X117.986 Y106.515 E0.97244
G1 X118.355 Y106.402 E0.9892
G1 X118.826 Y106.098 E1.01345
G1 X118.974 Y105.881 E1.02485
G1 X119.403 Y106.286 E1.05044
G1 X119.956 Y106.515 E1.07638
G1 X120.57 Y106.515 E1.10295
G1 X121.123 Y106.286 E1.12889
G1 X121.533 Y105.899 E1.15332
G1 X121.943 Y106.286 E1.17776
G1 X122.496 Y106.515 E1.20369
G1 X123.066 Y106.515 E1.22837
G1 X123.435 Y106.402 E1.24513
G1 X123.906 Y106.098 E1.26938
G1 X124.073 Y105.852 E1.28228
G1 X124.241 Y106.098 E1.29518
G1 X124.749 Y106.427 E1.3214
G1 X125.296 Y106.535 E1.34556
G1 X125.646 Y106.503 E1.36081
G1 X125.976 Y106.401 E1.37576
G1 X126.445 Y106.099 E1.39994
G1 X126.594 Y105.88 E1.4114
G1 X127.022 Y106.287 E1.43699
G1 X127.577 Y106.515 E1.46299
G1 X128.146 Y106.515 E1.48761
G1 X128.515 Y106.402 E1.50437
G1 X128.986 Y106.098 E1.52862
G1 X129.153 Y105.852 E1.54153
G1 X129.321 Y106.098 E1.55442
G1 X129.829 Y106.427 E1.58064
G1 X130.376 Y106.535 E1.60481
G1 X130.767 Y106.5 E1.62182
G1 X131.243 Y106.303 E1.64414
G1 X131.738 Y105.918 E1.6713
G1 X131.86 Y106.097 E1.68072
G1 X132.365 Y106.425 E1.70679
G1 X132.908 Y106.537 E1.73081
G1 X133.285 Y106.507 E1.74718
G1 X133.795 Y106.325 E1.77067
G1 X134.243 Y105.948 E1.796
G1 X134.509 Y105.476 E1.81949
G1 X134.605 Y105.104 E1.83617
G1 X134.578 Y104.594 E1.85829
G1 X134.429 Y104.126 E1.87954
G1 X139.243 Y104.131 E2.08811
G1 X139.243 Y120.869 E2.81331
G1 X134.453 Y120.874 E3.02083
G1 X134.608 Y120.2 E3.05078
G1 X134.595 Y119.857 E3.06563
G1 X134.509 Y119.524 E3.08055
G1 X134.243 Y119.051 E3.10405
G1 X133.795 Y118.675 E3.12938
G1 X133.246 Y118.479 E3.15464
G1 X132.692 Y118.484 E3.17863
G1 X132.327 Y118.6 E3.19524
G1 X131.86 Y118.902 E3.21936
G1 X131.738 Y119.082 E3.22877
G1 X131.243 Y118.697 E3.25593
G1 X130.729 Y118.485 E3.28003
G1 X130.16 Y118.485 E3.30466
G1 X129.79 Y118.598 E3.32141
G1 X129.32 Y118.902 E3.34567
G1 X129.172 Y119.119 E3.35707
G1 X128.743 Y118.714 E3.38266
G1 X128.19 Y118.485 E3.40859
G1 X127.62 Y118.485 E3.43327
G1 X127.25 Y118.598 E3.45002
G1 X126.78 Y118.902 E3.47428
G1 X126.632 Y119.12 E3.48571
G1 X126.203 Y118.713 E3.5113
G1 X125.649 Y118.485 E3.5373
G1 X125.036 Y118.485 E3.56382
G1 X124.485 Y118.713 E3.58968
G1 X124.071 Y119.1 E3.6142
G1 X123.664 Y118.711 E3.6386
G1 X123.107 Y118.485 E3.66465
G1 X122.497 Y118.485 E3.69108
G1 X121.983 Y118.697 E3.71518
G1 X121.677 Y118.935 E3.73195
G1 X121.552 Y119.119 E3.74161
G1 X121.122 Y118.714 E3.76719
G1 X120.57 Y118.485 E3.79312
G1 X119.957 Y118.485 E3.81966
G1 X119.443 Y118.697 E3.84376
G1 X119.137 Y118.935 E3.86054
G1 X119.012 Y119.12 E3.87023
G1 X118.583 Y118.713 E3.89582
G1 X118.028 Y118.485 E3.92182
G1 X117.417 Y118.485 E3.9483
G1 X116.903 Y118.697 E3.9724
G1 X116.597 Y118.935 E3.98918
G1 X116.472 Y119.12 E3.99888
G1 X116.043 Y118.713 E4.02446
G1 X115.489 Y118.485 E4.05046
G1 X114.876 Y118.485 E4.07698
G1 X114.325 Y118.713 E4.10284
G1 X113.911 Y119.1 E4.12736
G1 X113.504 Y118.711 E4.15176
G1 X112.947 Y118.485 E4.17781
G1 X112.337 Y118.485 E4.20424
G1 X111.823 Y118.697 E4.22834
G1 X111.517 Y118.935 E4.24511
G1 X111.392 Y119.12 E4.2548
G1 X110.963 Y118.713 E4.28039
G1 X110.408 Y118.485 E4.30639
G1 X109.797 Y118.485 E4.33287
G1 X109.283 Y118.697 E4.35697
G1 X108.977 Y118.935 E4.37375
G1 X108.852 Y119.12 E4.38345
G1 X108.423 Y118.713 E4.40903
G1 X107.868 Y118.485 E4.43503
G1 X107.257 Y118.485 E4.46151
G1 X106.743 Y118.697 E4.48561
G1 X106.437 Y118.935 E4.5024
G1 X106.312 Y119.12 E4.51209
G1 X105.883 Y118.713 E4.53768
G1 X105.328 Y118.485 E4.56367
G1 X104.717 Y118.485 E4.59016
G1 X104.203 Y118.697 E4.61426
G1 X103.897 Y118.935 E4.63104
G1 X103.772 Y119.12 E4.64073
G1 X103.343 Y118.713 E4.66632
G1 X102.788 Y118.485 E4.69232
G1 X102.177 Y118.485 E4.7188
G1 X101.663 Y118.697 E4.7429
G1 X101.357 Y118.935 E4.75969
G1 X101.232 Y119.119 E4.76934
G1 X100.802 Y118.714 E4.79493
G1 X100.25 Y118.485 E4.82086
G1 X99.637 Y118.485 E4.84739
G1 X99.123 Y118.697 E4.8715
G1 X98.817 Y118.935 E4.88828
G1 X98.692 Y119.119 E4.89794
G1 X98.264 Y118.716 E4.92342
G1 X97.716 Y118.485 E4.9492
G1 X97.12 Y118.479 E4.97503
G1 X96.571 Y118.676 E5.0003
G1 X96.154 Y119.025 E5.02387
G1 X95.943 Y119.332 E5.04
G1 X95.759 Y119.856 E5.06404
G1 X95.789 Y120.449 E5.0898
G1 X95.976 Y120.883 E5.11028
G1 X95.34 Y120.87 E5.13785
G1 X90.757 Y120.868 E5.33642
G1 X90.757 Y104.132 E6.06158
G1 X95.34 Y104.13 E6.26015
G1 X95.976 Y104.117 E6.28772
G1 X95.789 Y104.551 E6.3082
G1 X95.759 Y105.144 E6.33396
G1 X95.943 Y105.668 E6.358
G1 X96.154 Y105.975 E6.37413
G1 X96.571 Y106.325 E6.3977
G1 X97.12 Y106.521 E6.42297
G1 X97.673 Y106.516 E6.44696
G1 X98.039 Y106.4 E6.46356
G1 X98.506 Y106.098 E6.48768
G1 X98.654 Y105.881 E6.49905
G1 X98.668 Y105.894 E6.49991
G92 E0
G1 E-1.4 F3600
;WIPE_START
G1 F7200
G1 X99.083 Y106.286 E-1.67107
G1 X99.636 Y106.515 E-1.95535
G1 X99.667 Y106.515 E-1.97
;WIPE_END
G1 E-2 F3600
; acceleration to travel
M204 S1500
G1 X112.718 Y118.031 F9000
; decel to extrusion
M204 S500
G1 X114.313 Y119.438
; end travel
G1 E0 F2400
;TYPE:External perimeter
G1 F1200
G1 X114.193 Y119.796 E0.01633
G1 X114.149 Y120.113 E0.0302
G1 X114.165 Y120.29 E0.03792
G1 X114.202 Y120.477 E0.04619
G1 X114.379 Y120.801 E0.06217
G1 X114.672 Y121.02 E0.07803
G1 X115.003 Y121.141 E0.09328
G1 X115.363 Y121.141 E0.10887
G1 X115.689 Y121.022 E0.12392
G1 X115.85 Y120.909 E0.13243
G1 X116.097 Y120.648 E0.14802
G1 X116.204 Y120.291 E0.16414
G1 X116.204 Y119.964 E0.17831
G1 X116.143 Y119.631 E0.19299
G1 X116.033 Y119.422 E0.20321
G1 X115.755 Y119.158 E0.21982
G1 X115.385 Y119.006 E0.23714
G1 X114.98 Y119.006 E0.2547
G1 X114.612 Y119.159 E0.27198
G1 X114.356 Y119.397 E0.28712
;WIPE_START
G1 X113.913 Y119.452 F9000
;WIPE_END
G1 X113.605 Y119.629
G1 F1200
G1 X113.493 Y119.42 E0.2974
G1 X113.216 Y119.157 E0.31397
G1 X112.845 Y119.006 E0.33132
G1 X112.44 Y119.006 E0.34886
G1 X112.087 Y119.152 E0.36541
G1 X111.902 Y119.295 E0.37556
G1 X111.687 Y119.613 E0.39217
G1 X111.622 Y119.964 E0.40765
G1 X111.622 Y120.279 E0.42129
G1 X111.663 Y120.477 E0.43007
G1 X111.839 Y120.8 E0.446
G1 X112.132 Y121.02 E0.46188
G1 X112.463 Y121.141 E0.47714
G1 X112.823 Y121.141 E0.49273
G1 X113.149 Y121.022 E0.50778
G1 X113.31 Y120.909 E0.51629
G1 X113.557 Y120.648 E0.53187
G1 X113.664 Y120.291 E0.548
G1 X113.664 Y119.966 E0.56211
G1 X113.616 Y119.688 E0.5743
;WIPE_START
G1 X113.851 Y119.313 F9000
;WIPE_END
G92 E0
G1 E-1.4 F3600
;WIPE_START
G1 F7200
G1 X113.326 Y118.986 E-1.69374
G1 X112.884 Y118.806 E-1.92056
G1 X112.78 Y118.806 E-1.97
;WIPE_END
G1 E-2 F3600
G1 X111.097 Y119.817 F9000
G1 E0 F2400
G1 F1200
G1 X111.063 Y119.631 E0.00818
G1 X110.953 Y119.422 E0.01841
G1 X110.675 Y119.158 E0.03501
G1 X110.305 Y119.006 E0.05234
G1 X109.9 Y119.006 E0.06989
G1 X109.547 Y119.152 E0.08644
G1 X109.362 Y119.295 E0.09659
G1 X109.147 Y119.613 E0.1132
G1 X109.082 Y119.964 E0.12868
G1 X109.082 Y120.279 E0.14232
G1 X109.123 Y120.477 E0.15111
G1 X109.299 Y120.8 E0.16704
G1 X109.592 Y121.02 E0.18292
G1 X109.923 Y121.141 E0.19817
G1 X110.283 Y121.141 E0.21376
G1 X110.609 Y121.022 E0.22881
G1 X110.77 Y120.909 E0.23732
G1 X111.017 Y120.648 E0.25291
G1 X111.124 Y120.291 E0.26903
G1 X111.124 Y119.964 E0.2832
G1 X111.107 Y119.876 E0.28709
;WIPE_START
G1 X111.401 Y119.558 F9000
;WIPE_END
G92 E0
G1 E-1.4 F3600
;WIPE_START
G1 F7200
G1 X111.115 Y119.3 E-1.58314
G1 X110.786 Y118.987 E-1.79869
G1 X110.452 Y118.85 E-1.97
;WIPE_END
G1 E-2 F3600
G1 X108.584 Y119.964 F9000
G1 E0 F2400
G1 F1200
G1 X108.523 Y119.631 E0.01467
G1 X108.413 Y119.422 E0.0249
G1 X108.135 Y119.158 E0.0415
G1 X107.765 Y119.006 E0.05883
G1 X107.36 Y119.006 E0.07638
G1 X107.007 Y119.152 E0.09293
G1 X106.822 Y119.295 E0.10308
G1 X106.607 Y119.613 E0.11969
G1 X106.542 Y119.964 E0.13517
G1 X106.542 Y120.291 E0.14935
G1 X106.648 Y120.648 E0.16548
G1 X106.896 Y120.909 E0.18106
G1 X107.057 Y121.022 E0.18957
G1 X107.383 Y121.141 E0.20462
G1 X107.743 Y121.141 E0.22021
G1 X108.069 Y121.022 E0.23526
G1 X108.23 Y120.909 E0.24377
G1 X108.477 Y120.648 E0.25936
G1 X108.584 Y120.291 E0.27548
G1 X108.584 Y120.024 E0.28705
;WIPE_START
G1 X108.903 Y119.724 F9000
;WIPE_END
G92 E0
G1 E-1.4 F3600
;WIPE_START
G1 F7200
G1 X108.575 Y119.3 E-1.65484
G1 X108.246 Y118.987 E-1.87039
G1 X108.052 Y118.908 E-1.97
;WIPE_END
G1 E-2 F3600
; acceleration to travel
M204 S1500
G1 X106.262 Y119.849 F9000
; decel to extrusion
M204 S500
G1 X106.044 Y119.964
; end travel
G1 E0 F2400
G1 F1200
G1 X105.983 Y119.631 E0.01467
G1 X105.873 Y119.422 E0.0249
G1 X105.595 Y119.158 E0.0415
G1 X105.225 Y119.006 E0.05883
G1 X104.82 Y119.006 E0.07638
G1 X104.467 Y119.152 E0.09293
G1 X104.282 Y119.295 E0.10308
G1 X104.067 Y119.613 E0.11969
G1 X104.002 Y119.964 E0.13517
G1 X104.002 Y120.291 E0.14935
G1 X104.108 Y120.648 E0.16548
G1 X104.356 Y120.909 E0.18106
G1 X104.517 Y121.022 E0.18957
G1 X104.843 Y121.141 E0.20462
G1 X105.203 Y121.141 E0.22021
G1 X105.529 Y121.022 E0.23526
G1 X105.69 Y120.909 E0.24377
G1 X105.937 Y120.648 E0.25936
G1 X106.044 Y120.291 E0.27548
G1 X106.044 Y120.024 E0.28705
;WIPE_START
G1 X106.363 Y119.724 F9000
;WIPE_END
G92 E0
G1 E-1.4 F3600
;WIPE_START
G1 F7200
G1 X106.035 Y119.3 E-1.65484
G1 X105.706 Y118.987 E-1.87039
G1 X105.512 Y118.908 E-1.97
;WIPE_END
G1 E-2 F3600
; acceleration to travel
M204 S1500
G1 X103.722 Y119.849 F9000
; decel to extrusion
M204 S500
G1 X103.504 Y119.964
; end travel
G1 E0 F2400
G1 F1200
G1 X103.443 Y119.631 E0.01467
G1 X103.333 Y119.422 E0.0249
G1 X103.055 Y119.158 E0.0415
G1 X102.685 Y119.006 E0.05883
G1 X102.28 Y119.006 E0.07638
G1 X101.927 Y119.152 E0.09293
G1 X101.742 Y119.295 E0.10308
G1 X101.527 Y119.613 E0.11969
G1 X101.462 Y119.964 E0.13517
G1 X101.462 Y120.279 E0.14881
G1 X101.503 Y120.477 E0.1576
G1 X101.679 Y120.8 E0.17352
G1 X101.972 Y121.02 E0.18941
G1 X102.303 Y121.141 E0.20466
G1 X102.663 Y121.141 E0.22025
G1 X102.989 Y121.022 E0.2353
G1 X103.15 Y120.909 E0.24381
G1 X103.397 Y120.648 E0.2594
G1 X103.504 Y120.291 E0.27552
G1 X103.504 Y120.024 E0.28709
;WIPE_START
G1 X103.823 Y119.724 F9000
;WIPE_END
G92 E0
G1 E-1.4 F3600
;WIPE_START
G1 F7200
G1 X103.495 Y119.3 E-1.65484
G1 X103.166 Y118.987 E-1.87039
G1 X102.972 Y118.908 E-1.97
;WIPE_END
G1 E-2 F3600
; acceleration to travel
M204 S1500
G1 X101.182 Y119.836 F9000
; decel to extrusion
M204 S500
G1 X100.964 Y119.95
; end travel
G1 E0 F2400
G1 F1200
G1 X100.817 Y119.444 E0.02283
G1 X100.515 Y119.159 E0.04081
G1 X100.146 Y119.006 E0.05811
G1 X99.74 Y119.006 E0.07568
G1 X99.387 Y119.152 E0.09224
G1 X99.202 Y119.295 E0.10239
G1 X98.987 Y119.613 E0.119
G1 X98.922 Y119.964 E0.13448
G1 X98.922 Y120.291 E0.14866
G1 X99.028 Y120.648 E0.16478
G1 X99.276 Y120.909 E0.18037
G1 X99.437 Y121.022 E0.18888
G1 X99.763 Y121.141 E0.20392
G1 X100.123 Y121.141 E0.21952
G1 X100.449 Y121.022 E0.23457
G1 X100.61 Y120.909 E0.24308
G1 X100.857 Y120.648 E0.25866
G1 X100.964 Y120.291 E0.27479
G1 X100.964 Y120.01 E0.28699
;WIPE_START
G1 X101.266 Y119.688 F9000
;WIPE_END
G92 E0
G1 E-1.4 F3600
;WIPE_START
G1 F7200
G1 X100.994 Y119.336 E-1.61185
G1 X100.625 Y118.988 E-1.85236
G1 X100.396 Y118.893 E-1.97
;WIPE_END
G1 E-2 F3600
; acceleration to travel
M204 S1500
G1 X98.638 Y119.835 F9000
; decel to extrusion
M204 S500
G1 X98.424 Y119.95
; end travel
G1 E0 F2400
G1 F1200
G1 X98.277 Y119.444 E0.02283
G1 X97.975 Y119.159 E0.04078
G1 X97.608 Y119.005 E0.05804
G1 X97.208 Y119.001 E0.07539
G1 X96.835 Y119.134 E0.09257
G1 X96.544 Y119.379 E0.10903
G1 X96.412 Y119.57 E0.1191
G1 X96.285 Y119.932 E0.1357
G1 X96.305 Y120.329 E0.15295
G1 X96.457 Y120.683 E0.16962
G1 X96.619 Y120.853 E0.1798
G1 X96.906 Y121.025 E0.19429
G1 X97.223 Y121.141 E0.20891
G1 X97.583 Y121.141 E0.2245
G1 X97.909 Y121.022 E0.23955
G1 X98.07 Y120.909 E0.24806
G1 X98.317 Y120.648 E0.26365
G1 X98.424 Y120.291 E0.27977
G1 X98.424 Y120.01 E0.29197
;WIPE_START
G1 X98.726 Y119.688 F9000
;WIPE_END
G92 E0
G1 E-1.4 F3600
;WIPE_START
G1 F7200
G1 X98.454 Y119.336 E-1.61179
G1 X98.086 Y118.989 E-1.85173
G1 X97.857 Y118.892 E-1.97
;WIPE_END
G1 E-2 F3600
; acceleration to travel
M204 S1500
G1 X97.62 Y107.4 F9000
; decel to extrusion
M204 S500
G1 X97.591 Y105.995
; end travel
G1 E0 F2400
G1 F1200
G1 X97.815 Y105.925 E0.01019
G1 X98.134 Y105.718 E0.02669
G1 X98.359 Y105.387 E0.04399
G1 X98.424 Y105.036 E0.05947
G1 X98.424 Y104.721 E0.07311
G1 X98.383 Y104.523 E0.0819
G1 X98.207 Y104.2 E0.09782
G1 X97.914 Y103.98 E0.11371
