; generated by SuperSlicer 2.4 on 2024-05-04 at 14:15:08 UTC

; 

; external perimeters extrusion width = 0.42mm
; perimeters extrusion width = 0.46mm
; infill extrusion width = 0.44mm
; solid infill extrusion width = 0.46mm
; top infill extrusion width = 0.44mm
; first layer extrusion width = 0.56mm

; object:{"name":"test_print_2","id":"test_print_2.STL id:0 copy 0","object_center":[115.000000,112.500000,0.000000],"boundingbox_center":[115.000000,112.500000,27.500000],"boundingbox_size":[85.492447,12.022110,55.000000]}
; Total objects to print: 1
M486 T1
; plater:{"center":[115.000000,112.500000,0.000000],"boundingbox_center":[115.000000,112.500000,27.500000],"boundingbox_size":[85.492447,12.022110,55.000000]}

;TYPE:Custom
G90 ; use absolute coordinates
M83 ; extruder relative mode
M140 S60 ; set final bed temp
M104 S150 ; set temporary nozzle temp to prevent oozing during homing and auto bed leveling
G4 S10 ; allow partial nozzle warmup
G28 ; home all axis
G1 Z50 F240
G1 X2 Y10 F3000
M104 S205 ; set final nozzle temp
M190 S60 ; wait for bed temp to stabilize
M109 S205 ; wait for nozzle temp to stabilize
G1 Z0.28 F240
G92 E0
G1 Y140 E10 F1500 ; prime the nozzle
G1 X2.3 F5000
G92 E0
G1 Y10 E10 F1200 ; prime the nozzle
G92 E0
M107
G21 ; set units to millimeters
G90 ; use absolute coordinates
M82 ; use absolute distances for extrusion
G92 E0
; Filament gcode
;_TOOLCHANGE 0
M107
;LAYER_CHANGE
;Z:0.2
;HEIGHT:0.2
;BEFORE_LAYER_CHANGE
;0.2


G1 E-2 F3600
G1 Z0.2 F9000
;AFTER_LAYER_CHANGE
;0.2
G92 E0
M204 S500
G1 X70.514 Y103.781
G1 E2 F2400
;TYPE:Skirt
;WIDTH:0.48
G1 F1200
G1 X69.429 Y104.946 E2.05786
G1 X69.035 Y106.489 E2.11573
G1 X69.035 Y118.511 E2.55265
G1 X69.546 Y120.251 E2.61855
G1 X70.711 Y121.336 E2.67641
G1 X72.254 Y121.73 E2.73427
G1 X157.746 Y121.73 E5.84135
G1 X159.486 Y121.219 E5.90725
G1 X160.571 Y120.054 E5.96511
G1 X160.965 Y118.511 E6.02297
G1 X160.965 Y106.489 E6.4599
G1 X160.454 Y104.749 E6.52579
G1 X159.289 Y103.664 E6.58366
G1 X157.746 Y103.27 E6.64152
G1 X72.254 Y103.27 E9.7486
G1 X70.572 Y103.764 E9.81231
G92 E0
G1 E-1.4 F3600
;WIPE_START
G1 F7200
G1 X69.738 Y104.627 E-1.97
;WIPE_END
G1 E-2 F3600
; printing object test_print_2.STL id:0 copy 0
M486 S0
; acceleration to travel
M204 S1500
G1 X72.785 Y107.091 F9000
; decel to extrusion
M204 S500
G1 X73.157 Y107.392
; end travel
G1 E0 F2400
;TYPE:Internal perimeter
;WIDTH:0.564
G1 F1200
G1 X156.843 Y107.392 E3.62596
G1 X156.843 Y117.608 E4.06859
G1 X73.157 Y117.608 E7.69455
G1 X73.157 Y107.452 E8.13458
G1 X72.636 Y106.871 F9000
;TYPE:External perimeter
G1 F1200
G1 X157.364 Y106.871 E11.80569
G1 X157.364 Y118.129 E12.29348
G1 X72.636 Y118.129 E15.96459
G1 X72.636 Y106.931 E16.44979
;WIPE_START
G1 X72.982 Y107.071 F9000
;WIPE_END
G92 E0
G1 E-1.4 F3600
;WIPE_START
G1 F7200
G1 X74.182 Y107.071 E-1.97
;WIPE_END
G1 E-2 F3600
; acceleration to travel
M204 S1500
G1 X146.766 Y107.496 F9000
; decel to extrusion
M204 S500
G1 X155.634 Y107.548
; end travel
G1 E0 F2400
;TYPE:Solid infill
;WIDTH:0.560021
G1 F1200
G1 X156.463 Y108.378 E0.05046
G1 X156.463 Y109.115 E0.08216
G1 X155.121 Y107.772 E0.16382
G1 X154.384 Y107.772 E0.19552
G1 X156.463 Y109.851 E0.32202
G1 X156.463 Y110.588 E0.35372
G1 X153.647 Y107.772 E0.52505
G1 X152.91 Y107.772 E0.55675
G1 X156.463 Y111.325 E0.77292
G1 X156.463 Y112.062 E0.80463
G1 X152.173 Y107.772 E1.06563
G1 X151.436 Y107.772 E1.09733
G1 X156.463 Y112.799 E1.40317
G1 X156.463 Y113.536 E1.43487
G1 X150.699 Y107.772 E1.78555
G1 X149.962 Y107.772 E1.81725
G1 X156.463 Y114.273 E2.21276
G1 X156.463 Y115.01 E2.24447
G1 X149.225 Y107.772 E2.68481
G1 X148.488 Y107.772 E2.71652
G1 X156.463 Y115.747 E3.2017
G1 X156.463 Y116.484 E3.23341
G1 X147.751 Y107.772 E3.76342
G1 X147.015 Y107.772 E3.79513
G1 X156.463 Y117.221 E4.36998
G1 X156.463 Y117.228 E4.37028
G1 X155.733 Y117.228 E4.40169
G1 X146.278 Y107.772 E4.97697
G1 X145.541 Y107.772 E5.00867
G1 X154.996 Y117.228 E5.58395
G1 X154.259 Y117.228 E5.61566
G1 X144.804 Y107.772 E6.19094
G1 X144.067 Y107.772 E6.22264
G1 X153.522 Y117.228 E6.79792
G1 X152.785 Y117.228 E6.82963
G1 X143.33 Y107.772 E7.40491
G1 X142.593 Y107.772 E7.43661
G1 X152.048 Y117.228 E8.01189
G1 X151.311 Y117.228 E8.0436
G1 X141.856 Y107.772 E8.61888
G1 X141.119 Y107.772 E8.65058
G1 X150.574 Y117.228 E9.22586
G1 X149.838 Y117.228 E9.25757
G1 X140.382 Y107.772 E9.83285
G1 X139.645 Y107.772 E9.86455
G1 X149.101 Y117.228 E10.43983
G1 X148.364 Y117.228 E10.47154
G1 X138.908 Y107.772 E11.04682
G1 X138.172 Y107.772 E11.07852
G1 X147.627 Y117.228 E11.6538
G1 X146.89 Y117.228 E11.68551
G1 X137.435 Y107.772 E12.26079
G1 X136.698 Y107.772 E12.29249
G1 X146.153 Y117.228 E12.86777
G1 X145.416 Y117.228 E12.89948
G1 X135.961 Y107.772 E13.47476
G1 X135.224 Y107.772 E13.50646
G1 X144.679 Y117.228 E14.08174
G1 X143.942 Y117.228 E14.11345
G1 X134.487 Y107.772 E14.68873
G1 X133.75 Y107.772 E14.72043
G1 X143.205 Y117.228 E15.29571
G1 X142.468 Y117.228 E15.32742
G1 X133.013 Y107.772 E15.9027
G1 X132.276 Y107.772 E15.9344
G1 X141.731 Y117.228 E16.50968
G1 X140.995 Y117.228 E16.54139
G1 X131.539 Y107.772 E17.11667
G1 X130.802 Y107.772 E17.14837
G1 X140.258 Y117.228 E17.72365
G1 X139.521 Y117.228 E17.75536
G1 X130.065 Y107.772 E18.33064
G1 X129.329 Y107.772 E18.36234
G1 X138.784 Y117.228 E18.93762
G1 X138.047 Y117.228 E18.96933
G1 X128.592 Y107.772 E19.54461
G1 X127.855 Y107.772 E19.57631
G1 X137.31 Y117.228 E20.15159
G1 X136.573 Y117.228 E20.1833
G1 X127.118 Y107.772 E20.75858
G1 X126.381 Y107.772 E20.79028
G1 X135.836 Y117.228 E21.36556
G1 X135.099 Y117.228 E21.39727
G1 X125.644 Y107.772 E21.97255
G1 X124.907 Y107.772 E22.00425
G1 X134.362 Y117.228 E22.57953
G1 X133.625 Y117.228 E22.61124
G1 X124.17 Y107.772 E23.18652
G1 X123.433 Y107.772 E23.21822
G1 X132.888 Y117.228 E23.7935
G1 X132.152 Y117.228 E23.82521
G1 X122.696 Y107.772 E24.40049
G1 X121.959 Y107.772 E24.43219
G1 X131.415 Y117.228 E25.00747
G1 X130.678 Y117.228 E25.03918
G1 X121.222 Y107.772 E25.61446
G1 X120.486 Y107.772 E25.64616
G1 X129.941 Y117.228 E26.22144
G1 X129.204 Y117.228 E26.25315
G1 X119.749 Y107.772 E26.82843
G1 X119.012 Y107.772 E26.86013
G1 X128.467 Y117.228 E27.43541
G1 X127.73 Y117.228 E27.46712
G1 X118.275 Y107.772 E28.0424
G1 X117.538 Y107.772 E28.0741
G1 X126.993 Y117.228 E28.64938
G1 X126.256 Y117.228 E28.68109
G1 X116.801 Y107.772 E29.25637
G1 X116.064 Y107.772 E29.28807
G1 X125.519 Y117.228 E29.86335
G1 X124.782 Y117.228 E29.89506
G1 X115.327 Y107.772 E30.47034
G1 X114.59 Y107.772 E30.50204
G1 X124.045 Y117.228 E31.07732
G1 X123.309 Y117.228 E31.10903
G1 X113.853 Y107.772 E31.68431
G1 X113.116 Y107.772 E31.71601
G1 X122.572 Y117.228 E32.29129
G1 X121.835 Y117.228 E32.32299
G1 X112.379 Y107.772 E32.89828
G1 X111.643 Y107.772 E32.92998
G1 X121.098 Y117.228 E33.50526
G1 X120.361 Y117.228 E33.53696
G1 X110.906 Y107.772 E34.11225
G1 X110.169 Y107.772 E34.14395
G1 X119.624 Y117.228 E34.71923
G1 X118.887 Y117.228 E34.75093
G1 X109.432 Y107.772 E35.32622
G1 X108.695 Y107.772 E35.35792
G1 X118.15 Y117.228 E35.9332
G1 X117.413 Y117.228 E35.9649
G1 X107.958 Y107.772 E36.54019
G1 X107.221 Y107.772 E36.57189
G1 X116.676 Y117.228 E37.14717
G1 X115.939 Y117.228 E37.17887
G1 X106.484 Y107.772 E37.75416
G1 X105.747 Y107.772 E37.78586
G1 X115.202 Y117.228 E38.36114
G1 X114.466 Y117.228 E38.39284
G1 X105.01 Y107.772 E38.96813
G1 X104.273 Y107.772 E38.99983
G1 X113.729 Y117.228 E39.57511
G1 X112.992 Y117.228 E39.60681
G1 X103.536 Y107.772 E40.1821
G1 X102.8 Y107.772 E40.2138
G1 X112.255 Y117.228 E40.78908
G1 X111.518 Y117.228 E40.82078
G1 X102.063 Y107.772 E41.39607
G1 X101.326 Y107.772 E41.42777
G1 X110.781 Y117.228 E42.00305
G1 X110.044 Y117.228 E42.03475
G1 X100.589 Y107.772 E42.61004
G1 X99.852 Y107.772 E42.64174
G1 X109.307 Y117.228 E43.21702
G1 X108.57 Y117.228 E43.24872
G1 X99.115 Y107.772 E43.824
G1 X98.378 Y107.772 E43.85571
G1 X107.833 Y117.228 E44.43099
G1 X107.096 Y117.228 E44.46269
G1 X97.641 Y107.772 E45.03797
G1 X96.904 Y107.772 E45.06968
G1 X106.359 Y117.228 E45.64496
G1 X105.623 Y117.228 E45.67666
G1 X96.167 Y107.772 E46.25194
G1 X95.43 Y107.772 E46.28365
G1 X104.886 Y117.228 E46.85893
G1 X104.149 Y117.228 E46.89063
G1 X94.693 Y107.772 E47.46591
G1 X93.957 Y107.772 E47.49762
G1 X103.412 Y117.228 E48.0729
G1 X102.675 Y117.228 E48.1046
G1 X93.22 Y107.772 E48.67988
G1 X92.483 Y107.772 E48.71159
G1 X101.938 Y117.228 E49.28687
G1 X101.201 Y117.228 E49.31857
G1 X91.746 Y107.772 E49.89385
G1 X91.009 Y107.772 E49.92556
G1 X100.464 Y117.228 E50.50084
G1 X99.727 Y117.228 E50.53254
G1 X90.272 Y107.772 E51.10782
G1 X89.535 Y107.772 E51.13953
G1 X98.99 Y117.228 E51.71481
G1 X98.253 Y117.228 E51.74651
G1 X88.798 Y107.772 E52.32179
G1 X88.061 Y107.772 E52.3535
G1 X97.516 Y117.228 E52.92878
G1 X96.78 Y117.228 E52.96048
G1 X87.324 Y107.772 E53.53576
G1 X86.587 Y107.772 E53.56747
G1 X96.043 Y117.228 E54.14275
G1 X95.306 Y117.228 E54.17445
G1 X85.85 Y107.772 E54.74973
G1 X85.114 Y107.772 E54.78144
G1 X94.569 Y117.228 E55.35672
G1 X93.832 Y117.228 E55.38842
G1 X84.377 Y107.772 E55.9637
G1 X83.64 Y107.772 E55.99541
G1 X93.095 Y117.228 E56.57069
G1 X92.358 Y117.228 E56.60239
G1 X82.903 Y107.772 E57.17767
G1 X82.166 Y107.772 E57.20938
G1 X91.621 Y117.228 E57.78466
G1 X90.884 Y117.228 E57.81636
G1 X81.429 Y107.772 E58.39164
G1 X80.692 Y107.772 E58.42335
G1 X90.147 Y117.228 E58.99863
G1 X89.41 Y117.228 E59.03033
G1 X79.955 Y107.772 E59.60561
G1 X79.218 Y107.772 E59.63732
G1 X88.673 Y117.228 E60.2126
G1 X87.937 Y117.228 E60.2443
G1 X78.481 Y107.772 E60.81958
G1 X77.744 Y107.772 E60.85129
G1 X87.2 Y117.228 E61.42657
G1 X86.463 Y117.228 E61.45827
G1 X77.007 Y107.772 E62.03355
G1 X76.271 Y107.772 E62.06526
G1 X85.726 Y117.228 E62.64054
G1 X84.989 Y117.228 E62.67224
G1 X75.534 Y107.772 E63.24752
G1 X74.797 Y107.772 E63.27923
G1 X84.252 Y117.228 E63.85451
G1 X83.515 Y117.228 E63.88621
G1 X74.06 Y107.772 E64.46149
G1 X73.537 Y107.772 E64.48398
G1 X73.537 Y107.987 E64.4932
G1 X82.778 Y117.228 E65.05544
G1 X82.041 Y117.228 E65.08714
G1 X73.537 Y108.724 E65.60454
G1 X73.537 Y109.461 E65.63625
G1 X81.304 Y117.228 E66.10881
G1 X80.567 Y117.228 E66.14052
G1 X73.537 Y110.197 E66.56825
G1 X73.537 Y110.934 E66.59995
G1 X79.83 Y117.228 E66.98285
G1 X79.093 Y117.228 E67.01455
G1 X73.537 Y111.671 E67.35261
G1 X73.537 Y112.408 E67.38431
G1 X78.357 Y117.228 E67.67754
G1 X77.62 Y117.228 E67.70924
G1 X73.537 Y113.145 E67.95763
G1 X73.537 Y113.882 E67.98933
G1 X76.883 Y117.228 E68.19288
G1 X76.146 Y117.228 E68.22459
G1 X73.537 Y114.619 E68.3833
G1 X73.537 Y115.356 E68.41501
G1 X75.409 Y117.228 E68.52888
G1 X74.672 Y117.228 E68.56059
G1 X73.537 Y116.093 E68.62963
G1 X73.537 Y116.83 E68.66133
G1 X74.159 Y117.452 E68.69917
M106 S84.15
;LAYER_CHANGE
;Z:0.4
;HEIGHT:0.2
;BEFORE_LAYER_CHANGE
;0.4


G92 E0
G1 E-1.4 F3600
;WIPE_START
G1 F7200
G1 X73.537 Y116.83 E-1.81778
G1 X73.537 Y116.509 E-1.97
;WIPE_END
G1 E-2 F3600
; stop printing object test_print_2.STL id:0 copy 0
M486 S-1
G1 Z0.4 F9000
;AFTER_LAYER_CHANGE
;0.4
M104 S200 ; set temperature
G92 E0
; acceleration to travel
M204 S1500
G1 X69.525 Y116.509
; decel to extrusion
M204 S500
G1 X69.035 Y116.509
; end travel
G1 E2 F2400
;TYPE:Skirt
;WIDTH:0.48
G1 F1200
G1 X69.035 Y118.511 E2.07275
G1 X69.546 Y120.251 E2.13865
G1 X70.711 Y121.336 E2.19651
G1 X72.254 Y121.73 E2.25437
G1 X157.746 Y121.73 E5.36145
G1 X159.486 Y121.219 E5.42735
G1 X160.571 Y120.054 E5.48521
G1 X160.965 Y118.511 E5.54307
G1 X160.965 Y106.489 E5.98
G1 X160.454 Y104.749 E6.04589
G1 X159.289 Y103.664 E6.10376
G1 X157.746 Y103.27 E6.16162
G1 X72.254 Y103.27 E9.2687
G1 X70.514 Y103.781 E9.3346
G1 X69.429 Y104.946 E9.39246
G1 X69.035 Y106.489 E9.45032
G1 X69.035 Y116.449 E9.81231
G92 E0
G1 E-1.4 F3600
;WIPE_START
G1 F7200
G1 X69.035 Y117.649 E-1.97
;WIPE_END
G1 E-2 F3600
; printing object test_print_2.STL id:0 copy 0
M486 S0
; acceleration to travel
M204 S1500
G1 X72.425 Y117.873 F9000
; decel to extrusion
M204 S500
G1 X72.863 Y117.902
; end travel
G1 E0 F2400
;TYPE:Internal perimeter
;WIDTH:0.464
G1 X72.863 Y107.098 E0.37828
G1 X157.137 Y107.098 E3.32897
G1 X157.137 Y117.902 E3.70724
G1 X72.923 Y117.902 E6.65583
G1 X72.464 Y118.301 F9000
;TYPE:External perimeter
;WIDTH:0.42
G1 F1500
G1 X72.464 Y106.699 E7.01961
G1 X157.536 Y106.699 E9.687
G1 X157.536 Y118.301 E10.05077
G1 X72.524 Y118.301 E12.71628
;WIPE_START
G1 X72.664 Y117.955 F9000
;WIPE_END
G92 E0
G1 E-1.4 F3600
;WIPE_START
G1 F7200
G1 X72.664 Y116.755 E-1.97
;WIPE_END
G1 E-2 F3600
; acceleration to travel
M204 S1500
G1 X73.682 Y108.315 F9000
; decel to extrusion
M204 S500
G1 X73.814 Y107.224
; end travel
G1 E0 F2400
;TYPE:Solid infill
;WIDTH:0.463543
G1 X73.17 Y107.868 E0.03183
G1 X73.17 Y108.463 E0.05266
G1 X74.228 Y107.405 E0.10498
G1 X74.824 Y107.405 E0.12581
G1 X73.17 Y109.059 E0.2076
G1 X73.17 Y109.654 E0.22843
G1 X75.419 Y107.405 E0.33967
G1 X76.015 Y107.405 E0.3605
G1 X73.17 Y110.25 E0.5012
G1 X73.17 Y110.845 E0.52203
G1 X76.61 Y107.405 E0.69218
G1 X77.206 Y107.405 E0.71301
G1 X73.17 Y111.441 E0.91263
G1 X73.17 Y112.036 E0.93346
G1 X77.801 Y107.405 E1.16253
G1 X78.397 Y107.405 E1.18336
G1 X73.17 Y112.632 E1.44189
G1 X73.17 Y113.227 E1.46272
G1 X78.992 Y107.405 E1.7507
G1 X79.588 Y107.405 E1.77153
G1 X73.17 Y113.823 E2.08898
G1 X73.17 Y114.418 E2.10981
G1 X80.183 Y107.405 E2.45671
G1 X80.779 Y107.405 E2.47754
G1 X73.17 Y115.014 E2.85389
G1 X73.17 Y115.609 E2.87472
G1 X81.374 Y107.405 E3.28054
G1 X81.969 Y107.405 E3.30137
G1 X73.17 Y116.205 E3.73664
G1 X73.17 Y116.8 E3.75747
G1 X82.565 Y107.405 E4.2222
G1 X83.16 Y107.405 E4.24303
G1 X73.17 Y117.396 E4.73722
G1 X73.17 Y117.595 E4.74418
G1 X73.567 Y117.595 E4.75805
G1 X83.756 Y107.405 E5.26208
G1 X84.351 Y107.405 E5.28291
G1 X74.162 Y117.595 E5.78694
G1 X74.758 Y117.595 E5.80777
G1 X84.947 Y107.405 E6.3118
G1 X85.542 Y107.405 E6.33263
G1 X75.353 Y117.595 E6.83665
G1 X75.949 Y117.595 E6.85748
G1 X86.138 Y107.405 E7.36151
G1 X86.733 Y107.405 E7.38234
G1 X76.544 Y117.595 E7.88637
G1 X77.14 Y117.595 E7.9072
G1 X87.329 Y107.405 E8.41123
G1 X87.924 Y107.405 E8.43206
G1 X77.735 Y117.595 E8.93609
G1 X78.331 Y117.595 E8.95692
G1 X88.52 Y107.405 E9.46095
G1 X89.115 Y107.405 E9.48178
G1 X78.926 Y117.595 E9.98581
G1 X79.522 Y117.595 E10.00664
G1 X89.711 Y107.405 E10.51066
G1 X90.306 Y107.405 E10.53149
G1 X80.117 Y117.595 E11.03552
G1 X80.713 Y117.595 E11.05635
G1 X90.902 Y107.405 E11.56038
G1 X91.497 Y107.405 E11.58121
G1 X81.308 Y117.595 E12.08524
G1 X81.904 Y117.595 E12.10607
G1 X92.093 Y107.405 E12.6101
G1 X92.688 Y107.405 E12.63093
G1 X82.499 Y117.595 E13.13496
G1 X83.095 Y117.595 E13.15579
G1 X93.284 Y107.405 E13.65982
G1 X93.879 Y107.405 E13.68065
G1 X83.69 Y117.595 E14.18468
G1 X84.286 Y117.595 E14.2055
G1 X94.475 Y107.405 E14.70953
G1 X95.07 Y107.405 E14.73036
G1 X84.881 Y117.595 E15.23439
G1 X85.477 Y117.595 E15.25522
G1 X95.666 Y107.405 E15.75925
G1 X96.261 Y107.405 E15.78008
G1 X86.072 Y117.595 E16.28411
G1 X86.668 Y117.595 E16.30494
G1 X96.857 Y107.405 E16.80897
G1 X97.452 Y107.405 E16.8298
G1 X87.263 Y117.595 E17.33383
G1 X87.859 Y117.595 E17.35466
G1 X98.048 Y107.405 E17.85869
G1 X98.643 Y107.405 E17.87951
G1 X88.454 Y117.595 E18.38354
G1 X89.05 Y117.595 E18.40437
G1 X99.239 Y107.405 E18.9084
G1 X99.834 Y107.405 E18.92923
G1 X89.645 Y117.595 E19.43326
G1 X90.241 Y117.595 E19.45409
G1 X100.43 Y107.405 E19.95812
G1 X101.025 Y107.405 E19.97895
G1 X90.836 Y117.595 E20.48298
G1 X91.432 Y117.595 E20.50381
G1 X101.621 Y107.405 E21.00784
G1 X102.216 Y107.405 E21.02867
G1 X92.027 Y117.595 E21.5327
G1 X92.623 Y117.595 E21.55352
G1 X102.812 Y107.405 E22.05755
G1 X103.407 Y107.405 E22.07838
G1 X93.218 Y117.595 E22.58241
G1 X93.814 Y117.595 E22.60324
G1 X104.003 Y107.405 E23.10727
G1 X104.598 Y107.405 E23.1281
G1 X94.409 Y117.595 E23.63213
G1 X95.005 Y117.595 E23.65296
G1 X105.194 Y107.405 E24.15699
G1 X105.789 Y107.405 E24.17782
G1 X95.6 Y117.595 E24.68185
G1 X96.196 Y117.595 E24.70268
G1 X106.385 Y107.405 E25.20671
G1 X106.98 Y107.405 E25.22754
G1 X96.791 Y117.595 E25.73156
G1 X97.387 Y117.595 E25.75239
G1 X107.576 Y107.405 E26.25642
G1 X108.171 Y107.405 E26.27725
