; generated by SuperSlicer 2.4 on 2024-05-04 at 14:14:54 UTC

; 

; external perimeters extrusion width = 0.42mm
; perimeters extrusion width = 0.46mm
; infill extrusion width = 0.44mm
; solid infill extrusion width = 0.46mm
; top infill extrusion width = 0.44mm
; first layer extrusion width = 0.56mm

; object:{"name":"test_print_1","id":"test_print_1.STL id:0 copy 0","object_center":[129.442921,142.757997,0.000000],"boundingbox_center":[129.442921,142.757997,27.500000],"boundingbox_size":[61.794243,39.518103,55.000000]}
; Total objects to print: 1
M486 T1
; plater:{"center":[129.442921,142.757997,0.000000],"boundingbox_center":[129.442921,142.757997,27.500000],"boundingbox_size":[61.794243,39.518103,55.000000]}

;TYPE:Custom
G90 ; use absolute coordinates
M83 ; extruder relative mode
M140 S60 ; set final bed temp
M104 S150 ; set temporary nozzle temp to prevent oozing during homing and auto bed leveling
G4 S10 ; allow partial nozzle warmup
G28 ; home all axis
G1 Z50 F240
G1 X2 Y10 F3000
M104 S205 ; set final nozzle temp
M190 S60 ; wait for bed temp to stabilize
M109 S205 ; wait for nozzle temp to stabilize
G1 Z0.28 F240
G92 E0
G1 Y140 E10 F1500 ; prime the nozzle
G1 X2.3 F5000
G92 E0
G1 Y10 E10 F1200 ; prime the nozzle
G92 E0
M107
G21 ; set units to millimeters
G90 ; use absolute coordinates
M82 ; use absolute distances for extrusion
G92 E0
; Filament gcode
;_TOOLCHANGE 0
M107
;LAYER_CHANGE
;Z:0.2
;HEIGHT:0.2
;BEFORE_LAYER_CHANGE
;0.2


G1 E-2 F3600
G1 Z0.2 F9000
;AFTER_LAYER_CHANGE
;0.2
G92 E0
M204 S500
G1 X96.806 Y120.291
G1 E2 F2400
;TYPE:Skirt
;WIDTH:0.48
G1 F1200
G1 X95.721 Y121.456 E2.05786
G1 X95.327 Y122.999 E2.11573
G1 X95.327 Y162.517 E3.55194
G1 X95.838 Y164.257 E3.61784
G1 X97.003 Y165.342 E3.6757
G1 X98.546 Y165.736 E3.73357
G1 X160.34 Y165.736 E5.97937
G1 X162.08 Y165.225 E6.04527
G1 X163.165 Y164.06 E6.10313
G1 X163.559 Y162.517 E6.161
G1 X163.559 Y122.999 E7.59722
G1 X163.048 Y121.259 E7.66311
G1 X161.883 Y120.174 E7.72098
G1 X160.34 Y119.78 E7.77884
G1 X98.546 Y119.78 E10.02465
G1 X96.864 Y120.274 E10.08836
G92 E0
G1 E-1.4 F3600
;WIPE_START
G1 F7200
G1 X96.03 Y121.137 E-1.97
;WIPE_END
G1 E-2 F3600
; printing object test_print_1.STL id:0 copy 0
M486 S0
; acceleration to travel
M204 S1500
G1 X103.956 Y147.657 F9000
; decel to extrusion
M204 S500
G1 X104.924 Y150.897
; end travel
G1 E0 F2400
;TYPE:Internal perimeter
;WIDTH:0.564
G1 F1200
G1 X104.879 Y150.901 E0.00198
G1 X104.431 Y151.021 E0.02204
G1 X104.012 Y151.216 E0.0421
G1 X103.632 Y151.482 E0.06217
G1 X103.305 Y151.809 E0.08223
G1 X103.039 Y152.189 E0.10229
G1 X102.844 Y152.608 E0.12236
G1 X102.724 Y153.056 E0.14242
G1 X102.684 Y153.517 E0.16248
G1 X102.724 Y153.978 E0.18255
G1 X102.844 Y154.426 E0.20261
G1 X103.039 Y154.845 E0.22267
G1 X103.305 Y155.225 E0.24274
G1 X103.632 Y155.552 E0.2628
G1 X104.012 Y155.818 E0.28286
G1 X104.431 Y156.013 E0.30293
G1 X104.879 Y156.133 E0.32299
G1 X105.34 Y156.174 E0.34306
G1 X105.801 Y156.133 E0.36312
G1 X106.249 Y156.013 E0.38318
G1 X106.668 Y155.818 E0.40325
G1 X107.048 Y155.552 E0.42331
G1 X107.375 Y155.225 E0.44337
G1 X107.641 Y154.845 E0.46344
G1 X107.836 Y154.426 E0.4835
G1 X107.956 Y153.978 E0.50356
G1 X107.997 Y153.517 E0.52363
G1 X107.956 Y153.056 E0.54369
G1 X107.836 Y152.608 E0.56376
G1 X107.641 Y152.189 E0.58382
G1 X107.375 Y151.809 E0.60388
G1 X107.048 Y151.482 E0.62395
G1 X106.668 Y151.216 E0.64401
G1 X106.249 Y151.021 E0.66407
G1 X105.801 Y150.901 E0.68414
G1 X105.34 Y150.861 E0.7042
G1 X104.984 Y150.892 E0.71969
G1 X104.97 Y151.416 F9000
;TYPE:External perimeter
G1 F1200
G1 X104.61 Y151.512 E0.7358
G1 X104.273 Y151.669 E0.75191
G1 X103.969 Y151.883 E0.76803
G1 X103.706 Y152.146 E0.78414
G1 X103.492 Y152.45 E0.80025
G1 X103.335 Y152.787 E0.81637
G1 X103.239 Y153.147 E0.83248
G1 X103.207 Y153.517 E0.84859
G1 X103.239 Y153.888 E0.86471
G1 X103.335 Y154.247 E0.88082
G1 X103.492 Y154.584 E0.89693
G1 X103.706 Y154.888 E0.91305
G1 X103.969 Y155.151 E0.92916
G1 X104.273 Y155.365 E0.94527
G1 X104.61 Y155.522 E0.96138
G1 X104.97 Y155.618 E0.9775
G1 X105.34 Y155.651 E0.99361
G1 X105.711 Y155.618 E1.00972
G1 X106.07 Y155.522 E1.02584
G1 X106.407 Y155.365 E1.04195
G1 X106.711 Y155.151 E1.05806
G1 X106.974 Y154.888 E1.07418
G1 X107.188 Y154.584 E1.09029
G1 X107.345 Y154.247 E1.1064
G1 X107.441 Y153.888 E1.12252
G1 X107.473 Y153.517 E1.13863
G1 X107.441 Y153.147 E1.15474
G1 X107.345 Y152.787 E1.17086
G1 X107.188 Y152.45 E1.18697
G1 X106.974 Y152.146 E1.20308
G1 X106.711 Y151.883 E1.21919
G1 X106.407 Y151.669 E1.23531
G1 X106.07 Y151.512 E1.25142
G1 X105.711 Y151.416 E1.26753
G1 X105.34 Y151.384 E1.28365
G1 X105.029 Y151.411 E1.29716
;WIPE_START
G1 X104.704 Y151.117 F9000
;WIPE_END
G92 E0
G1 E-1.4 F3600
;WIPE_START
G1 F7200
G1 X104.542 Y151.324 E-1.52462
G1 X104.173 Y151.496 E-1.71789
G1 X103.84 Y151.729 E-1.91116
G1 X103.752 Y151.817 E-1.97
;WIPE_END
G1 E-2 F3600
; acceleration to travel
M204 S1500
G1 X105.208 Y134.309 F9000
; decel to extrusion
M204 S500
G1 X105.385 Y132.17
; end travel
G1 E0 F2400
;TYPE:Internal perimeter
G1 F1200
G1 X105.801 Y132.133 E0.01809
G1 X106.249 Y132.013 E0.03815
G1 X106.668 Y131.818 E0.05822
G1 X107.048 Y131.552 E0.07828
G1 X107.375 Y131.225 E0.09834
G1 X107.641 Y130.845 E0.11841
G1 X107.836 Y130.426 E0.13847
G1 X107.956 Y129.978 E0.15853
G1 X107.997 Y129.517 E0.1786
G1 X107.956 Y129.056 E0.19866
G1 X107.836 Y128.608 E0.21872
G1 X107.641 Y128.189 E0.23879
G1 X107.375 Y127.809 E0.25885
G1 X107.048 Y127.482 E0.27891
G1 X106.668 Y127.216 E0.29898
G1 X106.249 Y127.021 E0.31904
G1 X105.801 Y126.901 E0.33911
G1 X105.34 Y126.861 E0.35917
G1 X104.879 Y126.901 E0.37923
G1 X104.431 Y127.021 E0.3993
G1 X104.012 Y127.216 E0.41936
G1 X103.632 Y127.482 E0.43942
G1 X103.305 Y127.809 E0.45949
G1 X103.039 Y128.189 E0.47955
G1 X102.844 Y128.608 E0.49961
G1 X102.724 Y129.056 E0.51968
G1 X102.684 Y129.517 E0.53974
G1 X102.724 Y129.978 E0.55981
G1 X102.844 Y130.426 E0.57987
G1 X103.039 Y130.845 E0.59993
G1 X103.305 Y131.225 E0.62
G1 X103.632 Y131.552 E0.64006
G1 X104.012 Y131.818 E0.66012
G1 X104.431 Y132.013 E0.68019
G1 X104.879 Y132.133 E0.70025
G1 X105.326 Y132.172 E0.71969
G1 X105.34 Y131.651 F9000
;TYPE:External perimeter
G1 F1200
G1 X105.711 Y131.618 E0.7358
G1 X106.07 Y131.522 E0.75192
G1 X106.407 Y131.365 E0.76803
G1 X106.711 Y131.151 E0.78414
G1 X106.974 Y130.888 E0.80025
G1 X107.188 Y130.584 E0.81637
G1 X107.345 Y130.247 E0.83248
G1 X107.441 Y129.888 E0.84859
G1 X107.473 Y129.517 E0.86471
G1 X107.441 Y129.147 E0.88082
G1 X107.345 Y128.787 E0.89693
G1 X107.188 Y128.45 E0.91305
G1 X106.974 Y128.146 E0.92916
G1 X106.711 Y127.883 E0.94527
G1 X106.407 Y127.669 E0.96139
G1 X106.07 Y127.512 E0.9775
G1 X105.711 Y127.416 E0.99361
G1 X105.34 Y127.384 E1.00972
G1 X104.97 Y127.416 E1.02584
G1 X104.61 Y127.512 E1.04195
G1 X104.273 Y127.669 E1.05806
G1 X103.969 Y127.883 E1.07418
G1 X103.706 Y128.146 E1.09029
G1 X103.492 Y128.45 E1.1064
G1 X103.335 Y128.787 E1.12252
G1 X103.239 Y129.147 E1.13863
G1 X103.207 Y129.517 E1.15474
G1 X103.239 Y129.888 E1.17086
G1 X103.335 Y130.247 E1.18697
G1 X103.492 Y130.584 E1.20308
G1 X103.706 Y130.888 E1.21919
G1 X103.969 Y131.151 E1.23531
G1 X104.273 Y131.365 E1.25142
G1 X104.61 Y131.522 E1.26753
G1 X104.97 Y131.618 E1.28365
G1 X105.28 Y131.645 E1.29716
;WIPE_START
G1 X105.55 Y131.991 F9000
;WIPE_END
G92 E0
G1 E-1.4 F3600
;WIPE_START
G1 F7200
G1 X105.745 Y131.816 E-1.52462
G1 X106.138 Y131.71 E-1.71789
G1 X106.507 Y131.539 E-1.91116
G1 X106.609 Y131.467 E-1.97
;WIPE_END
G1 E-2 F3600
; acceleration to travel
M204 S1500
G1 X100.228 Y124.726 F9000
; decel to extrusion
M204 S500
G1 X99.449 Y123.902
; end travel
G1 E0 F2400
;TYPE:Internal perimeter
G1 F1200
G1 X159.437 Y123.902 E2.59916
G1 X159.437 Y161.614 E4.23314
G1 X99.449 Y161.614 E6.8323
G1 X99.449 Y123.962 E8.46368
G1 X98.928 Y123.381 F9000
;TYPE:External perimeter
G1 F1200
G1 X159.958 Y123.381 E11.108
G1 X159.958 Y162.135 E12.78714
G1 X98.928 Y162.135 E15.43145
G1 X98.928 Y123.441 E17.10799
;WIPE_START
G1 X99.274 Y123.581 F9000
;WIPE_END
G92 E0
G1 E-1.4 F3600
;WIPE_START
G1 F7200
G1 X100.474 Y123.581 E-1.97
;WIPE_END
G1 E-2 F3600
; acceleration to travel
M204 S1500
G1 X151.94 Y124.006 F9000
; decel to extrusion
M204 S500
G1 X158.227 Y124.058
; end travel
G1 E0 F2400
;TYPE:Solid infill
;WIDTH:0.561679
G1 F1200
G1 X159.057 Y124.888 E0.0506
G1 X159.057 Y125.625 E0.0824
G1 X157.714 Y124.282 E0.1643
G1 X156.978 Y124.282 E0.1961
G1 X159.057 Y126.361 E0.32297
G1 X159.057 Y127.098 E0.35477
G1 X156.241 Y124.282 E0.5266
G1 X155.504 Y124.282 E0.5584
G1 X159.057 Y127.835 E0.77521
G1 X159.057 Y128.572 E0.80701
G1 X154.767 Y124.282 E1.06878
G1 X154.03 Y124.282 E1.10058
G1 X159.057 Y129.309 E1.40732
G1 X159.057 Y130.046 E1.43912
G1 X153.293 Y124.282 E1.79083
G1 X152.556 Y124.282 E1.82263
G1 X159.057 Y130.783 E2.21931
G1 X159.057 Y131.52 E2.25111
G1 X151.819 Y124.282 E2.69276
G1 X151.082 Y124.282 E2.72456
G1 X159.057 Y132.257 E3.21118
G1 X159.057 Y132.994 E3.24298
G1 X150.345 Y124.282 E3.77456
G1 X149.608 Y124.282 E3.80636
G1 X159.057 Y133.731 E4.38292
G1 X159.057 Y134.468 E4.41471
G1 X148.871 Y124.282 E5.03624
G1 X148.135 Y124.282 E5.06804
G1 X159.057 Y135.204 E5.73453
G1 X159.057 Y135.941 E5.76633
G1 X147.398 Y124.282 E6.47779
G1 X146.661 Y124.282 E6.50959
G1 X159.057 Y136.678 E7.26602
G1 X159.057 Y137.415 E7.29782
G1 X145.924 Y124.282 E8.09922
G1 X145.187 Y124.282 E8.13102
G1 X159.057 Y138.152 E8.97738
G1 X159.057 Y138.889 E9.00918
G1 X144.45 Y124.282 E9.90052
G1 X143.713 Y124.282 E9.93232
G1 X159.057 Y139.626 E10.86862
G1 X159.057 Y140.363 E10.90042
G1 X142.976 Y124.282 E11.8817
G1 X142.239 Y124.282 E11.91349
G1 X159.057 Y141.1 E12.93974
G1 X159.057 Y141.837 E12.97153
G1 X141.502 Y124.282 E14.04275
G1 X140.765 Y124.282 E14.07454
G1 X159.057 Y142.574 E15.19072
G1 X159.057 Y143.311 E15.22252
G1 X140.028 Y124.282 E16.38367
G1 X139.292 Y124.282 E16.41547
G1 X159.057 Y144.047 E17.62159
G1 X159.057 Y144.784 E17.65339
G1 X138.555 Y124.282 E18.90447
G1 X137.818 Y124.282 E18.93627
G1 X159.057 Y145.521 E20.23233
G1 X159.057 Y146.258 E20.26412
G1 X137.081 Y124.282 E21.60515
G1 X136.344 Y124.282 E21.63695
G1 X159.057 Y146.995 E23.02294
G1 X159.057 Y147.732 E23.05474
G1 X135.607 Y124.282 E24.4857
G1 X134.87 Y124.282 E24.5175
G1 X159.057 Y148.469 E25.99343
G1 X159.057 Y149.206 E26.02523
G1 X134.133 Y124.282 E27.54613
G1 X133.396 Y124.282 E27.57792
G1 X159.057 Y149.943 E29.14379
G1 X159.057 Y150.68 E29.17559
G1 X132.659 Y124.282 E30.78643
G1 X131.922 Y124.282 E30.81822
G1 X159.057 Y151.417 E32.47403
G1 X159.057 Y152.154 E32.50583
G1 X131.185 Y124.282 E34.2066
G1 X130.449 Y124.282 E34.2384
G1 X159.057 Y152.89 E35.98414
G1 X159.057 Y153.627 E36.01594
G1 X129.712 Y124.282 E37.80665
G1 X128.975 Y124.282 E37.83845
G1 X159.057 Y154.364 E39.67413
G1 X159.057 Y155.101 E39.70593
G1 X128.238 Y124.282 E41.58658
G1 X127.501 Y124.282 E41.61838
G1 X159.057 Y155.838 E43.54399
G1 X159.057 Y156.575 E43.57579
G1 X126.764 Y124.282 E45.54638
G1 X126.027 Y124.282 E45.57818
G1 X159.057 Y157.312 E47.59373
G1 X159.057 Y158.049 E47.62553
G1 X125.29 Y124.282 E49.68605
G1 X124.553 Y124.282 E49.71785
G1 X159.057 Y158.786 E51.82334
G1 X159.057 Y159.523 E51.85514
G1 X123.816 Y124.282 E54.0056
G1 X123.079 Y124.282 E54.0374
G1 X159.057 Y160.26 E56.23283
G1 X159.057 Y160.997 E56.26463
G1 X122.342 Y124.282 E58.50503
G1 X121.606 Y124.282 E58.53682
G1 X158.557 Y161.234 E60.79169
G1 X157.82 Y161.234 E60.82349
G1 X120.869 Y124.282 E63.07835
G1 X120.132 Y124.282 E63.11015
G1 X157.083 Y161.234 E65.36502
G1 X156.346 Y161.234 E65.39681
G1 X119.395 Y124.282 E67.65168
G1 X118.658 Y124.282 E67.68348
G1 X155.609 Y161.234 E69.93834
G1 X154.872 Y161.234 E69.97014
G1 X117.921 Y124.282 E72.22501
G1 X117.184 Y124.282 E72.2568
G1 X154.135 Y161.234 E74.51167
G1 X153.398 Y161.234 E74.54347
G1 X116.447 Y124.282 E76.79833
G1 X115.71 Y124.282 E76.83013
G1 X152.661 Y161.234 E79.085
G1 X151.924 Y161.234 E79.11679
G1 X114.973 Y124.282 E81.37166
G1 X114.236 Y124.282 E81.40346
G1 X151.188 Y161.234 E83.65832
G1 X150.451 Y161.234 E83.69012
G1 X113.499 Y124.282 E85.94499
G1 X112.763 Y124.282 E85.97678
G1 X149.714 Y161.234 E88.23165
G1 X148.977 Y161.234 E88.26345
G1 X112.026 Y124.282 E90.51831
G1 X111.289 Y124.282 E90.55011
G1 X148.24 Y161.234 E92.80498
G1 X147.503 Y161.234 E92.83677
G1 X110.552 Y124.282 E95.09164
G1 X109.815 Y124.282 E95.12344
G1 X146.766 Y161.234 E97.3783
G1 X146.029 Y161.234 E97.4101
G1 X109.078 Y124.282 E99.66497
G1 X108.341 Y124.282 E99.69676
G1 X145.292 Y161.234 E101.95163
G1 X144.555 Y161.234 E101.98343
G1 X107.604 Y124.282 E104.23829
G1 X106.867 Y124.282 E104.27009
G1 X143.818 Y161.234 E106.52496
G1 X143.081 Y161.234 E106.55675
G1 X106.13 Y124.282 E108.81162
G1 X105.393 Y124.282 E108.84342
G1 X142.345 Y161.234 E111.09828
G1 X141.608 Y161.234 E111.13008
G1 X104.656 Y124.282 E113.38495
G1 X103.92 Y124.282 E113.41674
G1 X106.27 Y126.633 E113.56016
G1 X106.379 Y126.662 E113.56505
G1 X106.859 Y126.886 E113.5879
G1 X107.293 Y127.19 E113.61076
G1 X107.668 Y127.564 E113.63361
G1 X107.971 Y127.998 E113.65646
G1 X108.195 Y128.478 E113.67931
G1 X108.224 Y128.587 E113.68421
G1 X140.871 Y161.234 E115.67637
G1 X140.134 Y161.234 E115.70817
G1 X108.375 Y129.474 E117.6462
G1 X108.378 Y129.517 E117.64805
G1 X108.332 Y130.045 E117.6709
G1 X108.306 Y130.143 E117.67528
G1 X139.397 Y161.234 E119.57253
G1 X138.66 Y161.234 E119.60433
G1 X108.128 Y130.701 E121.4675
G1 X107.971 Y131.036 E121.48346
G1 X107.87 Y131.181 E121.49107
G1 X137.923 Y161.234 E123.32498
G1 X137.186 Y161.234 E123.35678
G1 X107.545 Y131.593 E125.16556
G1 X107.293 Y131.845 E125.18094
G1 X107.156 Y131.94 E125.18815
G1 X136.449 Y161.234 E126.9757
G1 X135.712 Y161.234 E127.0075
G1 X106.701 Y132.222 E128.77786
G1 X106.379 Y132.372 E128.79317
G1 X106.17 Y132.428 E128.80252
G1 X134.975 Y161.234 E130.5603
G1 X134.238 Y161.234 E130.5921
G1 X105.335 Y132.33 E132.35587
G92 E0
G1 E-1.4 F3600
;WIPE_START
G1 F7200
G1 X106.183 Y133.179 E-1.97
;WIPE_END
G1 E-2 F3600
; acceleration to travel
M204 S1500
G1 X105.689 Y127.431 F9000
; decel to extrusion
M204 S500
G1 X105.629 Y126.729
; end travel
G1 E0 F2400
G1 F1200
G1 X103.183 Y124.282 E0.14929
G1 X102.446 Y124.282 E0.18109
G1 X104.714 Y126.551 E0.31954
G1 X104.301 Y126.662 E0.33801
G1 X104.156 Y126.73 E0.34491
G1 X101.709 Y124.282 E0.49424
G1 X100.972 Y124.282 E0.52604
G1 X103.676 Y126.987 E0.69108
G1 X103.387 Y127.19 E0.70632
G1 X103.265 Y127.312 E0.71379
G1 X100.235 Y124.282 E0.89867
G1 X99.829 Y124.282 E0.91618
G1 X99.829 Y124.614 E0.93047
G1 X102.917 Y127.701 E1.11887
G1 X102.709 Y127.998 E1.13451
G1 X102.635 Y128.156 E1.14204
G1 X99.829 Y125.351 E1.31325
G1 X99.829 Y126.087 E1.34505
G1 X102.429 Y128.687 E1.50369
G1 X102.348 Y128.989 E1.5172
G1 X102.319 Y129.315 E1.53128
G1 X99.829 Y126.824 E1.68323
G1 X99.829 Y127.561 E1.71503
G1 X102.361 Y130.093 E1.86951
G1 X102.485 Y130.556 E1.89021
G1 X102.709 Y131.036 E1.91307
G1 X103.013 Y131.47 E1.93592
G1 X103.387 Y131.845 E1.95877
G1 X103.821 Y132.148 E1.98163
G1 X104.301 Y132.372 E2.00448
G1 X104.764 Y132.496 E2.02518
G1 X133.502 Y161.234 E3.77881
G1 X132.765 Y161.234 E3.81061
G1 X99.829 Y128.298 E5.82042
G1 X99.829 Y129.035 E5.85221
G1 X132.028 Y161.234 E7.81706
G1 X131.291 Y161.234 E7.84885
G1 X99.829 Y129.772 E9.76873
G1 X99.829 Y130.509 E9.80052
G1 X130.554 Y161.234 E11.67543
G1 X129.817 Y161.234 E11.70723
G1 X99.829 Y131.246 E13.53716
G1 X99.829 Y131.983 E13.56896
G1 X129.08 Y161.234 E15.35393
G1 X128.343 Y161.234 E15.38572
G1 X99.829 Y132.72 E17.12572
G1 X99.829 Y133.457 E17.15752
G1 X127.606 Y161.234 E18.85255
G1 X126.869 Y161.234 E18.88435
G1 X99.829 Y134.194 E20.53441
G1 X99.829 Y134.93 E20.5662
G1 X126.132 Y161.234 E22.1713
G1 X125.395 Y161.234 E22.20309
G1 X99.829 Y135.667 E23.76322
G1 X99.829 Y136.404 E23.79501
G1 X124.659 Y161.234 E25.31017
G1 X123.922 Y161.234 E25.34197
G1 X99.829 Y137.141 E26.81215
G1 X99.829 Y137.878 E26.84395
G1 X123.185 Y161.234 E28.26917
G1 X122.448 Y161.234 E28.30096
G1 X99.829 Y138.615 E29.68121
G1 X99.829 Y139.352 E29.71301
G1 X121.711 Y161.234 E31.04829
G1 X120.974 Y161.234 E31.08009
